( pcb2gcode 2.5.0 )
( Software-independent Gcode )

G94 ( Millimeters per minute feed rate. )
G21 ( Units == Millimeters. )

G90 ( Absolute coordinates. )
G00 S10000 ( RPM spindle speed. )
G64 P0.01016 ( set maximum deviation from commanded toolpath )
G01 F400.00000 ( Feedrate. )


G00 Z10.00000 (Retract to tool change height)
T1
M5      (Spindle stop.)
G04 P1.00000 (Wait for spindle to stop)
(MSG, Change tool bit to mill diameter 0.30000mm)
M6      (Tool change.)
M0      (Temporary machine stop.)
M3 ( Spindle on clockwise. )
G04 P1.00000 (Wait for spindle to get up to speed)
G04 P0 ( dwell for no time -- G64 should not smooth over this point )
G00 Z5.00000 ( retract )

G00 X149.04999 Y1.59898 ( rapid move to begin. )
G01 F200.00000
( Mill infeed pass 1/1 )
G01 Z-0.10000
G04 P0 ( dwell for no time -- G64 should not smooth over this point )
G01 F400.00000
G01 X149.04999 Y1.59898
G01 X149.04999 Y77.60099
G01 X149.02827 Y77.76289
G01 X149.01623 Y77.80389
G01 X148.95723 Y77.93307
G01 X148.93416 Y77.96899
G01 X148.84117 Y78.07633
G01 X148.80889 Y78.10429
G01 X148.68941 Y78.18108
G01 X148.65060 Y78.19880
G01 X148.51433 Y78.23883
G01 X148.48275 Y78.24452
G01 X148.40102 Y78.24999
G01 X88.33116 Y78.24999
G01 X88.16924 Y78.22824
G01 X88.12826 Y78.21620
G01 X87.99908 Y78.15720
G01 X87.96316 Y78.13414
G01 X87.85582 Y78.04112
G01 X87.82786 Y78.00884
G01 X87.75107 Y77.88936
G01 X87.73335 Y77.85054
G01 X87.69332 Y77.71427
G01 X87.68724 Y77.67201
G01 X87.68724 Y77.52997
G01 X87.69332 Y77.48768
G01 X87.73335 Y77.35141
G01 X87.75107 Y77.31260
G01 X87.82786 Y77.19312
G01 X87.85542 Y77.16121
G01 X87.95598 Y77.07341
G01 X89.23060 Y75.79878
G01 X89.30507 Y75.68730
G01 X89.35638 Y75.56348
G01 X89.38252 Y75.43201
G01 X89.38252 Y28.05087
G01 X89.35638 Y27.91940
G01 X89.30507 Y27.79555
G01 X89.23060 Y27.68410
G01 X86.03190 Y24.48540
G01 X85.88778 Y24.38911
G01 X85.78837 Y24.31456
G01 X85.71628 Y24.23645
G01 X85.57810 Y24.09830
G01 X85.42522 Y23.98720
G01 X85.25687 Y23.90143
G01 X85.07714 Y23.84306
G01 X84.89050 Y23.81347
G01 X83.90153 Y23.81347
G01 X83.71494 Y23.84303
G01 X83.53518 Y23.90143
G01 X83.36681 Y23.98723
G01 X83.21395 Y24.09828
G01 X83.08035 Y24.23191
G01 X82.96925 Y24.38479
G01 X82.88347 Y24.55314
G01 X82.82510 Y24.73285
G01 X82.79553 Y24.91949
G01 X82.79553 Y25.10846
G01 X82.82510 Y25.29513
G01 X82.88347 Y25.47481
G01 X82.96925 Y25.64316
G01 X83.08035 Y25.79604
G01 X83.12337 Y25.84123
G01 X83.20849 Y25.95492
G01 X83.22896 Y25.99241
G01 X83.27859 Y26.12550
G01 X83.28766 Y26.16721
G01 X83.29779 Y26.30886
G01 X83.29475 Y26.35146
G01 X83.26455 Y26.49025
G01 X83.24964 Y26.53025
G01 X83.18156 Y26.65491
G01 X83.16023 Y26.68466
G01 X83.08215 Y26.76937
G01 X82.96925 Y26.92479
G01 X82.88347 Y27.09314
G01 X82.82510 Y27.27285
G01 X82.79553 Y27.45946
G01 X82.79553 Y27.64846
G01 X82.82510 Y27.83513
G01 X82.88347 Y28.01481
G01 X82.96925 Y28.18316
G01 X83.08035 Y28.33604
G01 X83.21395 Y28.46967
G01 X83.36683 Y28.58074
G01 X83.53518 Y28.66654
G01 X83.71491 Y28.72491
G01 X83.90153 Y28.75448
G01 X84.89050 Y28.75448
G01 X85.07717 Y28.72491
G01 X85.27028 Y28.66378
G01 X85.41024 Y28.63954
G01 X85.45293 Y28.63832
G01 X85.59403 Y28.65453
G01 X85.63531 Y28.66538
G01 X85.76614 Y28.72067
G01 X85.80020 Y28.74069
G01 X85.90897 Y28.82722
G01 X86.50747 Y29.42788
G01 X86.59256 Y29.54157
G01 X86.61300 Y29.57901
G01 X86.66266 Y29.71208
G01 X86.67127 Y29.74853
G01 X86.68351 Y29.87061
G01 X86.68351 Y31.25689
G01 X86.66180 Y31.41879
G01 X86.64976 Y31.45978
G01 X86.59075 Y31.58899
G01 X86.56769 Y31.62491
G01 X86.47467 Y31.73225
G01 X86.44239 Y31.76021
G01 X86.32291 Y31.83700
G01 X86.28407 Y31.85473
G01 X86.14780 Y31.89473
G01 X86.10554 Y31.90080
G01 X85.96350 Y31.90080
G01 X85.92126 Y31.89473
G01 X85.78499 Y31.85473
G01 X85.74615 Y31.83700
G01 X85.62667 Y31.76021
G01 X85.57988 Y31.71960
G01 X85.42522 Y31.60720
G01 X85.25687 Y31.52143
G01 X85.07714 Y31.46306
G01 X84.89050 Y31.43347
G01 X83.90153 Y31.43347
G01 X83.71494 Y31.46303
G01 X83.53518 Y31.52143
G01 X83.36681 Y31.60723
G01 X83.21395 Y31.71828
G01 X83.15268 Y31.77741
G01 X83.03899 Y31.86252
G01 X83.00150 Y31.88300
G01 X82.86841 Y31.93263
G01 X82.83203 Y31.94121
G01 X82.70991 Y31.95348
G01 X81.56470 Y31.95348
G01 X81.40278 Y31.93174
G01 X81.36181 Y31.91970
G01 X81.23262 Y31.86070
G01 X81.20082 Y31.84106
G01 X81.11776 Y31.77413
G01 X80.86861 Y31.52618
G01 X80.76948 Y31.39633
G01 X80.74901 Y31.35884
G01 X80.69937 Y31.22577
G01 X80.69079 Y31.18940
G01 X80.67852 Y31.06730
G01 X80.67852 Y23.78670
G01 X80.70026 Y23.62475
G01 X80.71230 Y23.58378
G01 X80.77131 Y23.45457
G01 X80.79094 Y23.42276
G01 X80.86861 Y23.32777
G01 X87.09098 Y17.10759
G01 X87.20467 Y17.02245
G01 X87.24216 Y17.00195
G01 X87.37523 Y16.95232
G01 X87.41160 Y16.94373
G01 X87.53370 Y16.93146
G01 X91.49249 Y16.93146
G01 X91.65442 Y16.95321
G01 X91.69539 Y16.96525
G01 X91.82460 Y17.02425
G01 X91.86052 Y17.04731
G01 X91.96786 Y17.14033
G01 X91.99247 Y17.16763
G01 X92.04865 Y17.24785
G01 X92.15104 Y17.35023
G01 X92.27050 Y17.42392
G01 X92.40481 Y17.46842
G01 X92.48365 Y17.47647
G01 X93.36841 Y17.47647
G01 X93.44723 Y17.46842
G01 X93.58154 Y17.42392
G01 X93.70102 Y17.35023
G01 X93.80029 Y17.25097
G01 X93.90837 Y17.07332
G01 X93.93171 Y17.02659
G01 X93.95604 Y16.99146
G01 X94.05276 Y16.88742
G01 X94.08599 Y16.86062
G01 X94.20806 Y16.78806
G01 X94.24751 Y16.77170
G01 X94.38510 Y16.73647
G01 X94.42754 Y16.73187
G01 X94.56950 Y16.73685
G01 X94.61149 Y16.74439
G01 X94.74629 Y16.78912
G01 X94.78451 Y16.80820
G01 X94.90123 Y16.88912
G01 X94.93249 Y16.91818
G01 X95.02170 Y17.02870
G01 X95.07346 Y17.12397
G01 X95.15177 Y17.25097
G01 X95.25103 Y17.35023
G01 X95.37052 Y17.42392
G01 X95.50481 Y17.46842
G01 X95.58365 Y17.47647
G01 X96.18233 Y17.47647
G01 X96.34430 Y17.49821
G01 X96.38525 Y17.51025
G01 X96.51443 Y17.56926
G01 X96.55035 Y17.59232
G01 X96.65769 Y17.68534
G01 X96.68565 Y17.71762
G01 X96.76244 Y17.83710
G01 X96.78017 Y17.87594
G01 X96.82017 Y18.01221
G01 X96.82624 Y18.05447
G01 X96.82624 Y18.19651
G01 X96.82017 Y18.23875
G01 X96.78017 Y18.37502
G01 X96.76244 Y18.41386
G01 X96.68565 Y18.53334
G01 X96.66556 Y18.55828
G01 X93.18546 Y22.04014
G01 X93.11098 Y22.15165
G01 X93.05967 Y22.27547
G01 X93.03351 Y22.40694
G01 X93.03351 Y39.55900
G01 X93.05967 Y39.69047
G01 X93.11098 Y39.81430
G01 X93.18546 Y39.92578
G01 X99.12222 Y45.86255
G01 X99.23370 Y45.93702
G01 X99.35750 Y45.98833
G01 X99.48900 Y46.01446
G01 X100.37213 Y46.01446
G01 X100.53408 Y46.03621
G01 X100.57505 Y46.04825
G01 X100.70424 Y46.10725
G01 X100.74015 Y46.13031
G01 X100.84749 Y46.22333
G01 X100.87546 Y46.25561
G01 X100.95224 Y46.37509
G01 X100.96997 Y46.41390
G01 X101.01000 Y46.55018
G01 X101.01607 Y46.59247
G01 X101.01607 Y46.73450
G01 X101.01000 Y46.77677
G01 X100.96997 Y46.91304
G01 X100.95252 Y46.95139
G01 X100.87807 Y47.06818
G01 X100.74914 Y47.24499
G01 X100.66347 Y47.41314
G01 X100.60510 Y47.59285
G01 X100.57553 Y47.77948
G01 X100.57553 Y47.96846
G01 X100.60510 Y48.15513
G01 X100.66347 Y48.33481
G01 X100.74925 Y48.50316
G01 X100.86034 Y48.65604
G01 X100.90337 Y48.70123
G01 X100.98849 Y48.81492
G01 X101.00896 Y48.85241
G01 X101.05859 Y48.98550
G01 X101.06766 Y49.02721
G01 X101.07779 Y49.16886
G01 X101.07475 Y49.21146
G01 X101.04455 Y49.35025
G01 X101.02964 Y49.39025
G01 X100.96156 Y49.51491
G01 X100.94023 Y49.54466
G01 X100.86215 Y49.62939
G01 X100.74925 Y49.78479
G01 X100.66347 Y49.95314
G01 X100.60510 Y50.13285
G01 X100.57553 Y50.31948
G01 X100.57553 Y50.50846
G01 X100.60510 Y50.69513
G01 X100.66347 Y50.87481
G01 X100.74925 Y51.04316
G01 X100.86034 Y51.19604
G01 X100.90337 Y51.24123
G01 X100.98849 Y51.35492
G01 X101.00896 Y51.39241
G01 X101.05859 Y51.52550
G01 X101.06766 Y51.56721
G01 X101.07779 Y51.70887
G01 X101.07475 Y51.75146
G01 X101.04455 Y51.89025
G01 X101.02964 Y51.93025
G01 X100.96156 Y52.05489
G01 X100.94023 Y52.08466
G01 X100.86215 Y52.16939
G01 X100.74925 Y52.32479
G01 X100.66347 Y52.49314
G01 X100.60510 Y52.67285
G01 X100.57553 Y52.85948
G01 X100.57553 Y53.04844
G01 X100.60510 Y53.23510
G01 X100.66352 Y53.41491
G01 X100.81125 Y53.70604
G01 X100.82448 Y53.74407
G01 X100.85273 Y53.88331
G01 X100.85516 Y53.92595
G01 X100.84302 Y54.06743
G01 X100.83337 Y54.10904
G01 X100.78186 Y54.24140
G01 X100.76238 Y54.27660
G01 X100.61531 Y54.47409
G01 X100.57907 Y54.57124
G01 X100.57553 Y54.60413
G01 X100.57553 Y56.38381
G01 X100.57907 Y56.41670
G01 X100.61539 Y56.51411
G01 X100.76611 Y56.71792
G01 X100.78605 Y56.75470
G01 X100.83568 Y56.88777
G01 X100.84475 Y56.92948
G01 X100.85488 Y57.07116
G01 X100.85184 Y57.11376
G01 X100.82164 Y57.25254
G01 X100.80866 Y57.28886
G01 X100.66347 Y57.57322
G01 X100.60510 Y57.75285
G01 X100.57553 Y57.93948
G01 X100.57553 Y58.12846
G01 X100.60510 Y58.31513
G01 X100.66347 Y58.49481
G01 X100.74925 Y58.66316
G01 X100.86034 Y58.81604
G01 X100.90337 Y58.86123
G01 X100.98849 Y58.97492
G01 X101.00896 Y59.01241
G01 X101.05859 Y59.14550
G01 X101.06766 Y59.18721
G01 X101.07779 Y59.32886
G01 X101.07475 Y59.37146
G01 X101.04455 Y59.51025
G01 X101.02964 Y59.55025
G01 X100.96156 Y59.67491
G01 X100.94023 Y59.70466
G01 X100.86215 Y59.78939
G01 X100.74925 Y59.94479
G01 X100.66347 Y60.11314
G01 X100.60510 Y60.29285
G01 X100.57566 Y60.47865
G01 X100.57800 Y60.68406
G01 X100.60510 Y60.85510
G01 X100.66347 Y61.03481
G01 X100.74925 Y61.20316
G01 X100.86034 Y61.35604
G01 X100.90337 Y61.40123
G01 X100.98849 Y61.51492
G01 X101.00896 Y61.55241
G01 X101.05859 Y61.68550
G01 X101.06766 Y61.72721
G01 X101.07779 Y61.86886
G01 X101.07475 Y61.91146
G01 X101.04455 Y62.05025
G01 X101.02964 Y62.09025
G01 X100.96156 Y62.21491
G01 X100.94023 Y62.24466
G01 X100.86215 Y62.32939
G01 X100.74925 Y62.48479
G01 X100.66347 Y62.65314
G01 X100.60510 Y62.83285
G01 X100.57559 Y63.01921
G01 X100.57635 Y63.21374
G01 X100.60510 Y63.39510
G01 X100.66347 Y63.57481
G01 X100.74925 Y63.74316
G01 X100.86034 Y63.89604
G01 X100.90337 Y63.94123
G01 X100.98849 Y64.05492
G01 X101.00896 Y64.09241
G01 X101.05859 Y64.22550
G01 X101.06766 Y64.26721
G01 X101.07779 Y64.40887
G01 X101.07475 Y64.45146
G01 X101.04455 Y64.59025
G01 X101.02964 Y64.63025
G01 X100.96156 Y64.75491
G01 X100.94023 Y64.78466
G01 X100.86215 Y64.86939
G01 X100.74925 Y65.02479
G01 X100.66347 Y65.19314
G01 X100.60510 Y65.37285
G01 X100.57553 Y65.55948
G01 X100.57553 Y65.74846
G01 X100.60510 Y65.93513
G01 X100.66347 Y66.11481
G01 X100.74925 Y66.28316
G01 X100.86034 Y66.43604
G01 X100.99395 Y66.56967
G01 X101.14683 Y66.68074
G01 X101.31518 Y66.76654
G01 X101.49491 Y66.82491
G01 X101.68153 Y66.85448
G01 X102.67050 Y66.85448
G01 X102.85714 Y66.82491
G01 X103.03685 Y66.76652
G01 X103.20525 Y66.68072
G01 X103.35810 Y66.56967
G01 X103.41937 Y66.51059
G01 X103.53306 Y66.42545
G01 X103.57055 Y66.40495
G01 X103.70362 Y66.35532
G01 X103.73999 Y66.34673
G01 X103.86209 Y66.33446
G01 X112.46479 Y66.33446
G01 X112.62674 Y66.35621
G01 X112.66771 Y66.36825
G01 X112.79692 Y66.42725
G01 X112.83284 Y66.45031
G01 X112.94018 Y66.54333
G01 X112.96814 Y66.57561
G01 X113.04493 Y66.69509
G01 X113.06266 Y66.73393
G01 X113.10266 Y66.87020
G01 X113.10873 Y66.91247
G01 X113.10873 Y67.05450
G01 X113.10266 Y67.09674
G01 X113.06266 Y67.23301
G01 X113.04493 Y67.27185
G01 X112.96814 Y67.39133
G01 X112.92745 Y67.43853
G01 X110.50272 Y69.86339
G01 X110.37287 Y69.96252
G01 X110.33538 Y69.98300
G01 X110.20231 Y70.03263
G01 X110.16594 Y70.04121
G01 X110.04382 Y70.05348
G01 X103.86209 Y70.05348
G01 X103.70019 Y70.03174
G01 X103.65922 Y70.01970
G01 X103.53001 Y69.96070
G01 X103.49821 Y69.94106
G01 X103.41515 Y69.87413
G01 X103.35810 Y69.81830
G01 X103.20522 Y69.70720
G01 X103.03687 Y69.62143
G01 X102.85714 Y69.56306
G01 X102.67050 Y69.53347
G01 X101.68153 Y69.53347
G01 X101.49494 Y69.56303
G01 X101.31518 Y69.62143
G01 X101.14681 Y69.70723
G01 X100.99395 Y69.81828
G01 X100.86034 Y69.95191
G01 X100.74925 Y70.10479
G01 X100.66347 Y70.27314
G01 X100.60510 Y70.45285
G01 X100.57553 Y70.63948
G01 X100.57553 Y70.82846
G01 X100.60510 Y71.01513
G01 X100.66347 Y71.19481
G01 X100.74925 Y71.36316
G01 X100.86034 Y71.51604
G01 X100.90337 Y71.56123
G01 X100.98849 Y71.67492
G01 X101.00896 Y71.71241
G01 X101.05859 Y71.84550
G01 X101.06766 Y71.88721
G01 X101.07779 Y72.02886
G01 X101.07475 Y72.07146
G01 X101.04455 Y72.21025
G01 X101.02964 Y72.25025
G01 X100.96156 Y72.37491
G01 X100.94023 Y72.40466
G01 X100.86215 Y72.48939
G01 X100.74925 Y72.64479
G01 X100.66347 Y72.81314
G01 X100.60510 Y72.99285
G01 X100.57553 Y73.17948
G01 X100.57553 Y73.36846
G01 X100.60510 Y73.55513
G01 X100.66347 Y73.73481
G01 X100.74925 Y73.90316
G01 X100.86034 Y74.05604
G01 X100.99395 Y74.18967
G01 X101.14683 Y74.30074
G01 X101.31518 Y74.38654
G01 X101.49491 Y74.44491
G01 X101.68153 Y74.47448
G01 X102.67050 Y74.47448
G01 X102.85714 Y74.44491
G01 X103.03685 Y74.38652
G01 X103.20525 Y74.30072
G01 X103.35810 Y74.18967
G01 X103.41937 Y74.13059
G01 X103.53306 Y74.04545
G01 X103.57055 Y74.02495
G01 X103.70362 Y73.97532
G01 X103.73999 Y73.96673
G01 X103.84606 Y73.95533
G01 X110.54506 Y73.95446
G01 X110.67653 Y73.92833
G01 X110.80036 Y73.87702
G01 X110.91184 Y73.80255
G01 X113.86565 Y70.84876
G01 X113.99550 Y70.74962
G01 X114.03299 Y70.72915
G01 X114.16606 Y70.67952
G01 X114.20777 Y70.67045
G01 X114.34945 Y70.66031
G01 X114.39202 Y70.66336
G01 X114.53080 Y70.69354
G01 X114.57083 Y70.70847
G01 X114.69547 Y70.77654
G01 X114.72963 Y70.80212
G01 X114.83007 Y70.90255
G01 X114.85567 Y70.93672
G01 X114.92374 Y71.06138
G01 X114.93865 Y71.10138
G01 X114.96885 Y71.24017
G01 X114.97205 Y71.28012
G01 X114.96552 Y71.40159
G01 X114.96552 Y73.03529
G01 X114.94378 Y73.19721
G01 X114.89509 Y73.35474
G01 X114.86552 Y73.54149
G01 X114.86552 Y74.53046
G01 X114.89509 Y74.71712
G01 X114.95346 Y74.89680
G01 X115.03926 Y75.06516
G01 X115.15033 Y75.21804
G01 X115.28396 Y75.35167
G01 X115.43685 Y75.46274
G01 X115.60522 Y75.54854
G01 X115.78490 Y75.60691
G01 X115.97154 Y75.63648
G01 X116.16052 Y75.63648
G01 X116.34713 Y75.60691
G01 X116.52684 Y75.54852
G01 X116.69524 Y75.46272
G01 X116.84810 Y75.35167
G01 X116.98172 Y75.21804
G01 X117.09277 Y75.06518
G01 X117.17857 Y74.89680
G01 X117.23694 Y74.71707
G01 X117.26654 Y74.53043
G01 X117.26654 Y73.54151
G01 X117.23694 Y73.35487
G01 X117.19313 Y73.21504
G01 X117.16674 Y73.04956
G01 X117.16654 Y72.22069
G01 X117.18825 Y72.05874
G01 X117.20029 Y72.01774
G01 X117.25930 Y71.88853
G01 X117.27896 Y71.85670
G01 X117.35663 Y71.76173
G01 X117.74675 Y71.37161
G01 X117.87659 Y71.27248
G01 X117.91408 Y71.25201
G01 X118.04715 Y71.20237
G01 X118.07662 Y71.19468
G01 X118.32790 Y71.15579
G01 X118.55741 Y71.08503
G01 X118.77352 Y70.98094
G01 X118.97171 Y70.84578
G01 X119.14756 Y70.68264
G01 X119.29711 Y70.49511
G01 X119.41708 Y70.28734
G01 X119.50471 Y70.06405
G01 X119.55810 Y69.83019
G01 X119.57600 Y69.59097
G01 X119.55810 Y69.35176
G01 X119.50471 Y69.11790
G01 X119.41708 Y68.89461
G01 X119.29711 Y68.68683
G01 X119.14756 Y68.49931
G01 X118.97171 Y68.33616
G01 X118.77352 Y68.20101
G01 X118.55739 Y68.09692
G01 X118.32818 Y68.02623
G01 X118.15330 Y67.99832
G01 X118.01731 Y67.95737
G01 X117.97860 Y67.93939
G01 X117.85965 Y67.86179
G01 X117.82760 Y67.83362
G01 X117.73532 Y67.72567
G01 X117.71246 Y67.68958
G01 X117.65432 Y67.55996
G01 X117.64258 Y67.51892
G01 X117.62333 Y67.37820
G01 X117.62361 Y67.33550
G01 X117.64479 Y67.19507
G01 X117.65709 Y67.15420
G01 X117.71695 Y67.02542
G01 X117.73651 Y66.99415
G01 X117.80161 Y66.91391
G01 X120.22183 Y64.49258
G01 X120.35167 Y64.39345
G01 X120.38916 Y64.37295
G01 X120.52223 Y64.32332
G01 X120.55860 Y64.31473
G01 X120.68070 Y64.30246
G01 X126.27858 Y64.30246
G01 X126.44053 Y64.32421
G01 X126.48150 Y64.33625
G01 X126.61069 Y64.39525
G01 X126.64660 Y64.41831
G01 X126.75394 Y64.51133
G01 X126.78191 Y64.54361
G01 X126.85869 Y64.66309
G01 X126.87642 Y64.70190
G01 X126.91645 Y64.83818
G01 X126.92252 Y64.88047
G01 X126.92252 Y65.02250
G01 X126.91645 Y65.06477
G01 X126.87642 Y65.20104
G01 X126.85869 Y65.23985
G01 X126.78191 Y65.35933
G01 X126.76179 Y65.38430
G01 X120.48543 Y71.66250
G01 X120.39234 Y71.80179
G01 X120.32820 Y71.95658
G01 X120.29554 Y72.12089
G01 X120.29554 Y72.55332
G01 X120.27379 Y72.71522
G01 X120.26175 Y72.75619
G01 X120.20275 Y72.88540
G01 X120.11949 Y73.00636
G01 X120.03346 Y73.17517
G01 X119.97509 Y73.35485
G01 X119.94552 Y73.54149
G01 X119.94552 Y74.53046
G01 X119.97509 Y74.71712
G01 X120.03346 Y74.89680
G01 X120.11926 Y75.06516
G01 X120.23033 Y75.21804
G01 X120.36396 Y75.35167
G01 X120.51685 Y75.46274
G01 X120.68522 Y75.54854
G01 X120.86490 Y75.60691
G01 X121.05154 Y75.63648
G01 X121.24052 Y75.63648
G01 X121.42713 Y75.60691
G01 X121.60684 Y75.54852
G01 X121.77524 Y75.46272
G01 X121.92810 Y75.35167
G01 X121.97328 Y75.30864
G01 X122.08697 Y75.22352
G01 X122.12446 Y75.20305
G01 X122.25753 Y75.15342
G01 X122.29924 Y75.14435
G01 X122.44092 Y75.13422
G01 X122.48352 Y75.13727
G01 X122.62233 Y75.16747
G01 X122.66231 Y75.18238
G01 X122.78695 Y75.25042
G01 X122.81671 Y75.27178
G01 X122.90150 Y75.34986
G01 X123.05685 Y75.46274
G01 X123.22522 Y75.54854
G01 X123.40490 Y75.60691
G01 X123.59154 Y75.63648
G01 X123.78052 Y75.63648
G01 X123.96713 Y75.60691
G01 X124.14684 Y75.54852
G01 X124.31524 Y75.46272
G01 X124.46810 Y75.35167
G01 X124.51328 Y75.30864
G01 X124.62697 Y75.22352
G01 X124.66446 Y75.20305
G01 X124.79753 Y75.15342
G01 X124.83924 Y75.14435
G01 X124.98092 Y75.13422
G01 X125.02352 Y75.13727
G01 X125.16230 Y75.16747
G01 X125.20228 Y75.18238
G01 X125.32695 Y75.25042
G01 X125.35671 Y75.27178
G01 X125.44147 Y75.34986
G01 X125.59685 Y75.46274
G01 X125.76522 Y75.54854
G01 X125.94490 Y75.60691
G01 X126.13154 Y75.63648
G01 X126.32052 Y75.63648
G01 X126.50713 Y75.60691
G01 X126.68684 Y75.54852
G01 X126.85524 Y75.46272
G01 X127.00810 Y75.35167
G01 X127.05328 Y75.30864
G01 X127.16697 Y75.22352
G01 X127.20446 Y75.20305
G01 X127.33753 Y75.15342
G01 X127.37924 Y75.14435
G01 X127.52092 Y75.13422
G01 X127.56352 Y75.13727
G01 X127.70230 Y75.16747
G01 X127.74228 Y75.18238
G01 X127.86695 Y75.25042
G01 X127.89671 Y75.27178
G01 X127.98147 Y75.34986
G01 X128.13685 Y75.46274
G01 X128.30522 Y75.54854
G01 X128.48490 Y75.60691
G01 X128.67154 Y75.63648
G01 X128.86052 Y75.63648
G01 X129.04713 Y75.60691
G01 X129.22684 Y75.54852
G01 X129.39524 Y75.46272
G01 X129.54810 Y75.35167
G01 X129.57977 Y75.32215
G01 X129.69346 Y75.23704
G01 X129.73095 Y75.21657
G01 X129.86402 Y75.16693
G01 X129.90573 Y75.15787
G01 X130.04741 Y75.14773
G01 X130.09000 Y75.15078
G01 X130.22879 Y75.18098
G01 X130.26880 Y75.19589
G01 X130.39346 Y75.26396
G01 X130.42765 Y75.28956
G01 X130.52805 Y75.39000
G01 X130.55363 Y75.42416
G01 X130.62170 Y75.54882
G01 X130.70298 Y75.75530
G01 X130.77746 Y75.86678
G01 X131.63422 Y76.72355
G01 X131.74570 Y76.79802
G01 X131.80763 Y76.82370
G01 X131.86953 Y76.84933
G01 X132.00100 Y76.87546
G01 X138.73906 Y76.87546
G01 X138.87053 Y76.84933
G01 X138.99436 Y76.79802
G01 X139.10584 Y76.72355
G01 X142.12160 Y73.70778
G01 X142.19608 Y73.59630
G01 X142.24741 Y73.47247
G01 X142.27355 Y73.34100
G01 X142.27355 Y50.21994
G01 X142.24741 Y50.08847
G01 X142.19608 Y49.96465
G01 X142.12160 Y49.85319
G01 X140.73507 Y48.46663
G01 X140.62981 Y48.36140
G01 X140.51836 Y48.28693
G01 X140.39453 Y48.23562
G01 X140.26306 Y48.20948
G01 X138.96499 Y48.20948
G01 X138.80307 Y48.18774
G01 X138.76210 Y48.17570
G01 X138.63291 Y48.11670
G01 X138.59700 Y48.09363
G01 X138.48966 Y48.00062
G01 X138.32466 Y47.79838
G01 X138.14871 Y47.63516
G01 X137.95052 Y47.50001
G01 X137.73439 Y47.39592
G01 X137.50518 Y47.32523
G01 X137.26797 Y47.28947
G01 X137.02809 Y47.28947
G01 X136.79088 Y47.32523
G01 X136.56165 Y47.39592
G01 X136.34554 Y47.50001
G01 X136.14765 Y47.63493
G01 X135.85588 Y47.90836
G01 X135.82113 Y47.93270
G01 X135.69444 Y47.99693
G01 X135.65398 Y48.01062
G01 X135.51435 Y48.03653
G01 X135.46660 Y48.03948
G01 X133.80928 Y48.03948
G01 X133.64738 Y48.01774
G01 X133.60641 Y48.00570
G01 X133.47720 Y47.94669
G01 X133.44128 Y47.92363
G01 X133.33394 Y47.83062
G01 X133.31205 Y47.80704
G01 X133.23846 Y47.70862
G01 X133.10410 Y47.57428
G01 X132.95124 Y47.46323
G01 X132.78286 Y47.37743
G01 X132.60313 Y47.31906
G01 X132.41649 Y47.28947
G01 X132.22754 Y47.28947
G01 X132.04093 Y47.31903
G01 X131.86122 Y47.37743
G01 X131.69282 Y47.46323
G01 X131.53996 Y47.57428
G01 X131.49475 Y47.61731
G01 X131.38104 Y47.70242
G01 X131.34357 Y47.72289
G01 X131.21050 Y47.77253
G01 X131.16879 Y47.78159
G01 X131.02714 Y47.79173
G01 X130.98457 Y47.78868
G01 X130.84578 Y47.75850
G01 X130.80575 Y47.74359
G01 X130.68109 Y47.67552
G01 X130.65134 Y47.65416
G01 X130.56658 Y47.57608
G01 X130.41124 Y47.46323
G01 X130.24286 Y47.37743
G01 X130.06313 Y47.31906
G01 X129.87649 Y47.28947
G01 X129.68754 Y47.28947
G01 X129.50093 Y47.31903
G01 X129.32110 Y47.37748
G01 X129.03004 Y47.52518
G01 X128.99199 Y47.53841
G01 X128.85280 Y47.56666
G01 X128.81017 Y47.56910
G01 X128.66867 Y47.55698
G01 X128.62709 Y47.54733
G01 X128.49471 Y47.49584
G01 X128.45950 Y47.47636
G01 X128.26192 Y47.32927
G01 X128.16474 Y47.29302
G01 X128.13184 Y47.28947
G01 X126.35222 Y47.28947
G01 X126.31932 Y47.29302
G01 X126.22232 Y47.32919
G01 X126.14163 Y47.38959
G01 X126.08122 Y47.47027
G01 X126.04505 Y47.56724
G01 X126.04152 Y47.60014
G01 X126.04152 Y48.00989
G01 X126.01978 Y48.17179
G01 X126.00774 Y48.21276
G01 X125.94874 Y48.34197
G01 X125.92910 Y48.37377
G01 X125.86217 Y48.45683
G01 X125.10142 Y49.21878
G01 X124.97157 Y49.31791
G01 X124.93408 Y49.33838
G01 X124.80101 Y49.38802
G01 X124.75931 Y49.39708
G01 X124.61763 Y49.40722
G01 X124.57503 Y49.40417
G01 X124.43624 Y49.37397
G01 X124.39624 Y49.35903
G01 X124.27160 Y49.29096
G01 X124.23744 Y49.26538
G01 X124.13701 Y49.16495
G01 X124.11143 Y49.13079
G01 X124.04336 Y49.00615
G01 X124.02842 Y48.96615
G01 X123.99822 Y48.82736
G01 X123.99362 Y48.76521
G01 X123.99352 Y47.58015
G01 X123.98999 Y47.54728
G01 X123.89629 Y47.29633
G01 X123.88720 Y47.25457
G01 X123.87706 Y47.11291
G01 X123.88011 Y47.07034
G01 X123.91029 Y46.93156
G01 X123.92520 Y46.89153
G01 X123.99327 Y46.76686
G01 X124.01156 Y46.74055
G01 X124.06548 Y46.67888
G01 X124.21460 Y46.52978
G01 X124.28908 Y46.41830
G01 X124.34038 Y46.29447
G01 X124.36652 Y46.16300
G01 X124.36805 Y46.10052
G01 X124.38826 Y45.95993
G01 X124.40030 Y45.91896
G01 X124.45931 Y45.78975
G01 X124.48237 Y45.75383
G01 X124.57539 Y45.64649
G01 X124.60767 Y45.61853
G01 X124.72715 Y45.54174
G01 X124.76599 Y45.52402
G01 X124.90226 Y45.48401
G01 X124.94450 Y45.47794
G01 X125.08653 Y45.47794
G01 X125.12880 Y45.48401
G01 X125.26507 Y45.52402
G01 X125.30345 Y45.54147
G01 X125.42021 Y45.61591
G01 X125.59705 Y45.74484
G01 X125.76522 Y45.83054
G01 X125.94490 Y45.88891
G01 X126.13154 Y45.91848
G01 X126.32052 Y45.91848
G01 X126.50713 Y45.88891
G01 X126.68684 Y45.83052
G01 X126.85524 Y45.74472
G01 X127.00810 Y45.63367
G01 X127.05328 Y45.59064
G01 X127.16697 Y45.50552
G01 X127.20446 Y45.48505
G01 X127.33753 Y45.43542
G01 X127.37924 Y45.42635
G01 X127.52092 Y45.41622
G01 X127.56352 Y45.41927
G01 X127.70230 Y45.44947
G01 X127.74228 Y45.46438
G01 X127.86695 Y45.53242
G01 X127.89671 Y45.55378
G01 X127.98147 Y45.63186
G01 X128.13685 Y45.74474
G01 X128.30522 Y45.83054
G01 X128.48490 Y45.88891
G01 X128.67154 Y45.91848
G01 X128.86052 Y45.91848
G01 X129.04713 Y45.88891
G01 X129.22684 Y45.83052
G01 X129.39524 Y45.74472
G01 X129.54810 Y45.63367
G01 X129.59328 Y45.59064
G01 X129.70697 Y45.50552
G01 X129.74446 Y45.48505
G01 X129.87753 Y45.43542
G01 X129.91924 Y45.42635
G01 X130.06092 Y45.41622
G01 X130.10352 Y45.41927
G01 X130.24230 Y45.44947
G01 X130.28228 Y45.46438
G01 X130.40695 Y45.53242
G01 X130.43671 Y45.55378
G01 X130.52147 Y45.63186
G01 X130.67685 Y45.74474
G01 X130.84522 Y45.83054
G01 X131.02490 Y45.88891
G01 X131.21154 Y45.91848
G01 X131.40052 Y45.91848
G01 X131.58713 Y45.88891
G01 X131.76684 Y45.83052
G01 X131.93524 Y45.74472
G01 X132.08810 Y45.63367
G01 X132.13328 Y45.59064
G01 X132.24697 Y45.50552
G01 X132.28446 Y45.48505
G01 X132.41753 Y45.43542
G01 X132.45924 Y45.42635
G01 X132.60092 Y45.41622
G01 X132.64352 Y45.41927
G01 X132.78230 Y45.44947
G01 X132.82228 Y45.46438
G01 X132.94695 Y45.53242
G01 X132.97671 Y45.55378
G01 X133.06147 Y45.63186
G01 X133.21685 Y45.74474
G01 X133.38522 Y45.83054
G01 X133.56490 Y45.88891
G01 X133.75154 Y45.91848
G01 X133.94052 Y45.91848
G01 X134.12713 Y45.88891
G01 X134.30684 Y45.83052
G01 X134.47524 Y45.74472
G01 X134.62810 Y45.63367
G01 X134.76172 Y45.50004
G01 X134.87277 Y45.34718
G01 X134.95857 Y45.17880
G01 X135.01694 Y44.99907
G01 X135.04654 Y44.81243
G01 X135.04654 Y43.87667
G01 X135.06825 Y43.71475
G01 X135.08029 Y43.67375
G01 X135.13930 Y43.54454
G01 X135.16236 Y43.50863
G01 X135.25537 Y43.40129
G01 X135.28766 Y43.37332
G01 X135.40714 Y43.29654
G01 X135.44598 Y43.27881
G01 X135.58225 Y43.23880
G01 X135.62451 Y43.23273
G01 X135.76652 Y43.23273
G01 X135.80706 Y43.23832
G01 X135.93000 Y43.27281
G01 X136.13795 Y43.35780
G01 X136.30226 Y43.39047
G01 X137.18933 Y43.39047
G01 X137.35128 Y43.41221
G01 X137.39225 Y43.42425
G01 X137.52146 Y43.48325
G01 X137.64242 Y43.56651
G01 X137.81122 Y43.65254
G01 X137.99090 Y43.71091
G01 X138.17754 Y43.74048
G01 X139.16652 Y43.74048
G01 X139.35313 Y43.71091
G01 X139.53284 Y43.65252
G01 X139.70124 Y43.56672
G01 X139.85409 Y43.45567
G01 X139.98772 Y43.32204
G01 X140.09877 Y43.16918
G01 X140.18457 Y43.00078
G01 X140.24297 Y42.82107
G01 X140.27253 Y42.63446
G01 X140.27253 Y42.44548
G01 X140.24297 Y42.25887
G01 X140.18457 Y42.07917
G01 X140.09877 Y41.91076
G01 X139.98772 Y41.75791
G01 X139.94470 Y41.71272
G01 X139.85958 Y41.59903
G01 X139.83911 Y41.56154
G01 X139.78948 Y41.42847
G01 X139.78041 Y41.38676
G01 X139.77027 Y41.24508
G01 X139.77332 Y41.20251
G01 X139.80350 Y41.06372
G01 X139.81841 Y41.02369
G01 X139.88648 Y40.89903
G01 X139.90784 Y40.86929
G01 X139.98592 Y40.78453
G01 X140.09877 Y40.62918
G01 X140.18457 Y40.46078
G01 X140.24297 Y40.28107
G01 X140.27253 Y40.09446
G01 X140.27253 Y39.90548
G01 X140.24297 Y39.71887
G01 X140.18457 Y39.53917
G01 X140.09877 Y39.37076
G01 X139.98772 Y39.21791
G01 X139.94470 Y39.17272
G01 X139.85958 Y39.05903
G01 X139.83911 Y39.02154
G01 X139.78948 Y38.88847
G01 X139.78041 Y38.84676
G01 X139.77027 Y38.70508
G01 X139.77332 Y38.66251
G01 X139.80350 Y38.52372
G01 X139.81841 Y38.48369
G01 X139.88648 Y38.35903
G01 X139.90784 Y38.32929
G01 X139.98592 Y38.24453
G01 X140.09877 Y38.08918
G01 X140.18457 Y37.92078
G01 X140.24297 Y37.74107
G01 X140.27253 Y37.55446
G01 X140.27253 Y37.36548
G01 X140.24297 Y37.17887
G01 X140.18452 Y36.99904
G01 X140.03677 Y36.70785
G01 X140.02354 Y36.66975
G01 X139.99534 Y36.53056
G01 X139.99291 Y36.48797
G01 X140.00505 Y36.34646
G01 X140.01470 Y36.30488
G01 X140.06621 Y36.17252
G01 X140.08569 Y36.13734
G01 X140.23273 Y35.93983
G01 X140.26898 Y35.84268
G01 X140.27253 Y35.80979
G01 X140.27253 Y34.03016
G01 X140.26898 Y33.99729
G01 X140.23281 Y33.90026
G01 X140.17251 Y33.81970
G01 X139.95740 Y33.65935
G01 X139.92699 Y33.62899
G01 X139.84185 Y33.51530
G01 X139.82135 Y33.47781
G01 X139.77172 Y33.34472
G01 X139.76265 Y33.30301
G01 X139.75252 Y33.16135
G01 X139.75557 Y33.11876
G01 X139.78577 Y32.97997
G01 X139.80068 Y32.93997
G01 X139.88303 Y32.79382
G01 X139.99809 Y32.64919
G01 X140.11808 Y32.44134
G01 X140.20571 Y32.21805
G01 X140.25910 Y31.98419
G01 X140.27700 Y31.74497
G01 X140.25910 Y31.50576
G01 X140.20571 Y31.27192
G01 X140.11808 Y31.04861
G01 X139.99811 Y30.84083
G01 X139.84856 Y30.65331
G01 X139.67271 Y30.49016
G01 X139.47452 Y30.35501
G01 X139.25839 Y30.25092
G01 X139.02918 Y30.18023
G01 X138.79197 Y30.14447
G01 X138.55209 Y30.14447
G01 X138.31488 Y30.18023
G01 X138.08565 Y30.25092
G01 X137.86926 Y30.35514
G01 X137.55689 Y30.56636
G01 X137.51999 Y30.58450
G01 X137.38514 Y30.62910
G01 X137.35128 Y30.63611
G01 X137.25029 Y30.64447
G01 X135.11910 Y30.64447
G01 X134.95718 Y30.62272
G01 X134.91623 Y30.61071
G01 X134.78705 Y30.55173
G01 X134.75522 Y30.53207
G01 X134.67214 Y30.46512
G01 X134.56810 Y30.36230
G01 X134.41522 Y30.25120
G01 X134.24687 Y30.16542
G01 X134.06714 Y30.10705
G01 X133.88050 Y30.07746
G01 X133.69157 Y30.07746
G01 X133.50493 Y30.10705
G01 X133.32520 Y30.16542
G01 X133.15680 Y30.25122
G01 X133.00397 Y30.36227
G01 X132.87034 Y30.49590
G01 X132.75927 Y30.64879
G01 X132.67346 Y30.81716
G01 X132.61509 Y30.99684
G01 X132.58553 Y31.18348
G01 X132.58553 Y32.17245
G01 X132.61509 Y32.35909
G01 X132.65236 Y32.47870
G01 X132.67656 Y32.61866
G01 X132.67778 Y32.66130
G01 X132.66160 Y32.80240
G01 X132.65073 Y32.84370
G01 X132.59544 Y32.97454
G01 X132.57341 Y33.01109
G01 X132.48352 Y33.12104
G01 X132.45205 Y33.14995
G01 X132.33481 Y33.23011
G01 X132.29648 Y33.24893
G01 X132.16140 Y33.29282
G01 X132.12790 Y33.29961
G01 X132.02996 Y33.30748
G01 X130.44075 Y33.30596
G01 X130.30016 Y33.28574
G01 X130.25919 Y33.27370
G01 X130.12998 Y33.21469
G01 X130.09407 Y33.19163
G01 X129.98673 Y33.09862
G01 X129.95876 Y33.06633
G01 X129.88198 Y32.94685
G01 X129.86425 Y32.90801
G01 X129.82424 Y32.77174
G01 X129.81817 Y32.72950
G01 X129.81817 Y32.58747
G01 X129.82206 Y32.55351
G01 X129.84139 Y32.47032
G01 X129.87695 Y32.35909
G01 X129.90652 Y32.17245
G01 X129.90652 Y31.18348
G01 X129.87695 Y30.99684
G01 X129.81858 Y30.81714
G01 X129.73280 Y30.64879
G01 X129.62170 Y30.49590
G01 X129.50418 Y30.37622
G01 X129.41906 Y30.26253
G01 X129.39859 Y30.22504
G01 X129.34896 Y30.09197
G01 X129.33989 Y30.05026
G01 X129.32976 Y29.90858
G01 X129.33281 Y29.86598
G01 X129.36301 Y29.72720
G01 X129.37792 Y29.68719
G01 X129.44599 Y29.56253
G01 X129.47159 Y29.52834
G01 X129.57202 Y29.42793
G01 X129.60619 Y29.40236
G01 X129.73085 Y29.33428
G01 X129.77085 Y29.31937
G01 X129.90964 Y29.28917
G01 X129.94035 Y29.28574
G01 X130.08820 Y29.28460
G01 X130.22026 Y29.25831
G01 X130.34408 Y29.20703
G01 X130.45554 Y29.13256
G01 X130.92572 Y28.66454
G01 X131.03943 Y28.57942
G01 X131.07690 Y28.55895
G01 X131.20997 Y28.50932
G01 X131.24634 Y28.50073
G01 X131.36844 Y28.48846
G01 X134.29406 Y28.48846
G01 X134.42553 Y28.46233
G01 X134.54936 Y28.41102
G01 X134.66084 Y28.33655
G01 X135.65250 Y27.34488
G01 X135.74199 Y27.24638
G01 X135.77419 Y27.21961
G01 X135.89502 Y27.14498
G01 X135.99510 Y27.10582
G01 X136.11603 Y27.03124
G01 X136.24953 Y26.92845
G01 X136.28702 Y26.90795
G01 X136.42009 Y26.85832
G01 X136.45646 Y26.84971
G01 X136.56253 Y26.83833
G01 X136.73193 Y26.83744
G01 X136.89388 Y26.85921
G01 X136.93485 Y26.87125
G01 X137.06403 Y26.93025
G01 X137.09586 Y26.94991
G01 X137.17892 Y27.01686
G01 X137.23594 Y27.07267
G01 X137.38885 Y27.18372
G01 X137.55722 Y27.26954
G01 X137.73690 Y27.32789
G01 X137.92354 Y27.35748
G01 X138.91252 Y27.35748
G01 X139.09913 Y27.32789
G01 X139.27884 Y27.26952
G01 X139.44724 Y27.18372
G01 X139.60009 Y27.07267
G01 X139.73372 Y26.93904
G01 X139.84477 Y26.78616
G01 X139.93057 Y26.61778
G01 X139.98897 Y26.43807
G01 X140.01853 Y26.25146
G01 X140.01853 Y26.06248
G01 X139.98897 Y25.87587
G01 X139.93057 Y25.69617
G01 X139.84477 Y25.52776
G01 X139.73372 Y25.37491
G01 X139.60009 Y25.24130
G01 X139.44721 Y25.13020
G01 X139.27886 Y25.04443
G01 X139.09913 Y24.98606
G01 X138.91249 Y24.95647
G01 X137.92354 Y24.95647
G01 X137.73693 Y24.98603
G01 X137.55722 Y25.04443
G01 X137.38882 Y25.13023
G01 X137.23596 Y25.24128
G01 X137.17467 Y25.30041
G01 X137.06098 Y25.38552
G01 X137.02349 Y25.40600
G01 X136.89042 Y25.45563
G01 X136.85405 Y25.46421
G01 X136.73193 Y25.47648
G01 X136.55723 Y25.47496
G01 X136.41666 Y25.45474
G01 X136.37569 Y25.44270
G01 X136.24648 Y25.38370
G01 X136.21250 Y25.36226
G01 X136.12172 Y25.28624
G01 X135.99657 Y25.20902
G01 X135.86223 Y25.16454
G01 X135.78339 Y25.15647
G01 X134.44867 Y25.15647
G01 X134.36980 Y25.16454
G01 X134.23551 Y25.20902
G01 X134.11603 Y25.28270
G01 X134.03478 Y25.36183
G01 X133.92106 Y25.44697
G01 X133.88357 Y25.46744
G01 X133.75050 Y25.51707
G01 X133.70879 Y25.52614
G01 X133.56714 Y25.53627
G01 X133.52454 Y25.53323
G01 X133.38576 Y25.50302
G01 X133.34575 Y25.48811
G01 X133.22109 Y25.42004
G01 X133.19472 Y25.40173
G01 X133.13313 Y25.34783
G01 X133.06803 Y25.28273
G01 X132.94855 Y25.20902
G01 X132.81423 Y25.16454
G01 X132.73536 Y25.15647
G01 X131.40067 Y25.15647
G01 X131.32180 Y25.16454
G01 X131.18751 Y25.20902
G01 X131.06803 Y25.28270
G01 X130.96877 Y25.38199
G01 X130.88929 Y25.51087
G01 X130.82988 Y25.62891
G01 X130.80580 Y25.66355
G01 X130.70916 Y25.76762
G01 X130.67596 Y25.79444
G01 X130.55391 Y25.86708
G01 X130.51449 Y25.88349
G01 X130.37692 Y25.91880
G01 X130.33448 Y25.92342
G01 X130.19254 Y25.91854
G01 X130.15051 Y25.91100
G01 X130.01568 Y25.86632
G01 X129.97748 Y25.84727
G01 X129.86069 Y25.76642
G01 X129.82940 Y25.73736
G01 X129.74015 Y25.62690
G01 X129.68531 Y25.52848
G01 X129.57372 Y25.37491
G01 X129.44009 Y25.24130
G01 X129.28721 Y25.13020
G01 X129.11886 Y25.04443
G01 X128.93913 Y24.98606
G01 X128.75249 Y24.95647
G01 X127.76354 Y24.95647
G01 X127.57693 Y24.98603
G01 X127.39722 Y25.04443
G01 X127.22882 Y25.13023
G01 X127.07596 Y25.24128
G01 X127.01467 Y25.30041
G01 X126.90098 Y25.38552
G01 X126.86349 Y25.40600
G01 X126.73042 Y25.45563
G01 X126.69405 Y25.46421
G01 X126.57193 Y25.47648
G01 X124.56766 Y25.47648
G01 X124.40574 Y25.45474
G01 X124.36477 Y25.44270
G01 X124.23558 Y25.38370
G01 X124.19967 Y25.36063
G01 X124.09233 Y25.26762
G01 X124.06436 Y25.23533
G01 X123.98758 Y25.11585
G01 X123.96985 Y25.07704
G01 X123.92982 Y24.94077
G01 X123.92375 Y24.89850
G01 X123.92375 Y24.75647
G01 X123.92982 Y24.71418
G01 X123.96985 Y24.57791
G01 X123.98758 Y24.53909
G01 X124.06436 Y24.41961
G01 X124.10498 Y24.37247
G01 X127.63878 Y20.83857
G01 X127.76862 Y20.73943
G01 X127.80611 Y20.71896
G01 X127.93918 Y20.66933
G01 X127.97556 Y20.66074
G01 X128.09765 Y20.64848
G01 X134.76805 Y20.64848
G01 X134.89952 Y20.62231
G01 X135.02337 Y20.57103
G01 X135.13483 Y20.49656
G01 X139.20060 Y16.43078
G01 X139.27508 Y16.31930
G01 X139.32638 Y16.19547
G01 X139.35252 Y16.06400
G01 X139.35405 Y15.67277
G01 X139.37426 Y15.53218
G01 X139.38630 Y15.49121
G01 X139.44531 Y15.36202
G01 X139.46837 Y15.32611
G01 X139.56139 Y15.21877
G01 X139.59161 Y15.19215
G01 X139.69415 Y15.12387
G01 X139.85409 Y15.00767
G01 X139.98772 Y14.87404
G01 X140.09877 Y14.72118
G01 X140.18457 Y14.55278
G01 X140.24297 Y14.37307
G01 X140.27253 Y14.18646
G01 X140.27253 Y13.99748
G01 X140.24297 Y13.81087
G01 X140.18455 Y13.63112
G01 X140.15841 Y13.57640
G01 X140.11259 Y13.44199
G01 X140.10469 Y13.40003
G01 X140.09860 Y13.25812
G01 X140.10286 Y13.21560
G01 X140.13703 Y13.07773
G01 X140.15308 Y13.03820
G01 X140.22466 Y12.91555
G01 X140.25122 Y12.88209
G01 X140.35450 Y12.78458
G01 X140.38937 Y12.76000
G01 X140.51592 Y12.69551
G01 X140.55635 Y12.68171
G01 X140.72341 Y12.65294
G01 X141.04454 Y12.65250
G01 X141.21574 Y12.62538
G01 X141.38048 Y12.57186
G01 X141.53481 Y12.49322
G01 X141.67494 Y12.39139
G01 X142.30545 Y11.76089
G01 X142.40730 Y11.62076
G01 X142.48592 Y11.46643
G01 X142.53941 Y11.30168
G01 X142.56654 Y11.13056
G01 X142.56654 Y10.70664
G01 X142.58825 Y10.54471
G01 X142.60029 Y10.50371
G01 X142.65930 Y10.37451
G01 X142.68236 Y10.33859
G01 X142.77537 Y10.23125
G01 X142.80766 Y10.20328
G01 X142.92714 Y10.12650
G01 X142.96374 Y10.10946
G01 X143.32229 Y9.99808
G01 X143.53852 Y9.89394
G01 X143.73671 Y9.75878
G01 X143.91256 Y9.59564
G01 X144.06211 Y9.40811
G01 X144.18208 Y9.20034
G01 X144.26971 Y8.97705
G01 X144.32310 Y8.74319
G01 X144.34100 Y8.50397
G01 X144.32310 Y8.26476
G01 X144.26971 Y8.03090
G01 X144.18208 Y7.80761
G01 X144.06211 Y7.59983
G01 X143.91256 Y7.41231
G01 X143.73671 Y7.24916
G01 X143.53852 Y7.11401
G01 X143.32231 Y7.00989
G01 X142.95546 Y6.89631
G01 X142.91787 Y6.87865
G01 X142.79889 Y6.80106
G01 X142.76684 Y6.77289
G01 X142.67456 Y6.66494
G01 X142.65170 Y6.62884
G01 X142.59359 Y6.49925
G01 X142.58401 Y6.47032
G01 X142.56918 Y6.40207
G01 X142.53941 Y6.21426
G01 X142.48592 Y6.04952
G01 X142.40730 Y5.89519
G01 X142.30545 Y5.75506
G01 X141.03994 Y4.48955
G01 X140.89981 Y4.38773
G01 X140.74548 Y4.30909
G01 X140.58074 Y4.25559
G01 X140.40962 Y4.22847
G01 X10.44244 Y4.22847
G01 X10.27132 Y4.25559
G01 X10.10658 Y4.30909
G01 X9.95225 Y4.38773
G01 X9.81211 Y4.48955
G01 X6.71532 Y7.58632
G01 X6.61349 Y7.72650
G01 X6.53485 Y7.88083
G01 X6.48134 Y8.04555
G01 X6.45423 Y8.21665
G01 X6.45423 Y10.64667
G01 X6.43249 Y10.80859
G01 X6.42045 Y10.84956
G01 X6.36145 Y10.97875
G01 X6.34181 Y11.01055
G01 X6.26414 Y11.10554
G01 X6.15264 Y11.21707
G01 X5.99401 Y11.42896
G01 X5.86714 Y11.66129
G01 X5.77463 Y11.90927
G01 X5.71840 Y12.16795
G01 X5.69950 Y12.43198
G01 X5.71840 Y12.69601
G01 X5.77463 Y12.95466
G01 X5.86714 Y13.20267
G01 X5.99401 Y13.43500
G01 X6.15264 Y13.64689
G01 X6.26414 Y13.75837
G01 X6.36328 Y13.88829
G01 X6.38375 Y13.92576
G01 X6.43338 Y14.05883
G01 X6.44197 Y14.09520
G01 X6.45337 Y14.20127
G01 X6.45423 Y23.16330
G01 X6.48134 Y23.33437
G01 X6.53485 Y23.49912
G01 X6.61349 Y23.65345
G01 X6.71532 Y23.79360
G01 X10.71831 Y27.79659
G01 X10.85844 Y27.89842
G01 X11.01277 Y27.97706
G01 X11.17752 Y28.03058
G01 X11.34861 Y28.05768
G01 X46.40368 Y28.05768
G01 X46.56564 Y28.07942
G01 X46.60658 Y28.09144
G01 X46.73576 Y28.15042
G01 X46.76759 Y28.17008
G01 X46.85067 Y28.23703
G01 X46.97412 Y28.35925
G01 X47.18600 Y28.51790
G01 X47.41834 Y28.64475
G01 X47.66637 Y28.73726
G01 X47.92499 Y28.79352
G01 X48.18903 Y28.81242
G01 X48.45306 Y28.79352
G01 X48.71168 Y28.73726
G01 X48.95971 Y28.64475
G01 X49.19205 Y28.51790
G01 X49.40393 Y28.35925
G01 X49.59111 Y28.17208
G01 X49.74975 Y27.96020
G01 X49.87660 Y27.72786
G01 X49.96911 Y27.47983
G01 X50.02537 Y27.22121
G01 X50.04427 Y26.95717
G01 X50.02537 Y26.69314
G01 X49.96911 Y26.43452
G01 X49.87660 Y26.18649
G01 X49.74975 Y25.95415
G01 X49.59111 Y25.74227
G01 X49.46560 Y25.61458
G01 X49.38049 Y25.50087
G01 X49.36002 Y25.46340
G01 X49.31038 Y25.33033
G01 X49.30180 Y25.29396
G01 X49.28953 Y25.17186
G01 X49.28953 Y24.62639
G01 X49.31127 Y24.46444
G01 X49.32329 Y24.42350
G01 X49.38227 Y24.29431
G01 X49.40536 Y24.25837
G01 X49.49837 Y24.15103
G01 X49.53065 Y24.12307
G01 X49.65014 Y24.04628
G01 X49.71732 Y24.01667
G01 X49.84452 Y23.92337
G01 X49.96916 Y23.85530
G01 X50.00916 Y23.84037
G01 X50.14795 Y23.81017
G01 X50.17965 Y23.80674
G01 X51.11673 Y23.80549
G01 X51.26461 Y23.78205
G01 X51.40690 Y23.73585
G01 X51.54020 Y23.66793
G01 X51.68663 Y23.56152
G01 X51.78894 Y23.50013
G01 X51.82788 Y23.48266
G01 X51.96446 Y23.44362
G01 X52.00680 Y23.43785
G01 X52.14881 Y23.43889
G01 X52.19100 Y23.44527
G01 X52.32699 Y23.48626
G01 X52.36570 Y23.50430
G01 X52.50824 Y23.60102
G01 X52.67911 Y23.77049
G01 X52.83225 Y23.88174
G01 X53.00062 Y23.96754
G01 X53.18030 Y24.02591
G01 X53.36694 Y24.05548
G01 X54.06587 Y24.05548
G01 X54.13504 Y24.05947
G01 X56.65416 Y24.05947
G01 X56.81611 Y24.08121
G01 X57.06427 Y24.16401
G01 X57.14214 Y24.17196
G01 X58.47689 Y24.17196
G01 X58.55662 Y24.16383
G01 X58.84445 Y24.07219
G01 X58.87864 Y24.06556
G01 X58.96487 Y24.05947
G01 X59.09655 Y24.06099
G01 X59.23714 Y24.08121
G01 X59.27811 Y24.09325
G01 X59.40729 Y24.15225
G01 X59.44321 Y24.17532
G01 X59.55055 Y24.26833
G01 X59.57851 Y24.30061
G01 X59.65530 Y24.42010
G01 X59.67303 Y24.45891
G01 X59.71306 Y24.59518
G01 X59.72070 Y24.64367
G01 X59.76899 Y24.81240
G01 X59.84907 Y24.96571
G01 X59.95839 Y25.09977
G01 X60.09243 Y25.20907
G01 X60.24575 Y25.28916
G01 X60.41298 Y25.33701
G01 X60.51151 Y25.34577
G01 X61.61425 Y25.34577
G01 X61.71277 Y25.33701
G01 X61.88001 Y25.28916
G01 X62.03332 Y25.20907
G01 X62.16738 Y25.09977
G01 X62.27668 Y24.96571
G01 X62.35676 Y24.81240
G01 X62.40462 Y24.64516
G01 X62.41338 Y24.54664
G01 X62.41338 Y21.64390
G01 X62.40462 Y21.54537
G01 X62.35676 Y21.37814
G01 X62.27668 Y21.22483
G01 X62.16738 Y21.09079
G01 X62.03332 Y20.98147
G01 X61.88001 Y20.90138
G01 X61.71277 Y20.85353
G01 X61.61425 Y20.84477
G01 X60.51151 Y20.84477
G01 X60.41298 Y20.85353
G01 X60.24575 Y20.90138
G01 X60.08369 Y20.98604
G01 X59.93665 Y21.07489
G01 X59.77816 Y21.11802
G01 X59.73574 Y21.12282
G01 X59.59378 Y21.11858
G01 X59.55172 Y21.11126
G01 X59.41669 Y21.06719
G01 X59.37839 Y21.04827
G01 X59.26127 Y20.96793
G01 X59.22987 Y20.93903
G01 X59.14011 Y20.82894
G01 X59.11811 Y20.79237
G01 X59.06299 Y20.66148
G01 X59.05245 Y20.62239
G01 X59.03503 Y20.47710
G01 X59.03503 Y19.62912
G01 X59.02695 Y19.55026
G01 X58.98248 Y19.41597
G01 X58.90879 Y19.29648
G01 X58.80953 Y19.19722
G01 X58.69005 Y19.12354
G01 X58.55573 Y19.07903
G01 X58.47689 Y19.07098
G01 X57.14214 Y19.07098
G01 X57.06241 Y19.07911
G01 X56.77461 Y19.17075
G01 X56.74042 Y19.17738
G01 X56.65416 Y19.18348
G01 X55.47674 Y19.18348
G01 X55.31482 Y19.16174
G01 X55.18490 Y19.11810
G01 X55.15124 Y19.11447
G01 X52.57162 Y19.11447
G01 X52.53872 Y19.11802
G01 X52.45236 Y19.14858
G01 X52.31358 Y19.17878
G01 X52.28183 Y19.18221
G01 X50.96730 Y19.18348
G01 X50.81945 Y19.20690
G01 X50.67716 Y19.25310
G01 X50.54386 Y19.32102
G01 X50.28572 Y19.51530
G01 X50.24825 Y19.53578
G01 X50.11518 Y19.58541
G01 X50.07348 Y19.59448
G01 X49.93182 Y19.60461
G01 X49.88923 Y19.60156
G01 X49.75044 Y19.57136
G01 X49.71046 Y19.55645
G01 X49.58580 Y19.48841
G01 X49.55676 Y19.46773
G01 X49.48379 Y19.40141
G01 X49.32801 Y19.28820
G01 X49.15966 Y19.20243
G01 X48.97993 Y19.14406
G01 X48.79329 Y19.11447
G01 X47.80434 Y19.11447
G01 X47.61773 Y19.14403
G01 X47.57333 Y19.15683
G01 X47.40780 Y19.18328
G01 X45.72040 Y19.18348
G01 X45.55845 Y19.16174
G01 X45.31029 Y19.07893
G01 X45.23244 Y19.07098
G01 X43.89770 Y19.07098
G01 X43.81880 Y19.07903
G01 X43.68451 Y19.12354
G01 X43.56046 Y19.19826
G01 X43.43021 Y19.25485
G01 X43.39041 Y19.26593
G01 X43.23872 Y19.28498
G01 X43.09991 Y19.28498
G01 X42.93801 Y19.26324
G01 X42.89704 Y19.25120
G01 X42.76783 Y19.19219
G01 X42.73191 Y19.16913
G01 X42.62460 Y19.07611
G01 X42.59661 Y19.04383
G01 X42.51985 Y18.92435
G01 X42.50209 Y18.88554
G01 X42.46206 Y18.74927
G01 X42.45307 Y18.68666
G01 X42.40494 Y18.51835
G01 X42.32483 Y18.36504
G01 X42.21553 Y18.23098
G01 X42.08147 Y18.12168
G01 X41.92815 Y18.04157
G01 X41.76092 Y17.99374
G01 X41.66239 Y17.98498
G01 X40.55965 Y17.98498
G01 X40.46113 Y17.99374
G01 X40.29389 Y18.04157
G01 X40.14058 Y18.12168
G01 X40.00654 Y18.23098
G01 X39.89722 Y18.36504
G01 X39.81713 Y18.51835
G01 X39.76148 Y18.71284
G01 X39.69603 Y18.86255
G01 X39.67319 Y18.89862
G01 X39.58094 Y19.00659
G01 X39.54889 Y19.03476
G01 X39.42994 Y19.11238
G01 X39.39120 Y19.13039
G01 X39.25519 Y19.17134
G01 X39.21300 Y19.17771
G01 X39.07098 Y19.17870
G01 X39.02867 Y19.17291
G01 X38.89212 Y19.13385
G01 X38.85315 Y19.11637
G01 X38.73314 Y19.04040
G01 X38.70068 Y19.01266
G01 X38.60693 Y18.90596
G01 X38.58361 Y18.87022
G01 X38.52372 Y18.74144
G01 X38.51140 Y18.70055
G01 X38.48854 Y18.53776
G01 X38.48854 Y16.31656
G01 X38.51025 Y16.15463
G01 X38.52229 Y16.11364
G01 X38.58130 Y15.98443
G01 X38.60274 Y15.95044
G01 X38.67878 Y15.85964
G01 X38.79037 Y15.67632
G01 X38.81371 Y15.62959
G01 X38.83804 Y15.59446
G01 X38.93476 Y15.49042
G01 X38.96799 Y15.46362
G01 X39.09006 Y15.39106
G01 X39.12951 Y15.37470
G01 X39.26710 Y15.33947
G01 X39.30954 Y15.33487
G01 X39.45150 Y15.33985
G01 X39.49349 Y15.34739
G01 X39.62829 Y15.39212
G01 X39.66651 Y15.41120
G01 X39.78323 Y15.49212
G01 X39.81449 Y15.52118
G01 X39.90370 Y15.63170
G01 X39.95546 Y15.72697
G01 X40.03377 Y15.85397
G01 X40.13303 Y15.95323
G01 X40.25252 Y16.02692
G01 X40.38681 Y16.07142
G01 X40.46565 Y16.07947
G01 X41.35041 Y16.07947
G01 X41.42925 Y16.07142
G01 X41.56354 Y16.02692
G01 X41.68302 Y15.95323
G01 X41.78226 Y15.85397
G01 X41.80169 Y15.82540
G01 X41.89270 Y15.71635
G01 X41.92442 Y15.68780
G01 X42.04248 Y15.60881
G01 X42.08099 Y15.59037
G01 X42.21649 Y15.54782
G01 X42.24934 Y15.54142
G01 X42.34154 Y15.53446
G01 X73.37267 Y15.53599
G01 X73.51326 Y15.55621
G01 X73.55423 Y15.56825
G01 X73.68344 Y15.62725
G01 X73.71526 Y15.64691
G01 X73.81023 Y15.72458
G01 X76.84142 Y18.75577
G01 X76.94056 Y18.88561
G01 X76.96100 Y18.92308
G01 X77.01066 Y19.05617
G01 X77.01927 Y19.09262
G01 X77.03151 Y19.21470
G01 X77.03151 Y33.23430
G01 X77.00980 Y33.39618
G01 X76.99776 Y33.43717
G01 X76.93875 Y33.56638
G01 X76.91569 Y33.60230
G01 X76.82267 Y33.70964
G01 X76.79039 Y33.73760
G01 X76.67091 Y33.81439
G01 X76.63207 Y33.83212
G01 X76.49580 Y33.87212
G01 X76.45354 Y33.87819
G01 X76.31150 Y33.87819
G01 X76.26926 Y33.87212
G01 X76.13299 Y33.83212
G01 X76.09415 Y33.81439
G01 X75.97467 Y33.73760
G01 X75.94975 Y33.71751
G01 X74.08687 Y31.85643
G01 X73.98768 Y31.72653
G01 X73.96721 Y31.68904
G01 X73.91757 Y31.55597
G01 X73.90899 Y31.51960
G01 X73.89672 Y31.39750
G01 X73.89672 Y25.20292
G01 X73.91846 Y25.04097
G01 X73.93050 Y25.00000
G01 X73.98951 Y24.87079
G01 X74.01260 Y24.83488
G01 X74.10561 Y24.72756
G01 X74.13289 Y24.70295
G01 X74.21310 Y24.64677
G01 X74.31549 Y24.54438
G01 X74.38918 Y24.42490
G01 X74.43365 Y24.29058
G01 X74.44173 Y24.21171
G01 X74.44173 Y23.32703
G01 X74.43365 Y23.24816
G01 X74.38918 Y23.11385
G01 X74.31549 Y22.99437
G01 X74.21623 Y22.89513
G01 X74.03861 Y22.78705
G01 X73.99207 Y22.76384
G01 X73.95697 Y22.73953
G01 X73.85291 Y22.64288
G01 X73.82608 Y22.60969
G01 X73.75344 Y22.48761
G01 X73.73703 Y22.44817
G01 X73.70175 Y22.31060
G01 X73.69715 Y22.26816
G01 X73.70206 Y22.12620
G01 X73.70957 Y22.08418
G01 X73.75425 Y21.94939
G01 X73.77333 Y21.91116
G01 X73.85420 Y21.79440
G01 X73.88323 Y21.76313
G01 X73.99370 Y21.67387
G01 X74.08928 Y21.62193
G01 X74.21623 Y21.54362
G01 X74.31549 Y21.44438
G01 X74.38918 Y21.32490
G01 X74.43365 Y21.19059
G01 X74.44173 Y21.11172
G01 X74.44173 Y20.22704
G01 X74.43365 Y20.14817
G01 X74.38918 Y20.01386
G01 X74.31549 Y19.89437
G01 X74.21623 Y19.79511
G01 X74.09675 Y19.72143
G01 X73.96243 Y19.67693
G01 X73.88359 Y19.66887
G01 X72.54884 Y19.66887
G01 X72.47000 Y19.67693
G01 X72.33571 Y19.72143
G01 X72.23183 Y19.78371
G01 X72.10155 Y19.84030
G01 X72.06043 Y19.85155
G01 X71.91951 Y19.86918
G01 X71.87679 Y19.86839
G01 X71.73660 Y19.84558
G01 X71.69609 Y19.83291
G01 X71.57554 Y19.77540
G01 X71.43353 Y19.72833
G01 X71.35469 Y19.72028
G01 X70.01994 Y19.72028
G01 X69.94110 Y19.72833
G01 X69.80681 Y19.77284
G01 X69.68733 Y19.84652
G01 X69.55322 Y19.94992
G01 X69.51573 Y19.97040
G01 X69.38266 Y20.02003
G01 X69.34629 Y20.02861
G01 X69.22416 Y20.04088
G01 X68.90237 Y20.04088
G01 X68.74044 Y20.01914
G01 X68.69947 Y20.00710
G01 X68.57029 Y19.94810
G01 X68.54014 Y19.92978
G01 X68.38180 Y19.80580
G01 X68.23953 Y19.73527
G01 X68.08340 Y19.69643
G01 X66.66681 Y19.69478
G01 X66.64235 Y19.69643
G01 X66.48622 Y19.73527
G01 X66.34484 Y19.80537
G01 X66.22186 Y19.90425
G01 X66.12297 Y20.02724
G01 X66.05287 Y20.16862
G01 X66.01403 Y20.32475
G01 X66.01238 Y20.34921
G01 X66.01403 Y21.26580
G01 X66.05287 Y21.42193
G01 X66.12658 Y21.57060
G01 X66.18767 Y21.67850
G01 X66.20395 Y21.71792
G01 X66.23893 Y21.85558
G01 X66.24345 Y21.89808
G01 X66.23819 Y22.04001
G01 X66.23057 Y22.08200
G01 X66.18556 Y22.21670
G01 X66.17090 Y22.24799
G01 X66.12712 Y22.31886
G01 X66.05287 Y22.46861
G01 X66.01403 Y22.62475
G01 X66.01403 Y23.56582
G01 X66.05287 Y23.72193
G01 X66.12297 Y23.86330
G01 X66.22186 Y23.98631
G01 X66.34484 Y24.08517
G01 X66.48622 Y24.15528
G01 X66.64235 Y24.19411
G01 X66.66681 Y24.19576
G01 X68.08340 Y24.19411
G01 X68.23953 Y24.15528
G01 X68.38091 Y24.08517
G01 X68.50389 Y23.98631
G01 X68.60278 Y23.86330
G01 X68.67288 Y23.72193
G01 X68.71172 Y23.56582
G01 X68.71337 Y23.54133
G01 X68.71172 Y22.62472
G01 X68.67291 Y22.46861
G01 X68.60872 Y22.33925
G01 X68.55624 Y22.18451
G01 X68.54883 Y22.14248
G01 X68.54428 Y22.00052
G01 X68.54900 Y21.95807
G01 X68.58464 Y21.82058
G01 X68.60113 Y21.78119
G01 X68.67405 Y21.65932
G01 X68.70095 Y21.62620
G01 X68.80527 Y21.52978
G01 X68.84044 Y21.50555
G01 X68.98860 Y21.43397
G01 X69.19013 Y21.40186
G01 X69.24672 Y21.40339
G01 X69.38731 Y21.42361
G01 X69.42828 Y21.43565
G01 X69.55746 Y21.49465
G01 X69.59137 Y21.51601
G01 X69.68162 Y21.59148
G01 X69.80681 Y21.66872
G01 X69.94110 Y21.71322
G01 X70.01994 Y21.72127
G01 X71.35469 Y21.72127
G01 X71.43353 Y21.71322
G01 X71.56785 Y21.66872
G01 X71.67171 Y21.60644
G01 X71.80196 Y21.54984
G01 X71.84316 Y21.53859
G01 X71.98410 Y21.52099
G01 X72.02677 Y21.52178
G01 X72.16696 Y21.54459
G01 X72.20516 Y21.55617
G01 X72.32507 Y21.61116
G01 X72.44056 Y21.67502
G01 X72.47567 Y21.69935
G01 X72.57971 Y21.79605
G01 X72.60653 Y21.82927
G01 X72.67910 Y21.95134
G01 X72.69545 Y21.99076
G01 X72.73071 Y22.12836
G01 X72.73531 Y22.17077
G01 X72.73038 Y22.31271
G01 X72.72286 Y22.35475
G01 X72.67813 Y22.48957
G01 X72.65903 Y22.52777
G01 X72.57813 Y22.64451
G01 X72.54907 Y22.67580
G01 X72.43856 Y22.76501
G01 X72.34318 Y22.81682
G01 X72.21623 Y22.89511
G01 X72.11697 Y22.99439
G01 X72.04328 Y23.11385
G01 X71.99878 Y23.24816
G01 X71.99073 Y23.32701
G01 X71.99073 Y24.21174
G01 X71.99878 Y24.29058
G01 X72.04328 Y24.42490
G01 X72.11697 Y24.54438
G01 X72.21623 Y24.64362
G01 X72.24481 Y24.66305
G01 X72.35385 Y24.75405
G01 X72.38237 Y24.78578
G01 X72.46137 Y24.90381
G01 X72.47983 Y24.94232
G01 X72.52235 Y25.07783
G01 X72.52875 Y25.11067
G01 X72.53571 Y25.20292
G01 X72.53571 Y31.15150
G01 X72.51400 Y31.31338
G01 X72.50196 Y31.35437
G01 X72.44295 Y31.48358
G01 X72.41989 Y31.51950
G01 X72.32687 Y31.62684
G01 X72.29459 Y31.65480
G01 X72.17511 Y31.73159
G01 X72.13627 Y31.74932
G01 X72.00000 Y31.78932
G01 X71.95774 Y31.79539
G01 X71.81570 Y31.79539
G01 X71.77346 Y31.78932
G01 X71.63719 Y31.74932
G01 X71.59835 Y31.73159
G01 X71.45776 Y31.63839
G01 X70.90681 Y31.08940
G01 X70.79536 Y31.01493
G01 X70.67153 Y30.96362
G01 X70.54006 Y30.93748
G01 X42.21454 Y30.93748
G01 X42.05261 Y30.91574
G01 X42.01164 Y30.90370
G01 X41.88246 Y30.84470
G01 X41.84654 Y30.82163
G01 X41.73920 Y30.72862
G01 X41.71459 Y30.70131
G01 X41.65841 Y30.62110
G01 X41.55602 Y30.51871
G01 X41.43654 Y30.44503
G01 X41.30225 Y30.40053
G01 X41.22341 Y30.39247
G01 X40.33865 Y30.39247
G01 X40.25981 Y30.40053
G01 X40.12552 Y30.44503
G01 X40.00603 Y30.51871
G01 X39.90677 Y30.61797
G01 X39.79875 Y30.79555
G01 X39.77553 Y30.84208
G01 X39.75122 Y30.87718
G01 X39.65457 Y30.98125
G01 X39.62138 Y31.00807
G01 X39.49933 Y31.08071
G01 X39.45993 Y31.09710
G01 X39.32237 Y31.13243
G01 X39.27990 Y31.13707
G01 X39.13796 Y31.13220
G01 X39.09593 Y31.12465
G01 X38.96110 Y31.07998
G01 X38.92290 Y31.06093
G01 X38.80611 Y30.98008
G01 X38.77482 Y30.95102
G01 X38.68556 Y30.84056
G01 X38.63357 Y30.74492
G01 X38.55529 Y30.61797
G01 X38.45602 Y30.51871
G01 X38.33654 Y30.44503
G01 X38.20223 Y30.40053
G01 X38.12341 Y30.39247
G01 X37.23865 Y30.39247
G01 X37.15981 Y30.40053
G01 X37.02550 Y30.44503
G01 X36.90604 Y30.51871
G01 X36.80678 Y30.61797
G01 X36.73307 Y30.73746
G01 X36.68859 Y30.87177
G01 X36.68051 Y30.95061
G01 X36.68051 Y32.28533
G01 X36.68859 Y32.36417
G01 X36.73307 Y32.49849
G01 X36.80678 Y32.61797
G01 X36.90957 Y32.75152
G01 X36.93004 Y32.78899
G01 X36.97968 Y32.92206
G01 X36.98826 Y32.95843
G01 X37.00053 Y33.08056
G01 X37.00053 Y35.68002
G01 X36.97879 Y35.84194
G01 X36.96675 Y35.88291
G01 X36.90774 Y36.01210
G01 X36.88468 Y36.04801
G01 X36.79166 Y36.15535
G01 X36.75938 Y36.18332
G01 X36.63990 Y36.26010
G01 X36.60109 Y36.27783
G01 X36.46482 Y36.31786
G01 X36.42253 Y36.32393
G01 X36.28049 Y36.32393
G01 X36.23822 Y36.31786
G01 X36.10195 Y36.27783
G01 X36.06314 Y36.26010
G01 X35.94366 Y36.18332
G01 X35.91674 Y36.16122
G01 X35.82504 Y36.06094
G01 X35.70206 Y35.96208
G01 X35.56068 Y35.89195
G01 X35.40457 Y35.85312
G01 X33.98796 Y35.85147
G01 X33.96350 Y35.85312
G01 X33.80737 Y35.89195
G01 X33.66599 Y35.96208
G01 X33.54300 Y36.06094
G01 X33.44415 Y36.18395
G01 X33.37399 Y36.32530
G01 X33.33518 Y36.48141
G01 X33.33518 Y37.42253
G01 X33.37402 Y37.57864
G01 X33.41557 Y37.66592
G01 X33.45995 Y37.80084
G01 X33.46739 Y37.84288
G01 X33.47194 Y37.98484
G01 X33.46721 Y38.02728
G01 X33.43157 Y38.16477
G01 X33.41509 Y38.20417
G01 X33.34217 Y38.32604
G01 X33.31524 Y38.35918
G01 X33.21092 Y38.45558
G01 X33.17580 Y38.47978
G01 X33.04854 Y38.54290
G01 X33.00795 Y38.55624
G01 X32.86810 Y38.58093
G01 X32.69284 Y38.58347
G01 X32.53069 Y38.56175
G01 X32.48969 Y38.54971
G01 X32.36048 Y38.49070
G01 X32.32650 Y38.46927
G01 X32.23569 Y38.39322
G01 X32.11055 Y38.31603
G01 X31.97623 Y38.27153
G01 X31.89739 Y38.26348
G01 X30.56264 Y38.26348
G01 X30.48380 Y38.27153
G01 X30.34951 Y38.31603
G01 X30.23003 Y38.38971
G01 X30.13077 Y38.48898
G01 X30.05708 Y38.60846
G01 X30.01258 Y38.74277
G01 X30.00453 Y38.82159
G01 X30.00453 Y39.70635
G01 X30.01258 Y39.78519
G01 X30.05708 Y39.91948
G01 X30.13051 Y40.03853
G01 X30.23397 Y40.14066
G01 X30.34951 Y40.21191
G01 X30.48380 Y40.25641
G01 X30.56264 Y40.26446
G01 X31.89739 Y40.26446
G01 X31.97623 Y40.25641
G01 X32.11055 Y40.21191
G01 X32.23003 Y40.13823
G01 X32.36353 Y40.03543
G01 X32.40102 Y40.01496
G01 X32.53409 Y39.96533
G01 X32.57046 Y39.95674
G01 X32.69256 Y39.94447
G01 X33.07437 Y39.94447
G01 X33.23632 Y39.96622
G01 X33.27729 Y39.97826
G01 X33.40648 Y40.03726
G01 X33.43871 Y40.05725
G01 X33.66632 Y40.24204
G01 X33.80737 Y40.31201
G01 X33.96348 Y40.35082
G01 X35.40457 Y40.35082
G01 X35.56068 Y40.31199
G01 X35.70206 Y40.24186
G01 X35.87597 Y40.10134
G01 X35.91783 Y40.06228
G01 X35.95288 Y40.03790
G01 X36.07983 Y39.97417
G01 X36.12029 Y39.96063
G01 X36.28674 Y39.93282
G01 X36.74401 Y39.93249
G01 X36.87554 Y39.90632
G01 X36.99936 Y39.85502
G01 X37.11082 Y39.78054
G01 X38.20959 Y38.68176
G01 X38.28407 Y38.57031
G01 X38.33537 Y38.44648
G01 X38.35841 Y38.33843
G01 X38.40566 Y38.20450
G01 X38.42547 Y38.16665
G01 X38.50855 Y38.05146
G01 X38.53817 Y38.02075
G01 X38.65033 Y37.93361
G01 X38.68744 Y37.91247
G01 X38.81960 Y37.86048
G01 X38.86118 Y37.85065
G01 X39.00266 Y37.83800
G01 X39.04528 Y37.84029
G01 X39.18457 Y37.86800
G01 X39.22481 Y37.88220
G01 X39.35066 Y37.94801
G01 X39.38531 Y37.97300
G01 X39.48752 Y38.07163
G01 X39.51371 Y38.10534
G01 X39.58399 Y38.22875
G01 X39.59963 Y38.26848
G01 X39.63230 Y38.40671
G01 X39.64228 Y38.50188
G01 X39.69013 Y38.66909
G01 X39.77022 Y38.82240
G01 X39.87954 Y38.95646
G01 X40.01358 Y39.06579
G01 X40.16689 Y39.14587
G01 X40.33413 Y39.19373
G01 X40.43263 Y39.20246
G01 X41.53542 Y39.20246
G01 X41.63392 Y39.19373
G01 X41.80115 Y39.14587
G01 X41.95381 Y39.06614
G01 X42.11482 Y38.93216
G01 X42.23455 Y38.84227
G01 X42.27204 Y38.82179
G01 X42.40512 Y38.77216
G01 X42.44682 Y38.76309
G01 X42.58850 Y38.75296
G01 X42.63110 Y38.75601
G01 X42.76988 Y38.78621
G01 X42.80989 Y38.80112
G01 X42.93455 Y38.86919
G01 X42.96874 Y38.89479
G01 X43.06915 Y38.99523
G01 X43.09473 Y39.02939
G01 X43.16285 Y39.15405
G01 X43.17771 Y39.19406
G01 X43.20791 Y39.33284
G01 X43.21134 Y39.36457
G01 X43.21256 Y40.43177
G01 X43.22063 Y40.51069
G01 X43.26508 Y40.64498
G01 X43.33877 Y40.76446
G01 X43.43803 Y40.86373
G01 X43.55751 Y40.93744
G01 X43.69183 Y40.98191
G01 X43.77067 Y40.98996
G01 X45.10541 Y40.98996
G01 X45.18515 Y40.98184
G01 X45.47295 Y40.89019
G01 X45.50714 Y40.88356
G01 X45.59337 Y40.87747
G01 X46.31252 Y40.87747
G01 X46.47445 Y40.89921
G01 X46.51542 Y40.91125
G01 X46.64465 Y40.97025
G01 X46.68054 Y40.99332
G01 X46.78789 Y41.08633
G01 X46.81585 Y41.11861
G01 X46.89263 Y41.23810
G01 X46.91036 Y41.27693
G01 X46.95037 Y41.41320
G01 X46.95606 Y41.44475
G01 X46.96152 Y41.52649
G01 X46.96152 Y42.24066
G01 X46.93978 Y42.40258
G01 X46.92776 Y42.44353
G01 X46.86878 Y42.57271
G01 X46.84915 Y42.60454
G01 X46.77143 Y42.69956
G01 X46.66000 Y42.81107
G01 X46.53637 Y42.97358
G01 X46.43597 Y43.07401
G01 X46.40178 Y43.09961
G01 X46.27717 Y43.16768
G01 X46.23714 Y43.18259
G01 X46.09833 Y43.21277
G01 X46.06645 Y43.21620
G01 X32.41344 Y43.21747
G01 X32.24232 Y43.24459
G01 X32.07758 Y43.29809
G01 X31.92325 Y43.37673
G01 X31.78311 Y43.47855
G01 X28.48561 Y46.77606
G01 X28.38378 Y46.91619
G01 X28.30514 Y47.07052
G01 X28.25163 Y47.23526
G01 X28.22452 Y47.40636
G01 X28.22452 Y57.42750
G01 X28.20278 Y57.58940
G01 X28.19074 Y57.63037
G01 X28.13174 Y57.75958
G01 X28.10867 Y57.79547
G01 X28.01569 Y57.90281
G01 X27.98340 Y57.93080
G01 X27.86389 Y58.00758
G01 X27.82506 Y58.02531
G01 X27.68879 Y58.06532
G01 X27.65724 Y58.07101
G01 X27.57550 Y58.07647
G01 X18.06150 Y58.07647
G01 X17.89958 Y58.05472
G01 X17.85863 Y58.04271
G01 X17.72945 Y57.98373
G01 X17.69351 Y57.96064
G01 X17.58617 Y57.86763
G01 X17.55820 Y57.83534
G01 X17.48142 Y57.71586
G01 X17.46369 Y57.67705
G01 X17.42366 Y57.54076
G01 X17.41759 Y57.49849
G01 X17.41759 Y57.35648
G01 X17.42223 Y57.31937
G01 X17.45343 Y57.20068
G01 X17.51611 Y57.03263
G01 X17.57237 Y56.77401
G01 X17.59125 Y56.50997
G01 X17.57237 Y56.24594
G01 X17.51611 Y55.98732
G01 X17.42361 Y55.73929
G01 X17.29676 Y55.50695
G01 X17.13811 Y55.29507
G01 X16.95094 Y55.10789
G01 X16.73905 Y54.94924
G01 X16.50672 Y54.82240
G01 X16.25869 Y54.72989
G01 X16.00006 Y54.67363
G01 X15.73603 Y54.65476
G01 X15.47200 Y54.67363
G01 X15.21337 Y54.72989
G01 X14.96534 Y54.82240
G01 X14.73301 Y54.94924
G01 X14.58292 Y55.05971
G01 X14.45828 Y55.12776
G01 X14.41830 Y55.14267
G01 X14.27952 Y55.17287
G01 X14.23692 Y55.17591
G01 X14.09524 Y55.16578
G01 X14.05353 Y55.15671
G01 X13.92046 Y55.10708
G01 X13.89179 Y55.09273
G01 X13.82308 Y55.04813
G01 X13.69102 Y54.94924
G01 X13.45872 Y54.82240
G01 X13.21069 Y54.72989
G01 X12.95206 Y54.67363
G01 X12.68803 Y54.65476
G01 X12.42400 Y54.67363
G01 X12.16537 Y54.72989
G01 X11.91734 Y54.82240
G01 X11.68501 Y54.94924
G01 X11.47312 Y55.10789
G01 X11.28595 Y55.29507
G01 X11.12730 Y55.50695
G01 X11.00045 Y55.73929
G01 X10.90795 Y55.98732
G01 X10.85169 Y56.24594
G01 X10.83279 Y56.50997
G01 X10.85169 Y56.77401
G01 X10.90795 Y57.03263
G01 X10.97665 Y57.22122
G01 X11.00683 Y57.36001
G01 X11.00988 Y57.40258
G01 X10.99974 Y57.54426
G01 X10.99067 Y57.58597
G01 X10.94104 Y57.71904
G01 X10.92057 Y57.75653
G01 X10.83546 Y57.87022
G01 X10.80528 Y57.90039
G01 X10.69159 Y57.98551
G01 X10.65410 Y58.00598
G01 X10.52103 Y58.05561
G01 X10.48466 Y58.06420
G01 X10.36253 Y58.07647
G01 X9.47567 Y58.07647
G01 X9.31377 Y58.05472
G01 X9.27282 Y58.04271
G01 X9.14361 Y57.98373
G01 X9.11176 Y57.96405
G01 X9.01679 Y57.88640
G01 X8.83129 Y57.69874
G01 X8.74618 Y57.58503
G01 X8.72571 Y57.54756
G01 X8.67607 Y57.41449
G01 X8.66749 Y57.37812
G01 X8.65522 Y57.25602
G01 X8.65522 Y54.21732
G01 X8.67696 Y54.05537
G01 X8.68900 Y54.01440
G01 X8.74801 Y53.88521
G01 X8.76764 Y53.85341
G01 X8.84531 Y53.75834
G01 X8.95682 Y53.64688
G01 X9.11544 Y53.43500
G01 X9.24229 Y53.20266
G01 X9.33482 Y52.95463
G01 X9.39106 Y52.69601
G01 X9.40996 Y52.43198
G01 X9.39106 Y52.16794
G01 X9.33482 Y51.90930
G01 X9.24229 Y51.66129
G01 X9.11544 Y51.42896
G01 X8.95682 Y51.21707
G01 X8.76962 Y51.02990
G01 X8.55771 Y50.87125
G01 X8.32543 Y50.74440
G01 X8.07740 Y50.65189
G01 X7.81875 Y50.59563
G01 X7.55472 Y50.57674
G01 X7.29071 Y50.59563
G01 X7.03206 Y50.65189
G01 X6.78403 Y50.74440
G01 X6.55169 Y50.87125
G01 X6.33981 Y51.02990
G01 X6.15264 Y51.21707
G01 X5.99401 Y51.42896
G01 X5.86714 Y51.66129
G01 X5.77463 Y51.90927
G01 X5.71840 Y52.16794
G01 X5.69950 Y52.43198
G01 X5.71840 Y52.69601
G01 X5.77463 Y52.95466
G01 X5.86714 Y53.20266
G01 X5.99401 Y53.43500
G01 X6.15264 Y53.64688
G01 X6.26414 Y53.75834
G01 X6.36328 Y53.88829
G01 X6.38375 Y53.92573
G01 X6.43338 Y54.05880
G01 X6.44197 Y54.09519
G01 X6.45423 Y54.21732
G01 X6.45423 Y58.06730
G01 X6.48134 Y58.23839
G01 X6.53485 Y58.40311
G01 X6.61349 Y58.55744
G01 X6.71532 Y58.69760
G01 X7.79845 Y59.78076
G01 X7.89759 Y59.91065
G01 X7.91806 Y59.94812
G01 X7.96769 Y60.08119
G01 X7.97676 Y60.12289
G01 X7.98690 Y60.26455
G01 X7.98385 Y60.30715
G01 X7.95365 Y60.44593
G01 X7.93874 Y60.48591
G01 X7.87069 Y60.61057
G01 X7.85103 Y60.63849
G01 X7.79673 Y60.69942
G01 X7.72723 Y60.79229
G01 X7.69106 Y60.88926
G01 X7.68753 Y60.92213
G01 X7.68753 Y64.00180
G01 X7.69106 Y64.03470
G01 X7.72723 Y64.13167
G01 X7.78763 Y64.21237
G01 X7.86833 Y64.27277
G01 X7.96531 Y64.30894
G01 X7.99820 Y64.31247
G01 X12.63853 Y64.31247
G01 X12.80045 Y64.33421
G01 X12.84142 Y64.34625
G01 X12.97063 Y64.40526
G01 X13.00655 Y64.42832
G01 X13.11389 Y64.52134
G01 X13.14185 Y64.55362
G01 X13.21864 Y64.67310
G01 X13.23636 Y64.71194
G01 X13.27637 Y64.84821
G01 X13.28206 Y64.87976
G01 X13.28752 Y64.96149
G01 X13.28752 Y66.23325
G01 X13.31919 Y66.47376
G01 X13.38198 Y66.70807
G01 X13.47479 Y66.93218
G01 X13.59608 Y67.14229
G01 X13.74376 Y67.33469
G01 X13.91531 Y67.50624
G01 X14.10774 Y67.65392
G01 X14.31782 Y67.77520
G01 X14.54192 Y67.86801
G01 X14.77624 Y67.93080
G01 X15.01675 Y67.96248
G01 X15.25930 Y67.96248
G01 X15.49981 Y67.93080
G01 X15.69008 Y67.87983
G01 X15.73412 Y67.86801
G01 X15.95823 Y67.77520
G01 X16.16834 Y67.65392
G01 X16.36074 Y67.50624
G01 X16.53229 Y67.33469
G01 X16.67997 Y67.14226
G01 X16.80125 Y66.93218
G01 X16.89407 Y66.70807
G01 X16.95686 Y66.47376
G01 X16.98853 Y66.23325
G01 X16.98853 Y64.49070
G01 X16.95686 Y64.25019
G01 X16.89407 Y64.01588
G01 X16.80125 Y63.79177
G01 X16.67997 Y63.58169
G01 X16.53229 Y63.38926
G01 X16.36074 Y63.21771
G01 X16.16834 Y63.07003
G01 X15.95823 Y62.94875
G01 X15.73412 Y62.85593
G01 X15.49981 Y62.79315
G01 X15.25930 Y62.76147
G01 X15.01675 Y62.76147
G01 X14.77624 Y62.79315
G01 X14.54192 Y62.85593
G01 X14.31782 Y62.94875
G01 X14.10774 Y63.07003
G01 X14.01475 Y63.13947
G01 X13.89090 Y63.20902
G01 X13.85110 Y63.22441
G01 X13.71269 Y63.25626
G01 X13.67012 Y63.25982
G01 X13.52834 Y63.25136
G01 X13.48653 Y63.24278
G01 X13.35287 Y63.19474
G01 X13.31516 Y63.17473
G01 X13.20045 Y63.09096
G01 X13.16989 Y63.06114
G01 X13.08343 Y62.94847
G01 X13.06253 Y62.91123
G01 X13.01132 Y62.77877
G01 X13.00220 Y62.74161
G01 X12.98950 Y62.62972
G01 X12.99006 Y60.90516
G01 X13.01025 Y60.76457
G01 X13.02229 Y60.72358
G01 X13.08130 Y60.59437
G01 X13.10436 Y60.55845
G01 X13.19738 Y60.45111
G01 X13.22966 Y60.42315
G01 X13.34914 Y60.34636
G01 X13.38798 Y60.32863
G01 X13.52425 Y60.28863
G01 X13.55580 Y60.28294
G01 X13.63751 Y60.27748
G01 X19.38852 Y60.27748
G01 X19.55045 Y60.29922
G01 X19.59142 Y60.31126
G01 X19.72063 Y60.37026
G01 X19.75652 Y60.39333
G01 X19.86386 Y60.48632
G01 X19.89185 Y60.51860
G01 X19.96863 Y60.63808
G01 X19.98636 Y60.67692
G01 X20.02637 Y60.81322
G01 X20.03206 Y60.84476
G01 X20.03752 Y60.92650
G01 X20.03752 Y64.00178
G01 X20.04108 Y64.03470
G01 X20.07725 Y64.13167
G01 X20.13762 Y64.21237
G01 X20.21834 Y64.27277
G01 X20.31529 Y64.30894
G01 X20.34819 Y64.31247
G01 X24.98851 Y64.31247
G01 X25.15046 Y64.33421
G01 X25.19143 Y64.34625
G01 X25.32062 Y64.40526
G01 X25.35653 Y64.42832
G01 X25.46387 Y64.52134
G01 X25.49184 Y64.55362
G01 X25.56862 Y64.67310
G01 X25.58635 Y64.71191
G01 X25.62638 Y64.84818
G01 X25.63715 Y64.95077
G01 X25.63753 Y66.23327
G01 X25.66918 Y66.47376
G01 X25.73197 Y66.70807
G01 X25.82478 Y66.93218
G01 X25.94609 Y67.14226
G01 X26.09377 Y67.33469
G01 X26.26529 Y67.50624
G01 X26.45773 Y67.65392
G01 X26.66781 Y67.77520
G01 X26.89194 Y67.86801
G01 X27.12623 Y67.93080
G01 X27.36674 Y67.96248
G01 X27.60931 Y67.96248
G01 X27.84982 Y67.93080
G01 X28.08399 Y67.86807
G01 X28.48706 Y67.70197
G01 X28.60629 Y67.68889
G01 X28.61932 Y67.65755
G01 X28.69196 Y67.53550
G01 X28.71360 Y67.50736
G01 X28.88177 Y67.33538
G01 X29.02998 Y67.14224
G01 X29.15127 Y66.93218
G01 X29.24408 Y66.70807
G01 X29.30687 Y66.47376
G01 X29.33852 Y66.23327
G01 X29.33852 Y64.49068
G01 X29.30687 Y64.25019
G01 X29.24408 Y64.01588
G01 X29.15127 Y63.79177
G01 X29.02998 Y63.58171
G01 X28.88228 Y63.38926
G01 X28.71076 Y63.21771
G01 X28.54281 Y63.08883
G01 X28.51833 Y63.07006
G01 X28.30824 Y62.94875
G01 X28.08411 Y62.85593
G01 X27.84982 Y62.79315
G01 X27.60931 Y62.76147
G01 X27.36674 Y62.76147
G01 X27.12623 Y62.79315
G01 X26.89194 Y62.85593
G01 X26.66781 Y62.94875
G01 X26.45773 Y63.07003
G01 X26.36474 Y63.13945
G01 X26.24091 Y63.20899
G01 X26.20111 Y63.22441
G01 X26.06268 Y63.25626
G01 X26.02011 Y63.25982
G01 X25.87835 Y63.25136
G01 X25.83654 Y63.24278
G01 X25.70289 Y63.19474
G01 X25.66517 Y63.17473
G01 X25.55046 Y63.09096
G01 X25.51993 Y63.06114
G01 X25.43344 Y62.94847
G01 X25.41252 Y62.91123
G01 X25.36131 Y62.77877
G01 X25.35219 Y62.74161
G01 X25.33949 Y62.62972
G01 X25.33853 Y60.92650
G01 X25.36027 Y60.76455
G01 X25.37231 Y60.72358
G01 X25.43131 Y60.59437
G01 X25.45437 Y60.55848
G01 X25.54736 Y60.45114
G01 X25.57965 Y60.42315
G01 X25.69915 Y60.34636
G01 X25.73799 Y60.32863
G01 X25.87426 Y60.28863
G01 X25.90581 Y60.28294
G01 X25.98752 Y60.27748
G01 X29.41164 Y60.27748
G01 X29.58274 Y60.25038
G01 X29.74748 Y60.19686
G01 X29.90181 Y60.11822
G01 X30.04194 Y60.01639
G01 X30.16445 Y59.89389
G01 X30.26628 Y59.75376
G01 X30.34492 Y59.59943
G01 X30.39841 Y59.43468
G01 X30.42554 Y59.26356
G01 X30.42554 Y54.54792
G01 X30.44725 Y54.38600
G01 X30.45929 Y54.34500
G01 X30.51830 Y54.21579
G01 X30.54138 Y54.17988
G01 X30.63440 Y54.07256
G01 X30.66663 Y54.04462
G01 X30.78611 Y53.96781
G01 X30.82498 Y53.95006
G01 X30.96125 Y53.91005
G01 X31.00349 Y53.90398
G01 X31.14552 Y53.90398
G01 X31.18779 Y53.91005
G01 X31.32406 Y53.95006
G01 X31.36292 Y53.96781
G01 X31.48240 Y54.04462
G01 X31.51464 Y54.07256
G01 X31.60765 Y54.17988
G01 X31.62965 Y54.21346
G01 X31.68355 Y54.32628
G01 X31.70308 Y54.38148
G01 X31.77676 Y54.50096
G01 X31.87608 Y54.60025
G01 X31.90460 Y54.61965
G01 X32.01365 Y54.71066
G01 X32.04217 Y54.74239
G01 X32.12116 Y54.86042
G01 X32.13963 Y54.89893
G01 X32.18217 Y55.03444
G01 X32.18857 Y55.06728
G01 X32.19553 Y55.15951
G01 X32.19553 Y65.36299
G01 X32.22167 Y65.49446
G01 X32.27298 Y65.61831
G01 X32.35357 Y65.73894
G01 X32.43389 Y65.84709
G01 X32.45403 Y65.88412
G01 X32.50366 Y66.01719
G01 X32.51225 Y66.05357
G01 X32.52452 Y66.17569
G01 X32.52452 Y66.85288
G01 X32.55192 Y67.06088
G01 X32.60623 Y67.26355
G01 X32.68649 Y67.45737
G01 X32.79139 Y67.63908
G01 X32.90714 Y67.78988
G01 X32.98845 Y67.93159
G01 X33.00386 Y67.97142
G01 X33.03569 Y68.10985
G01 X33.03925 Y68.15237
G01 X33.03081 Y68.29413
G01 X33.02223 Y68.33598
G01 X32.97417 Y68.46964
G01 X32.95416 Y68.50733
G01 X32.87041 Y68.62204
G01 X32.84059 Y68.65257
G01 X32.72792 Y68.73906
G01 X32.69068 Y68.75999
G01 X32.55820 Y68.81119
G01 X32.52104 Y68.82031
G01 X32.40917 Y68.83301
G01 X31.78207 Y68.83398
G01 X31.62015 Y68.81223
G01 X31.57918 Y68.80019
G01 X31.44999 Y68.74119
G01 X31.41822 Y68.72156
G01 X31.30702 Y68.62773
G01 X31.18754 Y68.55402
G01 X31.05325 Y68.50954
G01 X30.97438 Y68.50147
G01 X29.58967 Y68.50147
G01 X29.51083 Y68.50954
G01 X29.39237 Y68.54719
G01 X29.23933 Y68.57266
G01 X29.21208 Y68.64015
G01 X29.08403 Y68.84663
G01 X29.03958 Y68.98076
G01 X29.03153 Y69.05960
G01 X29.03153 Y69.96936
G01 X29.03958 Y70.04820
G01 X29.08409 Y70.18249
G01 X29.15777 Y70.30197
G01 X29.25703 Y70.40123
G01 X29.37652 Y70.47492
G01 X29.51081 Y70.51942
G01 X29.58965 Y70.52747
G01 X30.97440 Y70.52747
G01 X31.05325 Y70.51942
G01 X31.18754 Y70.47492
G01 X31.30702 Y70.40123
G01 X31.33935 Y70.37106
G01 X31.45307 Y70.28594
G01 X31.49053 Y70.26547
G01 X31.62360 Y70.21584
G01 X31.65998 Y70.20725
G01 X31.76605 Y70.19585
G01 X32.93973 Y70.19498
G01 X33.10165 Y70.21670
G01 X33.14265 Y70.22874
G01 X33.27183 Y70.28775
G01 X33.30775 Y70.31081
G01 X33.41509 Y70.40382
G01 X33.44303 Y70.43608
G01 X33.51984 Y70.55556
G01 X33.53759 Y70.59443
G01 X33.57760 Y70.73070
G01 X33.58367 Y70.77296
G01 X33.58367 Y70.91500
G01 X33.57760 Y70.95724
G01 X33.53759 Y71.09351
G01 X33.45144 Y71.29364
G01 X33.42451 Y71.42897
G01 X33.42451 Y71.56697
G01 X33.45144 Y71.70230
G01 X33.50424 Y71.82978
G01 X33.58090 Y71.94449
G01 X33.67849 Y72.04210
G01 X33.79322 Y72.11876
G01 X33.88387 Y72.15797
G01 X34.00602 Y72.23044
G01 X34.03927 Y72.25721
G01 X34.12659 Y72.35101
G01 X34.17684 Y72.28863
G01 X34.20810 Y72.25952
G01 X34.32479 Y72.17852
G01 X34.45624 Y72.11919
G01 X34.57158 Y72.04210
G01 X34.66914 Y71.94451
G01 X34.74580 Y71.82978
G01 X34.79860 Y71.70230
G01 X34.82553 Y71.56697
G01 X34.82553 Y71.42897
G01 X34.79876 Y71.29435
G01 X34.73218 Y71.13791
G01 X34.68077 Y70.99686
G01 X34.67209 Y70.95505
G01 X34.66322 Y70.81330
G01 X34.66662 Y70.77075
G01 X34.69804 Y70.63225
G01 X34.71333 Y70.59237
G01 X34.78252 Y70.46831
G01 X34.80841 Y70.43435
G01 X34.90973 Y70.33484
G01 X34.94412 Y70.30956
G01 X35.06937 Y70.24261
G01 X35.10952 Y70.22806
G01 X35.27452 Y70.19603
G01 X36.54381 Y70.19498
G01 X36.70574 Y70.21670
G01 X36.74673 Y70.22874
G01 X36.87592 Y70.28775
G01 X36.90772 Y70.30738
G01 X36.99080 Y70.37433
G01 X37.15681 Y70.54129
G01 X37.24193 Y70.65498
G01 X37.26240 Y70.69247
G01 X37.31203 Y70.82554
G01 X37.32110 Y70.86725
G01 X37.33124 Y71.00893
G01 X37.32953 Y71.04454
G01 X37.31379 Y71.13809
G01 X37.30190 Y71.18505
G01 X37.27452 Y71.39305
G01 X37.27452 Y71.60288
G01 X37.30190 Y71.81088
G01 X37.35623 Y72.01355
G01 X37.43649 Y72.20738
G01 X37.54140 Y72.38906
G01 X37.66913 Y72.55551
G01 X37.81749 Y72.70387
G01 X37.98394 Y72.83161
G01 X38.16563 Y72.93651
G01 X38.35945 Y73.01677
G01 X38.56212 Y73.07108
G01 X38.77012 Y73.09848
G01 X39.47992 Y73.09848
G01 X39.68795 Y73.07108
G01 X39.89059 Y73.01677
G01 X40.08442 Y72.93651
G01 X40.26613 Y72.83161
G01 X40.43258 Y72.70387
G01 X40.58091 Y72.55551
G01 X40.70865 Y72.38906
G01 X40.81355 Y72.20738
G01 X40.89384 Y72.01355
G01 X40.94815 Y71.81088
G01 X40.97553 Y71.60288
G01 X40.97553 Y71.39308
G01 X40.94815 Y71.18508
G01 X40.89384 Y70.98241
G01 X40.81355 Y70.78856
G01 X40.70865 Y70.60690
G01 X40.58091 Y70.44043
G01 X40.43258 Y70.29209
G01 X40.26613 Y70.16435
G01 X40.08442 Y70.05945
G01 X39.89059 Y69.97916
G01 X39.68795 Y69.92486
G01 X39.48005 Y69.89750
G01 X38.74421 Y69.89854
G01 X38.63291 Y69.89379
G01 X38.59072 Y69.88724
G01 X38.45488 Y69.84573
G01 X38.41627 Y69.82760
G01 X38.29763 Y69.74955
G01 X38.25524 Y69.71272
G01 X37.52832 Y68.98589
G01 X37.41686 Y68.91142
G01 X37.29301 Y68.86011
G01 X37.16156 Y68.83398
G01 X35.83647 Y68.83245
G01 X35.69588 Y68.81223
G01 X35.65491 Y68.80019
G01 X35.52570 Y68.74119
G01 X35.48979 Y68.71813
G01 X35.38245 Y68.62511
G01 X35.35448 Y68.59283
G01 X35.27770 Y68.47335
G01 X35.25997 Y68.43451
G01 X35.21996 Y68.29824
G01 X35.21389 Y68.25600
G01 X35.21389 Y68.11396
G01 X35.21996 Y68.07170
G01 X35.25997 Y67.93543
G01 X35.27536 Y67.90035
G01 X35.34292 Y67.78991
G01 X35.45865 Y67.63908
G01 X35.56355 Y67.45737
G01 X35.64384 Y67.26355
G01 X35.69814 Y67.06088
G01 X35.72552 Y66.85288
G01 X35.72552 Y66.14308
G01 X35.69814 Y65.93507
G01 X35.64384 Y65.73241
G01 X35.56355 Y65.53858
G01 X35.45865 Y65.35687
G01 X35.33091 Y65.19042
G01 X35.18257 Y65.04209
G01 X35.01610 Y64.91435
G01 X34.84605 Y64.81615
G01 X34.64006 Y64.72901
G01 X34.43795 Y64.67485
G01 X34.22995 Y64.64747
G01 X34.18418 Y64.64595
G01 X34.04359 Y64.62573
G01 X34.00262 Y64.61369
G01 X33.87343 Y64.55469
G01 X33.83754 Y64.53162
G01 X33.73020 Y64.43863
G01 X33.70221 Y64.40635
G01 X33.62543 Y64.28687
G01 X33.60770 Y64.24806
G01 X33.56767 Y64.11176
G01 X33.56198 Y64.08019
G01 X33.55652 Y63.99848
G01 X33.55652 Y55.15951
G01 X33.57826 Y54.99758
G01 X33.59030 Y54.95661
G01 X33.64930 Y54.82740
G01 X33.67237 Y54.79149
G01 X33.76538 Y54.68414
G01 X33.79269 Y54.65953
G01 X33.87290 Y54.60335
G01 X33.98329 Y54.49512
G01 X34.09698 Y54.41000
G01 X34.13447 Y54.38953
G01 X34.26754 Y54.33990
G01 X34.30925 Y54.33083
G01 X34.45093 Y54.32070
G01 X34.49350 Y54.32372
G01 X34.63228 Y54.35389
G01 X34.67231 Y54.36885
G01 X34.79695 Y54.43693
G01 X34.87173 Y54.49756
G01 X34.99550 Y54.57393
G01 X35.12982 Y54.61841
G01 X35.20869 Y54.62649
G01 X36.53050 Y54.62649
G01 X36.69243 Y54.64820
G01 X36.73342 Y54.66024
G01 X36.86263 Y54.71925
G01 X36.89855 Y54.74231
G01 X37.00589 Y54.83533
G01 X37.03385 Y54.86761
G01 X37.11064 Y54.98709
G01 X37.12837 Y55.02593
G01 X37.16837 Y55.16220
G01 X37.17406 Y55.19374
G01 X37.17952 Y55.27548
G01 X37.17952 Y56.63580
G01 X37.18305 Y56.66870
G01 X37.21925 Y56.76567
G01 X37.27962 Y56.84637
G01 X37.36035 Y56.90677
G01 X37.45730 Y56.94294
G01 X37.49019 Y56.94647
G01 X39.56987 Y56.94647
G01 X39.60276 Y56.94294
G01 X39.69974 Y56.90677
G01 X39.78041 Y56.84637
G01 X39.84081 Y56.76567
G01 X39.87698 Y56.66867
G01 X39.88053 Y56.63578
G01 X39.88053 Y55.24368
G01 X39.90225 Y55.08176
G01 X39.91429 Y55.04076
G01 X39.97329 Y54.91158
G01 X39.99636 Y54.87566
G01 X40.08937 Y54.76832
G01 X40.12166 Y54.74035
G01 X40.24114 Y54.66357
G01 X40.27995 Y54.64584
G01 X40.41624 Y54.60581
G01 X40.45851 Y54.59974
G01 X40.60052 Y54.59974
G01 X40.64281 Y54.60581
G01 X40.77908 Y54.64584
G01 X40.81789 Y54.66357
G01 X40.93740 Y54.74035
G01 X40.98462 Y54.78110
G01 X43.22142 Y57.01777
G01 X43.32056 Y57.14761
G01 X43.34103 Y57.18510
G01 X43.39066 Y57.31818
G01 X43.39930 Y57.35455
G01 X43.41156 Y57.47667
G01 X43.41156 Y64.45804
G01 X43.38980 Y64.61994
G01 X43.37776 Y64.66093
G01 X43.31875 Y64.79012
G01 X43.29569 Y64.82603
G01 X43.20270 Y64.93337
G01 X43.06780 Y65.04176
G01 X42.91913 Y65.19045
G01 X42.79140 Y65.35689
G01 X42.68650 Y65.53858
G01 X42.60623 Y65.73241
G01 X42.55190 Y65.93505
G01 X42.52452 Y66.14305
G01 X42.52452 Y66.85288
G01 X42.55190 Y67.06088
G01 X42.60623 Y67.26355
G01 X42.68650 Y67.45737
G01 X42.79140 Y67.63908
G01 X42.91913 Y67.80553
G01 X43.06750 Y67.95387
G01 X43.23394 Y68.08160
G01 X43.41563 Y68.18651
G01 X43.60946 Y68.26677
G01 X43.81215 Y68.32110
G01 X44.02012 Y68.34848
G01 X44.23000 Y68.34848
G01 X44.43795 Y68.32110
G01 X44.64059 Y68.26677
G01 X44.83442 Y68.18651
G01 X45.01616 Y68.08160
G01 X45.18258 Y67.95387
G01 X45.33092 Y67.80553
G01 X45.45863 Y67.63908
G01 X45.48296 Y67.59999
G01 X45.57077 Y67.48836
G01 X45.60165 Y67.45892
G01 X45.71735 Y67.37655
G01 X45.75530 Y67.35699
G01 X45.88951 Y67.31054
G01 X45.93145 Y67.30246
G01 X46.07333 Y67.29570
G01 X46.11583 Y67.29974
G01 X46.25385 Y67.33322
G01 X46.29350 Y67.34909
G01 X46.41649 Y67.42011
G01 X46.45001 Y67.44650
G01 X46.54803 Y67.54930
G01 X46.61029 Y67.64460
G01 X46.73912 Y67.81252
G01 X46.88748 Y67.96088
G01 X47.05398 Y68.08861
G01 X47.23561 Y68.19352
G01 X47.42946 Y68.27378
G01 X47.63213 Y68.32808
G01 X47.84011 Y68.35547
G01 X48.04994 Y68.35547
G01 X48.25794 Y68.32808
G01 X48.46060 Y68.27378
G01 X48.65443 Y68.19352
G01 X48.83612 Y68.08861
G01 X49.00256 Y67.96088
G01 X49.15092 Y67.81252
G01 X49.27866 Y67.64607
G01 X49.38356 Y67.46438
G01 X49.46383 Y67.27053
G01 X49.51813 Y67.06789
G01 X49.54554 Y66.85986
G01 X49.54554 Y66.15009
G01 X49.51813 Y65.94206
G01 X49.46383 Y65.73942
G01 X49.38356 Y65.54557
G01 X49.27866 Y65.36388
G01 X49.15092 Y65.19743
G01 X49.00259 Y65.04907
G01 X48.87945 Y64.95461
G01 X48.76421 Y64.83876
G01 X48.73904 Y64.80432
G01 X48.67244 Y64.67887
G01 X48.65799 Y64.63863
G01 X48.62946 Y64.49949
G01 X48.62560 Y64.44420
G01 X48.62552 Y63.10869
G01 X48.64727 Y62.94674
G01 X48.65931 Y62.90577
G01 X48.71831 Y62.77658
G01 X48.73794 Y62.74481
G01 X48.81562 Y62.64976
G01 X51.83682 Y59.62856
G01 X51.96667 Y59.52942
G01 X52.00416 Y59.50895
G01 X52.13723 Y59.45932
G01 X52.17360 Y59.45073
G01 X52.29570 Y59.43847
G01 X57.52706 Y59.43847
G01 X57.65853 Y59.41233
G01 X57.78235 Y59.36102
G01 X57.89383 Y59.28655
G01 X57.98860 Y59.19178
G01 X58.06307 Y59.08030
G01 X58.11438 Y58.95648
G01 X58.14052 Y58.82501
G01 X58.14204 Y54.88816
G01 X58.16226 Y54.74757
G01 X58.17430 Y54.70660
G01 X58.23330 Y54.57741
G01 X58.25637 Y54.54150
G01 X58.34938 Y54.43416
G01 X58.37669 Y54.40955
G01 X58.45690 Y54.35334
G01 X58.55929 Y54.25097
G01 X58.63297 Y54.13149
G01 X58.67747 Y53.99718
G01 X58.68552 Y53.91836
G01 X58.68552 Y53.03360
G01 X58.67747 Y52.95476
G01 X58.63297 Y52.82047
G01 X58.55929 Y52.70096
G01 X58.46002 Y52.60170
G01 X58.28243 Y52.49365
G01 X58.23584 Y52.47041
G01 X58.20077 Y52.44613
G01 X58.09670 Y52.34948
G01 X58.06985 Y52.31626
G01 X57.99724 Y52.19418
G01 X57.98085 Y52.15479
G01 X57.94555 Y52.01720
G01 X57.94095 Y51.97475
G01 X57.94585 Y51.83282
G01 X57.95337 Y51.79081
G01 X57.99805 Y51.65598
G01 X58.01712 Y51.61776
G01 X58.09800 Y51.50099
G01 X58.12705 Y51.46972
G01 X58.23754 Y51.38047
G01 X58.33307 Y51.32853
G01 X58.46002 Y51.25024
G01 X58.55929 Y51.15098
G01 X58.63297 Y51.03150
G01 X58.67747 Y50.89718
G01 X58.68552 Y50.81834
G01 X58.68552 Y49.93361
G01 X58.68189 Y49.88304
G01 X58.68771 Y49.74113
G01 X58.69551 Y49.69914
G01 X58.74107 Y49.56462
G01 X58.76040 Y49.52652
G01 X58.84204 Y49.41029
G01 X58.87127 Y49.37923
G01 X58.98232 Y49.29071
G01 X59.01915 Y49.26912
G01 X59.15067 Y49.21545
G01 X59.18905 Y49.20544
G01 X59.32817 Y49.18946
G01 X62.53952 Y49.18946
G01 X62.70147 Y49.21121
G01 X62.74244 Y49.22325
G01 X62.87162 Y49.28225
G01 X62.90754 Y49.30531
G01 X63.01488 Y49.39833
G01 X63.04284 Y49.43061
G01 X63.11963 Y49.55009
G01 X63.13736 Y49.58890
G01 X63.17739 Y49.72518
G01 X63.18308 Y49.75680
G01 X63.18851 Y49.83849
G01 X63.18851 Y64.85550
G01 X63.16680 Y65.01737
G01 X63.15476 Y65.05837
G01 X63.09575 Y65.18758
G01 X63.07269 Y65.22349
G01 X62.97967 Y65.33083
G01 X62.94739 Y65.35880
G01 X62.82791 Y65.43558
G01 X62.78907 Y65.45331
G01 X62.65280 Y65.49332
G01 X62.62125 Y65.49901
G01 X62.53952 Y65.50447
G01 X61.36467 Y65.50447
G01 X61.28582 Y65.51255
G01 X61.15151 Y65.55702
G01 X61.03208 Y65.63068
G01 X60.89853 Y65.73353
G01 X60.86103 Y65.75400
G01 X60.72794 Y65.80363
G01 X60.69157 Y65.81221
G01 X60.56944 Y65.82448
G01 X59.91925 Y65.82448
G01 X59.75735 Y65.80274
G01 X59.71638 Y65.79070
G01 X59.58717 Y65.73170
G01 X59.55126 Y65.70863
G01 X59.44392 Y65.61562
G01 X59.41997 Y65.58925
G01 X59.35723 Y65.49997
G01 X59.27867 Y65.36385
G01 X59.15093 Y65.19743
G01 X59.00257 Y65.04907
G01 X58.83612 Y64.92134
G01 X58.65444 Y64.81643
G01 X58.46058 Y64.73617
G01 X58.25794 Y64.68186
G01 X58.04994 Y64.65448
G01 X57.84011 Y64.65448
G01 X57.63211 Y64.68186
G01 X57.42947 Y64.73617
G01 X57.23562 Y64.81643
G01 X57.05393 Y64.92134
G01 X56.88748 Y65.04907
G01 X56.73912 Y65.19743
G01 X56.61139 Y65.36388
G01 X56.50648 Y65.54557
G01 X56.42622 Y65.73942
G01 X56.37191 Y65.94206
G01 X56.34453 Y66.15006
G01 X56.34453 Y66.85989
G01 X56.37191 Y67.06789
G01 X56.42622 Y67.27053
G01 X56.50648 Y67.46438
G01 X56.61139 Y67.64607
G01 X56.73912 Y67.81252
G01 X56.88748 Y67.96088
G01 X57.05393 Y68.08861
G01 X57.23562 Y68.19352
G01 X57.42947 Y68.27378
G01 X57.63211 Y68.32808
G01 X57.84011 Y68.35547
G01 X58.04994 Y68.35547
G01 X58.25794 Y68.32808
G01 X58.46058 Y68.27378
G01 X58.65444 Y68.19352
G01 X58.83612 Y68.08861
G01 X59.00257 Y67.96088
G01 X59.15093 Y67.81252
G01 X59.27867 Y67.64607
G01 X59.36922 Y67.49225
G01 X59.45700 Y67.38061
G01 X59.48791 Y67.35115
G01 X59.60361 Y67.26875
G01 X59.64156 Y67.24919
G01 X59.77577 Y67.20274
G01 X59.81057 Y67.19517
G01 X59.91925 Y67.18547
G01 X60.56944 Y67.18547
G01 X60.73139 Y67.20721
G01 X60.77236 Y67.21925
G01 X60.90157 Y67.27825
G01 X60.93556 Y67.29969
G01 X61.02636 Y67.37574
G01 X61.20968 Y67.48732
G01 X61.25636 Y67.51064
G01 X61.29144 Y67.53494
G01 X61.39548 Y67.63162
G01 X61.42232 Y67.66487
G01 X61.49492 Y67.78696
G01 X61.51127 Y67.82638
G01 X61.54650 Y67.96395
G01 X61.55110 Y68.00637
G01 X61.54617 Y68.14833
G01 X61.53863 Y68.19037
G01 X61.49390 Y68.32516
G01 X61.47483 Y68.36337
G01 X61.39393 Y68.48010
G01 X61.36487 Y68.51137
G01 X61.25435 Y68.60060
G01 X61.15898 Y68.65242
G01 X61.03203 Y68.73073
G01 X60.93276 Y68.82999
G01 X60.85908 Y68.94947
G01 X60.81458 Y69.08376
G01 X60.80653 Y69.16260
G01 X60.80653 Y70.04736
G01 X60.81458 Y70.12618
G01 X60.85908 Y70.26049
G01 X60.93276 Y70.37997
G01 X61.03203 Y70.47921
G01 X61.06060 Y70.49864
G01 X61.16964 Y70.58965
G01 X61.19817 Y70.62137
G01 X61.27716 Y70.73941
G01 X61.29563 Y70.77791
G01 X61.33817 Y70.91345
G01 X61.34457 Y70.94629
G01 X61.35105 Y71.02643
G01 X61.35153 Y71.63100
G01 X61.37767 Y71.76247
G01 X61.42898 Y71.88629
G01 X61.50345 Y71.99778
G01 X66.57957 Y77.07389
G01 X66.68642 Y77.16889
G01 X66.71436 Y77.20216
G01 X66.78901 Y77.32299
G01 X66.80608 Y77.36215
G01 X66.84365 Y77.49914
G01 X66.84896 Y77.54145
G01 X66.84644 Y77.68344
G01 X66.83961 Y77.72560
G01 X66.79717 Y77.86116
G01 X66.77873 Y77.89969
G01 X66.69981 Y78.01778
G01 X66.67128 Y78.04953
G01 X66.61091 Y78.10000
G01 X66.56229 Y78.14061
G01 X66.52600 Y78.16304
G01 X66.39577 Y78.21973
G01 X66.35592 Y78.23086
G01 X66.20387 Y78.24999
G01 X-0.60100 Y78.24999
G01 X-0.76290 Y78.22824
G01 X-0.80387 Y78.21620
G01 X-0.93308 Y78.15720
G01 X-0.96899 Y78.13414
G01 X-1.07633 Y78.04112
G01 X-1.10430 Y78.00884
G01 X-1.18108 Y77.88936
G01 X-1.19881 Y77.85052
G01 X-1.23882 Y77.71425
G01 X-1.24451 Y77.68270
G01 X-1.24997 Y77.60099
G01 X-1.24997 Y1.59898
G01 X-1.22825 Y1.43706
G01 X-1.21621 Y1.39606
G01 X-1.15721 Y1.26688
G01 X-1.13414 Y1.23096
G01 X-1.04113 Y1.12362
G01 X-1.00884 Y1.09568
G01 X-0.88936 Y1.01890
G01 X-0.85055 Y1.00117
G01 X-0.71428 Y0.96114
G01 X-0.68266 Y0.95545
G01 X-0.60100 Y0.95001
G01 X148.40102 Y0.95001
G01 X148.56294 Y0.97173
G01 X148.60394 Y0.98377
G01 X148.73312 Y1.04277
G01 X148.76904 Y1.06584
G01 X148.87638 Y1.15883
G01 X148.90432 Y1.19111
G01 X148.98110 Y1.31059
G01 X148.99883 Y1.34940
G01 X149.03886 Y1.48567
G01 X149.04455 Y1.51730
G01 X149.04999 Y1.59898
G04 P0 ( dwell for no time -- G64 should not smooth over this point )
G00 Z5.00000 ( retract )

G00 X144.13529 Y8.48929 ( rapid move to begin. )
G01 F200.00000
( Mill infeed pass 1/1 )
G01 Z-0.10000
G04 P0 ( dwell for no time -- G64 should not smooth over this point )
G01 F400.00000
G01 X144.13529 Y8.48929
G01 X144.13529 Y8.51868
G01 X144.11126 Y8.76254
G01 X144.10555 Y8.79140
G01 X144.03440 Y9.02589
G01 X144.02315 Y9.05304
G01 X143.90763 Y9.26915
G01 X143.89130 Y9.29361
G01 X143.73585 Y9.48304
G01 X143.71505 Y9.50382
G01 X143.52564 Y9.65927
G01 X143.50118 Y9.67562
G01 X143.28508 Y9.79112
G01 X143.25790 Y9.80237
G01 X143.02343 Y9.87352
G01 X142.99458 Y9.87926
G01 X142.75071 Y9.90326
G01 X142.72130 Y9.90326
G01 X142.47746 Y9.87926
G01 X142.36603 Y9.84845
G01 X142.36603 Y11.04400
G01 X142.35091 Y11.20501
G01 X142.34515 Y11.23384
G01 X142.29125 Y11.40171
G01 X142.20558 Y11.55583
G01 X142.11231 Y11.66947
G01 X141.58350 Y12.19828
G01 X141.46986 Y12.29154
G01 X141.31574 Y12.37719
G01 X141.28856 Y12.38845
G01 X141.11904 Y12.43686
G01 X140.95800 Y12.45200
G01 X139.50091 Y12.45200
G01 X139.44084 Y12.48083
G01 X139.28138 Y12.52919
G01 X139.25255 Y12.53493
G01 X139.07200 Y12.55200
G01 X138.25730 Y12.55126
G01 X138.06263 Y12.52919
G01 X137.90320 Y12.48083
G01 X137.84313 Y12.45200
G01 X135.43691 Y12.45200
G01 X135.37684 Y12.48083
G01 X135.21738 Y12.52919
G01 X135.18855 Y12.53493
G01 X135.00800 Y12.55200
G01 X134.19330 Y12.55126
G01 X133.99863 Y12.52919
G01 X133.83920 Y12.48083
G01 X133.77913 Y12.45200
G01 X131.37291 Y12.45200
G01 X131.31284 Y12.48083
G01 X131.15338 Y12.52919
G01 X131.12455 Y12.53493
G01 X130.94400 Y12.55200
G01 X130.12930 Y12.55126
G01 X129.93463 Y12.52919
G01 X129.77520 Y12.48083
G01 X129.71513 Y12.45200
G01 X127.30891 Y12.45200
G01 X127.24884 Y12.48083
G01 X127.08938 Y12.52919
G01 X127.06055 Y12.53493
G01 X126.88000 Y12.55200
G01 X126.06530 Y12.55126
G01 X125.87063 Y12.52919
G01 X125.71120 Y12.48083
G01 X125.65113 Y12.45200
G01 X123.24491 Y12.45200
G01 X123.18484 Y12.48083
G01 X123.02538 Y12.52919
G01 X122.99655 Y12.53493
G01 X122.81600 Y12.55200
G01 X122.00130 Y12.55126
G01 X121.80663 Y12.52919
G01 X121.64720 Y12.48083
G01 X121.58713 Y12.45200
G01 X119.18091 Y12.45200
G01 X119.12084 Y12.48083
G01 X118.96138 Y12.52919
G01 X118.93255 Y12.53493
G01 X118.75200 Y12.55200
G01 X117.93730 Y12.55126
G01 X117.74263 Y12.52919
G01 X117.58320 Y12.48083
G01 X117.52313 Y12.45200
G01 X115.11691 Y12.45200
G01 X115.05684 Y12.48083
G01 X114.89738 Y12.52919
G01 X114.86855 Y12.53493
G01 X114.68800 Y12.55200
G01 X113.87330 Y12.55126
G01 X113.67863 Y12.52919
G01 X113.51920 Y12.48083
G01 X113.45913 Y12.45200
G01 X111.05291 Y12.45200
G01 X110.99284 Y12.48083
G01 X110.83338 Y12.52919
G01 X110.80455 Y12.53493
G01 X110.62400 Y12.55200
G01 X109.80930 Y12.55126
G01 X109.61463 Y12.52919
G01 X109.45520 Y12.48083
G01 X109.39513 Y12.45200
G01 X108.56480 Y12.45200
G01 X108.32040 Y12.69637
G01 X108.19586 Y12.79954
G01 X108.17140 Y12.81588
G01 X108.04174 Y12.88519
G01 X107.87387 Y12.93912
G01 X107.84504 Y12.94486
G01 X107.68400 Y12.96000
G01 X106.17052 Y12.96000
G01 X106.00951 Y12.94486
G01 X105.89125 Y12.91199
G01 X105.53501 Y12.91199
G01 X105.47154 Y12.90645
G01 X105.39579 Y12.88649
G01 X105.32541 Y12.85215
G01 X105.26308 Y12.80473
G01 X105.24228 Y12.78392
G01 X105.19486 Y12.72159
G01 X105.16051 Y12.65121
G01 X105.14626 Y12.60429
G01 X105.13572 Y12.52670
G01 X105.13572 Y11.57229
G01 X105.14626 Y11.49467
G01 X105.17177 Y11.42060
G01 X105.19486 Y11.37737
G01 X105.24228 Y11.31504
G01 X105.30095 Y11.26317
G01 X105.36864 Y11.22373
G01 X105.39579 Y11.21248
G01 X105.47154 Y11.19251
G01 X105.53501 Y11.18697
G01 X105.96046 Y11.18697
G01 X106.00951 Y11.17511
G01 X106.17052 Y11.15997
G01 X107.31123 Y11.15997
G01 X107.55563 Y10.91560
G01 X107.68017 Y10.81243
G01 X107.83430 Y10.72678
G01 X107.86147 Y10.71553
G01 X108.03099 Y10.66711
G01 X108.19200 Y10.65197
G01 X109.39513 Y10.65197
G01 X109.45520 Y10.62315
G01 X109.61463 Y10.57478
G01 X109.64349 Y10.56904
G01 X109.82400 Y10.55197
G01 X110.63871 Y10.55271
G01 X110.83338 Y10.57478
G01 X110.99284 Y10.62315
G01 X111.05291 Y10.65197
G01 X113.45913 Y10.65197
G01 X113.51920 Y10.62315
G01 X113.67863 Y10.57478
G01 X113.70749 Y10.56904
G01 X113.88800 Y10.55197
G01 X114.70271 Y10.55271
G01 X114.89738 Y10.57478
G01 X115.05684 Y10.62315
G01 X115.11691 Y10.65197
G01 X117.52313 Y10.65197
G01 X117.58320 Y10.62315
G01 X117.74263 Y10.57478
G01 X117.77149 Y10.56904
G01 X117.95200 Y10.55197
G01 X118.76671 Y10.55271
G01 X118.96138 Y10.57478
G01 X119.12084 Y10.62315
G01 X119.18091 Y10.65197
G01 X121.58713 Y10.65197
G01 X121.64720 Y10.62315
G01 X121.80663 Y10.57478
G01 X121.83549 Y10.56904
G01 X122.01601 Y10.55197
G01 X122.83071 Y10.55271
G01 X123.02538 Y10.57478
G01 X123.18484 Y10.62315
G01 X123.24491 Y10.65197
G01 X125.65113 Y10.65197
G01 X125.71120 Y10.62315
G01 X125.87063 Y10.57478
G01 X125.89949 Y10.56904
G01 X126.08000 Y10.55197
G01 X126.89471 Y10.55271
G01 X127.08938 Y10.57478
G01 X127.24884 Y10.62315
G01 X127.30891 Y10.65197
G01 X129.71513 Y10.65197
G01 X129.77520 Y10.62315
G01 X129.93463 Y10.57478
G01 X129.96349 Y10.56904
G01 X130.14400 Y10.55197
G01 X130.95871 Y10.55271
G01 X131.15338 Y10.57478
G01 X131.31284 Y10.62315
G01 X131.37291 Y10.65197
G01 X133.77913 Y10.65197
G01 X133.83920 Y10.62315
G01 X133.99863 Y10.57478
G01 X134.02749 Y10.56904
G01 X134.20800 Y10.55197
G01 X135.02271 Y10.55271
G01 X135.21738 Y10.57478
G01 X135.37684 Y10.62315
G01 X135.43691 Y10.65197
G01 X137.84313 Y10.65197
G01 X137.90320 Y10.62315
G01 X138.06263 Y10.57478
G01 X138.09149 Y10.56904
G01 X138.27201 Y10.55197
G01 X139.08671 Y10.55271
G01 X139.28138 Y10.57478
G01 X139.44084 Y10.62315
G01 X139.50091 Y10.65197
G01 X140.56601 Y10.65197
G01 X140.56601 Y6.84477
G01 X139.95023 Y6.22900
G01 X16.63603 Y6.22900
G01 X16.63603 Y6.61431
G01 X16.66453 Y6.63283
G01 X16.89183 Y6.81937
G01 X16.91263 Y6.84017
G01 X17.09917 Y7.06748
G01 X17.11550 Y7.09191
G01 X17.25411 Y7.35124
G01 X17.26536 Y7.37842
G01 X17.35073 Y7.65980
G01 X17.35647 Y7.68866
G01 X17.38530 Y7.98129
G01 X17.38530 Y8.01068
G01 X17.35647 Y8.30331
G01 X17.35073 Y8.33217
G01 X17.26536 Y8.61355
G01 X17.25411 Y8.64073
G01 X17.11550 Y8.90006
G01 X17.09917 Y8.92450
G01 X16.91263 Y9.15180
G01 X16.89183 Y9.17260
G01 X16.66453 Y9.35914
G01 X16.64007 Y9.37547
G01 X16.38076 Y9.51411
G01 X16.35358 Y9.52536
G01 X16.07220 Y9.61070
G01 X16.04334 Y9.61644
G01 X15.75071 Y9.64527
G01 X15.72130 Y9.64527
G01 X15.42866 Y9.61644
G01 X15.39984 Y9.61070
G01 X15.11845 Y9.52536
G01 X15.09128 Y9.51411
G01 X14.83194 Y9.37547
G01 X14.80751 Y9.35914
G01 X14.58020 Y9.17260
G01 X14.55940 Y9.15180
G01 X14.37286 Y8.92450
G01 X14.35435 Y8.89600
G01 X14.06969 Y8.89600
G01 X14.05117 Y8.92450
G01 X13.86463 Y9.15180
G01 X13.84383 Y9.17260
G01 X13.61653 Y9.35914
G01 X13.59207 Y9.37547
G01 X13.33276 Y9.51411
G01 X13.30558 Y9.52536
G01 X13.02420 Y9.61070
G01 X12.99534 Y9.61644
G01 X12.70271 Y9.64527
G01 X12.67330 Y9.64527
G01 X12.38066 Y9.61644
G01 X12.35184 Y9.61070
G01 X12.07045 Y9.52536
G01 X12.04328 Y9.51411
G01 X11.78394 Y9.37547
G01 X11.75951 Y9.35914
G01 X11.53220 Y9.17260
G01 X11.51140 Y9.15180
G01 X11.32486 Y8.92450
G01 X11.30853 Y8.90006
G01 X11.16990 Y8.64073
G01 X11.15864 Y8.61355
G01 X11.07330 Y8.33217
G01 X11.06756 Y8.30331
G01 X11.03873 Y8.01068
G01 X11.03873 Y7.98129
G01 X11.06756 Y7.68866
G01 X11.07330 Y7.65980
G01 X11.15864 Y7.37842
G01 X11.16990 Y7.35124
G01 X11.30853 Y7.09191
G01 X11.32486 Y7.06748
G01 X11.51140 Y6.84017
G01 X11.53220 Y6.81937
G01 X11.75951 Y6.63283
G01 X11.78801 Y6.61431
G01 X11.78801 Y6.22900
G01 X10.90180 Y6.22900
G01 X8.45474 Y8.67606
G01 X8.45474 Y11.05032
G01 X8.48324 Y11.06884
G01 X8.71054 Y11.25538
G01 X8.73132 Y11.27618
G01 X8.91786 Y11.50348
G01 X8.93421 Y11.52792
G01 X9.07282 Y11.78725
G01 X9.08407 Y11.81443
G01 X9.16944 Y12.09581
G01 X9.17516 Y12.12464
G01 X9.20399 Y12.41727
G01 X9.20399 Y12.44669
G01 X9.17516 Y12.73932
G01 X9.16944 Y12.76818
G01 X9.08407 Y13.04956
G01 X9.07282 Y13.07671
G01 X8.93421 Y13.33604
G01 X8.91786 Y13.36050
G01 X8.73132 Y13.58781
G01 X8.71054 Y13.60861
G01 X8.48324 Y13.79515
G01 X8.45474 Y13.81364
G01 X8.45474 Y22.70389
G01 X11.80800 Y26.05718
G01 X46.80734 Y26.05718
G01 X46.82591 Y26.02868
G01 X47.01240 Y25.80137
G01 X47.03320 Y25.78057
G01 X47.26055 Y25.59403
G01 X47.28900 Y25.57552
G01 X47.28900 Y23.85898
G01 X45.46714 Y23.85898
G01 X45.39965 Y23.91164
G01 X45.32921 Y23.94600
G01 X45.25350 Y23.96597
G01 X45.19002 Y23.97148
G01 X43.94001 Y23.97148
G01 X43.84771 Y23.96023
G01 X43.77364 Y23.93475
G01 X43.70595 Y23.89531
G01 X43.66808 Y23.86422
G01 X43.64728 Y23.84341
G01 X43.59986 Y23.78108
G01 X43.57677 Y23.73788
G01 X43.55126 Y23.66381
G01 X43.54072 Y23.58619
G01 X43.54004 Y22.64649
G01 X43.54555 Y22.58302
G01 X43.56554 Y22.50727
G01 X43.59986 Y22.43689
G01 X43.64728 Y22.37456
G01 X43.66808 Y22.35375
G01 X43.73041 Y22.30633
G01 X43.80079 Y22.27197
G01 X43.87654 Y22.25200
G01 X43.92531 Y22.24720
G01 X45.19002 Y22.24649
G01 X45.25350 Y22.25200
G01 X45.32921 Y22.27197
G01 X45.39965 Y22.30633
G01 X45.46714 Y22.35899
G01 X46.89881 Y22.35899
G01 X46.89881 Y22.00499
G01 X46.90170 Y21.97573
G01 X46.91024 Y21.94758
G01 X46.92408 Y21.92165
G01 X46.94275 Y21.89892
G01 X46.96551 Y21.88027
G01 X46.99142 Y21.86641
G01 X47.01958 Y21.85787
G01 X47.04882 Y21.85497
G01 X49.54881 Y21.85497
G01 X49.57808 Y21.85787
G01 X49.60622 Y21.86641
G01 X49.63215 Y21.88027
G01 X49.65488 Y21.89892
G01 X49.67353 Y21.92165
G01 X49.68740 Y21.94758
G01 X49.69593 Y21.97573
G01 X49.69880 Y22.10499
G01 X50.29202 Y22.10499
G01 X50.29202 Y20.13400
G01 X50.31000 Y19.97339
G01 X50.34414 Y19.86082
G01 X50.41084 Y19.72993
G01 X50.42717 Y19.70547
G01 X50.52260 Y19.59377
G01 X50.61351 Y19.51914
G01 X50.74170 Y19.44736
G01 X50.76885 Y19.43611
G01 X50.91025 Y19.39623
G01 X51.04200 Y19.38399
G01 X52.48544 Y19.38399
G01 X52.50535 Y19.35892
G01 X52.52808 Y19.34027
G01 X52.55402 Y19.32640
G01 X52.58216 Y19.31787
G01 X52.61142 Y19.31498
G01 X55.11141 Y19.31498
G01 X55.14068 Y19.31787
G01 X55.16882 Y19.32640
G01 X55.19475 Y19.34027
G01 X55.21748 Y19.35892
G01 X55.23737 Y19.38399
G01 X56.90737 Y19.38399
G01 X56.95045 Y19.34766
G01 X57.01814 Y19.30822
G01 X57.09221 Y19.28274
G01 X57.16981 Y19.27220
G01 X58.43452 Y19.27149
G01 X58.52683 Y19.28274
G01 X58.60089 Y19.30822
G01 X58.66856 Y19.34766
G01 X58.72723 Y19.39956
G01 X58.77468 Y19.46189
G01 X58.80902 Y19.53227
G01 X58.82898 Y19.60801
G01 X58.83378 Y19.65678
G01 X58.83452 Y20.59648
G01 X58.82898 Y20.65996
G01 X58.82324 Y20.68881
G01 X58.79777 Y20.76288
G01 X58.77468 Y20.80608
G01 X58.72723 Y20.86841
G01 X58.70645 Y20.88922
G01 X58.64412 Y20.93664
G01 X58.60089 Y20.95975
G01 X58.52683 Y20.98523
G01 X58.43452 Y20.99648
G01 X57.18451 Y20.99648
G01 X57.12104 Y20.99097
G01 X57.04529 Y20.97100
G01 X56.97491 Y20.93664
G01 X56.90737 Y20.88398
G01 X55.26140 Y20.88398
G01 X55.26140 Y21.16498
G01 X55.25853 Y21.19424
G01 X55.25000 Y21.22239
G01 X55.23613 Y21.24832
G01 X55.21748 Y21.27105
G01 X55.19475 Y21.28970
G01 X55.16882 Y21.30357
G01 X55.14068 Y21.31210
G01 X55.11141 Y21.31500
G01 X52.61142 Y21.31500
G01 X52.58216 Y21.31210
G01 X52.55402 Y21.30357
G01 X52.52808 Y21.28970
G01 X52.50535 Y21.27105
G01 X52.48668 Y21.24832
G01 X52.47284 Y21.22239
G01 X52.46430 Y21.19424
G01 X52.46141 Y21.16498
G01 X52.46141 Y20.88398
G01 X51.79202 Y20.88398
G01 X51.79130 Y22.86968
G01 X51.77977 Y22.98675
G01 X51.73989 Y23.12815
G01 X51.67319 Y23.25904
G01 X51.58224 Y23.37440
G01 X51.47053 Y23.46983
G01 X51.44607 Y23.48616
G01 X51.31518 Y23.55286
G01 X51.17378 Y23.59274
G01 X51.04200 Y23.60498
G01 X49.69880 Y23.60498
G01 X49.69880 Y23.70498
G01 X49.69593 Y23.73424
G01 X49.68740 Y23.76239
G01 X49.67353 Y23.78832
G01 X49.65488 Y23.81105
G01 X49.63215 Y23.82970
G01 X49.60622 Y23.84357
G01 X49.57808 Y23.85210
G01 X49.54881 Y23.85500
G01 X49.08902 Y23.85500
G01 X49.08902 Y25.57552
G01 X49.11752 Y25.59403
G01 X49.34483 Y25.78057
G01 X49.36563 Y25.80137
G01 X49.55217 Y26.02868
G01 X49.56850 Y26.05311
G01 X49.70713 Y26.31245
G01 X49.71838 Y26.33962
G01 X49.80373 Y26.62101
G01 X49.80947 Y26.64986
G01 X49.83830 Y26.94247
G01 X49.83830 Y26.97188
G01 X49.80947 Y27.26451
G01 X49.80373 Y27.29334
G01 X49.71838 Y27.57475
G01 X49.70713 Y27.60193
G01 X49.56850 Y27.86126
G01 X49.55217 Y27.88570
G01 X49.36563 Y28.11300
G01 X49.34483 Y28.13380
G01 X49.11752 Y28.32034
G01 X49.09309 Y28.33667
G01 X48.83375 Y28.47531
G01 X48.80658 Y28.48656
G01 X48.52519 Y28.57190
G01 X48.49634 Y28.57764
G01 X48.20371 Y28.60647
G01 X48.17432 Y28.60647
G01 X47.88169 Y28.57764
G01 X47.85283 Y28.57190
G01 X47.57145 Y28.48656
G01 X47.54427 Y28.47531
G01 X47.28494 Y28.33667
G01 X47.26055 Y28.32034
G01 X47.03320 Y28.13380
G01 X47.01240 Y28.11300
G01 X46.82591 Y27.88570
G01 X46.80734 Y27.85720
G01 X11.43520 Y27.85720
G01 X11.27419 Y27.84206
G01 X11.10464 Y27.79365
G01 X10.94782 Y27.71308
G01 X10.92336 Y27.69672
G01 X10.79880 Y27.59355
G01 X6.91832 Y23.71306
G01 X6.81517 Y23.58850
G01 X6.79884 Y23.56406
G01 X6.71827 Y23.40722
G01 X6.66986 Y23.23770
G01 X6.65472 Y23.07669
G01 X6.65472 Y13.81367
G01 X6.62619 Y13.79515
G01 X6.39889 Y13.60861
G01 X6.37811 Y13.58781
G01 X6.19155 Y13.36050
G01 X6.17522 Y13.33604
G01 X6.03661 Y13.07671
G01 X6.02536 Y13.04956
G01 X5.93999 Y12.76818
G01 X5.93425 Y12.73932
G01 X5.90544 Y12.44669
G01 X5.90544 Y12.41727
G01 X5.93425 Y12.12464
G01 X5.93999 Y12.09581
G01 X6.02536 Y11.81443
G01 X6.03661 Y11.78725
G01 X6.17522 Y11.52792
G01 X6.19155 Y11.50348
G01 X6.37811 Y11.27618
G01 X6.39889 Y11.25538
G01 X6.62619 Y11.06884
G01 X6.65472 Y11.05032
G01 X6.65472 Y8.30329
G01 X6.66986 Y8.14225
G01 X6.67560 Y8.11342
G01 X6.72952 Y7.94555
G01 X6.79884 Y7.81589
G01 X6.81517 Y7.79143
G01 X6.91834 Y7.66689
G01 X9.90353 Y4.68270
G01 X10.04163 Y4.57309
G01 X10.19847 Y4.49253
G01 X10.36799 Y4.44411
G01 X10.52900 Y4.42897
G01 X140.32300 Y4.42897
G01 X140.48404 Y4.44411
G01 X140.65356 Y4.49253
G01 X140.68074 Y4.50378
G01 X140.83487 Y4.58943
G01 X140.95940 Y4.69260
G01 X142.10240 Y5.83560
G01 X142.20558 Y5.96014
G01 X142.29125 Y6.11426
G01 X142.30248 Y6.14144
G01 X142.35091 Y6.31096
G01 X142.36603 Y6.47200
G01 X142.36603 Y7.15953
G01 X142.47746 Y7.12872
G01 X142.72130 Y7.10471
G01 X142.75071 Y7.10471
G01 X142.99458 Y7.12872
G01 X143.02343 Y7.13446
G01 X143.25790 Y7.20560
G01 X143.28508 Y7.21685
G01 X143.50118 Y7.33237
G01 X143.52564 Y7.34870
G01 X143.71505 Y7.50415
G01 X143.73585 Y7.52493
G01 X143.89130 Y7.71434
G01 X143.90763 Y7.73882
G01 X144.02315 Y7.95493
G01 X144.03440 Y7.98208
G01 X144.10555 Y8.21657
G01 X144.11126 Y8.24543
G01 X144.13529 Y8.48929
G04 P0 ( dwell for no time -- G64 should not smooth over this point )
G00 Z5.00000 ( retract )

G00 X140.32971 Y7.18736 ( rapid move to begin. )
G01 F200.00000
( Mill infeed pass 1/1 )
G01 Z-0.10000
G04 P0 ( dwell for no time -- G64 should not smooth over this point )
G01 F400.00000
G01 X140.32971 Y7.18736
G01 X140.32666 Y7.22996
G01 X140.29646 Y7.36875
G01 X140.28155 Y7.40875
G01 X140.21348 Y7.53341
G01 X140.18790 Y7.56758
G01 X140.08750 Y7.66801
G01 X140.05331 Y7.69361
G01 X139.92864 Y7.76168
G01 X139.88861 Y7.77659
G01 X139.74983 Y7.80677
G01 X139.68237 Y7.81147
G01 X137.38222 Y7.81147
G01 X137.34932 Y7.81502
G01 X137.17983 Y7.87659
G01 X137.04104 Y7.90677
G01 X136.97894 Y7.91137
G01 X136.28512 Y7.90994
G01 X136.14455 Y7.88972
G01 X136.11430 Y7.88210
G01 X135.93119 Y7.81507
G01 X135.89784 Y7.81147
G01 X133.31822 Y7.81147
G01 X133.28532 Y7.81502
G01 X133.11583 Y7.87659
G01 X132.97704 Y7.90677
G01 X132.90958 Y7.91147
G01 X132.22112 Y7.90994
G01 X132.08053 Y7.88972
G01 X132.05030 Y7.88210
G01 X131.86719 Y7.81507
G01 X131.83384 Y7.81147
G01 X129.25422 Y7.81147
G01 X129.22132 Y7.81502
G01 X129.05183 Y7.87659
G01 X128.91304 Y7.90677
G01 X128.84558 Y7.91147
G01 X128.15712 Y7.90994
G01 X128.01653 Y7.88972
G01 X127.98630 Y7.88210
G01 X127.80319 Y7.81507
G01 X127.76984 Y7.81147
G01 X125.19022 Y7.81147
G01 X125.15732 Y7.81502
G01 X124.98783 Y7.87659
G01 X124.84904 Y7.90677
G01 X124.78158 Y7.91147
G01 X124.09312 Y7.90994
G01 X123.95253 Y7.88972
G01 X123.92230 Y7.88210
G01 X123.73919 Y7.81507
G01 X123.70584 Y7.81147
G01 X121.12622 Y7.81147
G01 X121.09332 Y7.81502
G01 X120.92383 Y7.87659
G01 X120.78504 Y7.90677
G01 X120.71758 Y7.91147
G01 X120.02912 Y7.90994
G01 X119.88853 Y7.88972
G01 X119.85830 Y7.88210
G01 X119.67519 Y7.81507
G01 X119.64184 Y7.81147
G01 X117.06222 Y7.81147
G01 X117.02932 Y7.81502
G01 X116.85983 Y7.87659
G01 X116.72104 Y7.90677
G01 X116.65358 Y7.91147
G01 X115.96512 Y7.90994
G01 X115.82453 Y7.88972
G01 X115.79430 Y7.88210
G01 X115.61119 Y7.81507
G01 X115.57784 Y7.81147
G01 X112.99822 Y7.81147
G01 X112.96532 Y7.81502
G01 X112.79583 Y7.87659
G01 X112.65704 Y7.90677
G01 X112.58958 Y7.91147
G01 X111.90112 Y7.90994
G01 X111.76053 Y7.88972
G01 X111.73030 Y7.88210
G01 X111.54719 Y7.81507
G01 X111.51384 Y7.81147
G01 X108.93422 Y7.81147
G01 X108.90132 Y7.81502
G01 X108.79485 Y7.85472
G01 X108.65177 Y7.93280
G01 X108.49178 Y7.96928
G01 X108.42962 Y7.97387
G01 X103.72491 Y7.97398
G01 X103.55381 Y8.00108
G01 X103.38907 Y8.05460
G01 X103.23474 Y8.13323
G01 X103.09461 Y8.23506
G01 X102.83710 Y8.49041
G01 X102.72341 Y8.57552
G01 X102.68592 Y8.59600
G01 X102.55285 Y8.64563
G01 X102.51648 Y8.65421
G01 X102.41041 Y8.66562
G01 X101.87566 Y8.66648
G01 X101.77713 Y8.67525
G01 X101.60990 Y8.72307
G01 X101.45658 Y8.80316
G01 X101.32252 Y8.91248
G01 X101.21323 Y9.04654
G01 X101.13314 Y9.19986
G01 X101.08529 Y9.36706
G01 X101.07652 Y9.46562
G01 X101.07652 Y12.36835
G01 X101.08529 Y12.46688
G01 X101.13314 Y12.63411
G01 X101.21323 Y12.78743
G01 X101.32252 Y12.92146
G01 X101.45658 Y13.03079
G01 X101.60990 Y13.11087
G01 X101.77713 Y13.15873
G01 X101.87563 Y13.16746
G01 X102.97843 Y13.16746
G01 X103.07693 Y13.15873
G01 X103.24416 Y13.11087
G01 X103.39747 Y13.03079
G01 X103.53151 Y12.92146
G01 X103.64037 Y12.78796
G01 X103.73537 Y12.60173
G01 X103.80995 Y12.47194
G01 X103.83631 Y12.43836
G01 X103.93903 Y12.34026
G01 X103.97378 Y12.31547
G01 X104.09996 Y12.25030
G01 X104.14032 Y12.23627
G01 X104.27977 Y12.20930
G01 X104.32239 Y12.20724
G01 X104.46379 Y12.22063
G01 X104.50530 Y12.23066
G01 X104.63717 Y12.28334
G01 X104.67415 Y12.30465
G01 X104.78589 Y12.39236
G01 X104.81540 Y12.42327
G01 X104.89788 Y12.53892
G01 X104.91401 Y12.56785
G01 X104.94842 Y12.65085
G01 X104.98708 Y12.76749
G01 X105.06077 Y12.88697
G01 X105.16003 Y12.98623
G01 X105.27951 Y13.05992
G01 X105.41383 Y13.10442
G01 X105.49264 Y13.11247
G01 X105.76460 Y13.11351
G01 X105.88772 Y13.12825
G01 X106.08431 Y13.16048
G01 X107.77064 Y13.16048
G01 X107.92050 Y13.13830
G01 X108.06251 Y13.13627
G01 X108.10486 Y13.14173
G01 X108.24169 Y13.17978
G01 X108.28078 Y13.19695
G01 X108.40135 Y13.27204
G01 X108.43402 Y13.29954
G01 X108.52855 Y13.40554
G01 X108.55215 Y13.44112
G01 X108.61298 Y13.56947
G01 X108.62558 Y13.61024
G01 X108.64781 Y13.75052
G01 X108.64928 Y13.78471
G01 X108.64318 Y13.86990
G01 X108.62352 Y13.99748
G01 X108.62352 Y14.18646
G01 X108.65309 Y14.37313
G01 X108.71146 Y14.55278
G01 X108.79726 Y14.72116
G01 X108.90833 Y14.87404
G01 X109.04153 Y15.00724
G01 X109.32434 Y15.20927
G01 X109.35461 Y15.23805
G01 X109.44295 Y15.34927
G01 X109.46449 Y15.38618
G01 X109.51788 Y15.51780
G01 X109.52779 Y15.55600
G01 X109.54351 Y15.69413
G01 X109.54351 Y16.57249
G01 X109.52180 Y16.73439
G01 X109.50976 Y16.77538
G01 X109.45075 Y16.90457
G01 X109.42769 Y16.94048
G01 X109.33467 Y17.04782
G01 X109.30239 Y17.07579
G01 X109.18291 Y17.15257
G01 X109.14410 Y17.17030
G01 X109.00783 Y17.21033
G01 X108.90524 Y17.22110
G01 X98.21900 Y17.22148
G01 X98.08755 Y17.24762
G01 X97.92738 Y17.31394
G01 X97.82850 Y17.34574
G01 X97.78667 Y17.35445
G01 X97.64491 Y17.36332
G01 X97.60239 Y17.35991
G01 X97.46391 Y17.32852
G01 X97.42400 Y17.31325
G01 X97.29995 Y17.24409
G01 X97.26599 Y17.21818
G01 X97.16645 Y17.11686
G01 X97.14120 Y17.08247
G01 X97.07422 Y16.95722
G01 X97.05962 Y16.91709
G01 X97.03066 Y16.77805
G01 X97.02660 Y16.72100
G01 X97.02652 Y15.58359
G01 X97.01847 Y15.50477
G01 X96.97399 Y15.37046
G01 X96.89426 Y15.23830
G01 X96.83765 Y15.10805
G01 X96.82657 Y15.06825
G01 X96.80887 Y14.93655
G01 X96.80752 Y14.77686
G01 X96.82929 Y14.61491
G01 X96.84133 Y14.57394
G01 X96.90031 Y14.44473
G01 X96.92340 Y14.40881
G01 X97.01639 Y14.30145
G01 X97.04537 Y14.27567
G01 X97.13701 Y14.21333
