(Block-name: Header)
(Block-expand: 0)
(Block-enable: 1)
( pcb2gcode 2.5.0 )
( Software-independent Gcode )

G94 ( Millimeters per minute feed rate. )
G21 ( Units == Millimeters. )

G90 ( Absolute coordinates. )
(Block-name: block)
(Block-expand: 1)
(Block-enable: 1)
G00 S10000 ( RPM spindle speed. )
G01 F400.00000 ( Feedrate. )


G00 Z10.00000 (Retract to tool change height)
(Block-name: block)
(Block-expand: 1)
(Block-enable: 1)
T1
M5      (Spindle stop.)
G04 P1.00000 (Wait for spindle to stop)
(MSG, Change tool bit to mill diameter 0.30000mm)
M6      (Tool change.)
M0      (Temporary machine stop.)
M3 ( Spindle on clockwise. )
G04 P1.00000 (Wait for spindle to get up to speed)
G04 P0 ( dwell for no time -- G64 should not smooth over this point )
G00 Z5.00000 ( retract )

G00 X148.04999 Y2.59898 ( rapid move to begin. )
G01 F200.00000
( Mill infeed pass 1/1 )
G01 Z-0.10000
G04 P0 ( dwell for no time -- G64 should not smooth over this point )
G01 F400.00000
G01 X148.04999 Y2.59898
G01 X148.04999 Y78.60099
G01 X148.02827 Y78.76289
G01 X148.01623 Y78.80389
G01 X147.95723 Y78.93307
G01 X147.93416 Y78.96899
G01 X147.84117 Y79.07633
G01 X147.80889 Y79.10429
G01 X147.68941 Y79.18108
G01 X147.65060 Y79.19880
G01 X147.51433 Y79.23883
G01 X147.48275 Y79.24452
G01 X147.40102 Y79.24999
G01 X87.33116 Y79.24999
G01 X87.16924 Y79.22824
G01 X87.12826 Y79.21620
G01 X86.99908 Y79.15720
G01 X86.96316 Y79.13414
G01 X86.85582 Y79.04112
G01 X86.82786 Y79.00884
G01 X86.75107 Y78.88936
G01 X86.73335 Y78.85054
G01 X86.69332 Y78.71427
G01 X86.68724 Y78.67201
G01 X86.68724 Y78.52997
G01 X86.69332 Y78.48768
G01 X86.73335 Y78.35141
G01 X86.75107 Y78.31260
G01 X86.82786 Y78.19312
G01 X86.85542 Y78.16121
G01 X86.95598 Y78.07341
G01 X88.23060 Y76.79878
G01 X88.30507 Y76.68730
G01 X88.35638 Y76.56348
G01 X88.38252 Y76.43201
G01 X88.38252 Y29.05087
G01 X88.35638 Y28.91940
G01 X88.30507 Y28.79555
G01 X88.23060 Y28.68410
G01 X85.03190 Y25.48540
G01 X84.88778 Y25.38911
G01 X84.78837 Y25.31456
G01 X84.71628 Y25.23645
G01 X84.57810 Y25.09830
G01 X84.42522 Y24.98720
G01 X84.25687 Y24.90143
G01 X84.07714 Y24.84306
G01 X83.89050 Y24.81347
G01 X82.90153 Y24.81347
G01 X82.71494 Y24.84303
G01 X82.53518 Y24.90143
G01 X82.36681 Y24.98723
G01 X82.21395 Y25.09828
G01 X82.08035 Y25.23191
G01 X81.96925 Y25.38479
G01 X81.88347 Y25.55314
G01 X81.82510 Y25.73285
G01 X81.79553 Y25.91949
G01 X81.79553 Y26.10846
G01 X81.82510 Y26.29513
G01 X81.88347 Y26.47481
G01 X81.96925 Y26.64316
G01 X82.08035 Y26.79604
G01 X82.12337 Y26.84123
G01 X82.20849 Y26.95492
G01 X82.22896 Y26.99241
G01 X82.27859 Y27.12550
G01 X82.28766 Y27.16721
G01 X82.29779 Y27.30887
G01 X82.29475 Y27.35146
G01 X82.26455 Y27.49025
G01 X82.24964 Y27.53025
G01 X82.18156 Y27.65491
G01 X82.16023 Y27.68466
G01 X82.08215 Y27.76937
G01 X81.96925 Y27.92479
G01 X81.88347 Y28.09314
G01 X81.82510 Y28.27285
G01 X81.79553 Y28.45946
G01 X81.79553 Y28.64846
G01 X81.82510 Y28.83513
G01 X81.88347 Y29.01481
G01 X81.96925 Y29.18316
G01 X82.08035 Y29.33604
G01 X82.21395 Y29.46967
G01 X82.36683 Y29.58074
G01 X82.53518 Y29.66654
G01 X82.71491 Y29.72491
G01 X82.90153 Y29.75448
G01 X83.89050 Y29.75448
G01 X84.07717 Y29.72491
G01 X84.27028 Y29.66378
G01 X84.41024 Y29.63954
G01 X84.45293 Y29.63832
G01 X84.59403 Y29.65453
G01 X84.63531 Y29.66538
G01 X84.76614 Y29.72067
G01 X84.80020 Y29.74069
G01 X84.90897 Y29.82722
G01 X85.50747 Y30.42788
G01 X85.59256 Y30.54157
G01 X85.61300 Y30.57901
G01 X85.66266 Y30.71208
G01 X85.67127 Y30.74853
G01 X85.68351 Y30.87061
G01 X85.68351 Y32.25689
G01 X85.66180 Y32.41879
G01 X85.64976 Y32.45978
G01 X85.59075 Y32.58899
G01 X85.56769 Y32.62491
G01 X85.47467 Y32.73225
G01 X85.44239 Y32.76021
G01 X85.32291 Y32.83700
G01 X85.28407 Y32.85473
G01 X85.14780 Y32.89473
G01 X85.10554 Y32.90080
G01 X84.96350 Y32.90080
G01 X84.92126 Y32.89473
G01 X84.78499 Y32.85473
G01 X84.74615 Y32.83700
G01 X84.62667 Y32.76021
G01 X84.57988 Y32.71960
G01 X84.42522 Y32.60720
G01 X84.25687 Y32.52143
G01 X84.07714 Y32.46306
G01 X83.89050 Y32.43347
G01 X82.90153 Y32.43347
G01 X82.71494 Y32.46303
G01 X82.53518 Y32.52143
G01 X82.36681 Y32.60723
G01 X82.21395 Y32.71828
G01 X82.15268 Y32.77741
G01 X82.03899 Y32.86252
G01 X82.00150 Y32.88300
G01 X81.86841 Y32.93263
G01 X81.83203 Y32.94121
G01 X81.70991 Y32.95348
G01 X80.56470 Y32.95348
G01 X80.40278 Y32.93174
G01 X80.36181 Y32.91970
G01 X80.23262 Y32.86070
G01 X80.20082 Y32.84106
G01 X80.11776 Y32.77413
G01 X79.86861 Y32.52618
G01 X79.76948 Y32.39633
G01 X79.74901 Y32.35884
G01 X79.69937 Y32.22577
G01 X79.69079 Y32.18940
G01 X79.67852 Y32.06730
G01 X79.67852 Y24.78670
G01 X79.70026 Y24.62475
G01 X79.71230 Y24.58378
G01 X79.77131 Y24.45457
G01 X79.79094 Y24.42276
G01 X79.86861 Y24.32777
G01 X86.09098 Y18.10759
G01 X86.20467 Y18.02245
G01 X86.24216 Y18.00195
G01 X86.37523 Y17.95232
G01 X86.41160 Y17.94373
G01 X86.53370 Y17.93146
G01 X90.49249 Y17.93146
G01 X90.65442 Y17.95321
G01 X90.69539 Y17.96525
G01 X90.82460 Y18.02425
G01 X90.86052 Y18.04731
G01 X90.96786 Y18.14033
G01 X90.99247 Y18.16763
G01 X91.04865 Y18.24785
G01 X91.15104 Y18.35023
G01 X91.27050 Y18.42392
G01 X91.40481 Y18.46842
G01 X91.48365 Y18.47647
G01 X92.36841 Y18.47647
G01 X92.44723 Y18.46842
G01 X92.58154 Y18.42392
G01 X92.70102 Y18.35023
G01 X92.80029 Y18.25097
G01 X92.90837 Y18.07332
G01 X92.93171 Y18.02659
G01 X92.95604 Y17.99146
G01 X93.05276 Y17.88742
G01 X93.08599 Y17.86062
G01 X93.20806 Y17.78806
G01 X93.24751 Y17.77170
G01 X93.38510 Y17.73647
G01 X93.42754 Y17.73187
G01 X93.56950 Y17.73685
G01 X93.61149 Y17.74439
G01 X93.74629 Y17.78912
G01 X93.78451 Y17.80820
G01 X93.90123 Y17.88912
G01 X93.93249 Y17.91818
G01 X94.02170 Y18.02870
G01 X94.07346 Y18.12397
G01 X94.15177 Y18.25097
G01 X94.25103 Y18.35023
G01 X94.37052 Y18.42392
G01 X94.50481 Y18.46842
G01 X94.58365 Y18.47647
G01 X95.18233 Y18.47647
G01 X95.34430 Y18.49821
G01 X95.38525 Y18.51025
G01 X95.51443 Y18.56926
G01 X95.55035 Y18.59232
G01 X95.65769 Y18.68534
G01 X95.68565 Y18.71762
G01 X95.76244 Y18.83710
G01 X95.78017 Y18.87594
G01 X95.82017 Y19.01221
G01 X95.82624 Y19.05447
G01 X95.82624 Y19.19651
G01 X95.82017 Y19.23875
G01 X95.78017 Y19.37502
G01 X95.76244 Y19.41386
G01 X95.68565 Y19.53334
G01 X95.66556 Y19.55828
G01 X92.18546 Y23.04014
G01 X92.11098 Y23.15165
G01 X92.05967 Y23.27547
G01 X92.03351 Y23.40694
G01 X92.03351 Y40.55900
G01 X92.05967 Y40.69047
G01 X92.11098 Y40.81430
G01 X92.18546 Y40.92578
G01 X98.12222 Y46.86255
G01 X98.23370 Y46.93702
G01 X98.35750 Y46.98833
G01 X98.48900 Y47.01446
G01 X99.37213 Y47.01446
G01 X99.53408 Y47.03621
G01 X99.57505 Y47.04825
G01 X99.70424 Y47.10725
G01 X99.74015 Y47.13031
G01 X99.84749 Y47.22333
G01 X99.87546 Y47.25561
G01 X99.95224 Y47.37509
G01 X99.96997 Y47.41390
G01 X100.01000 Y47.55018
G01 X100.01607 Y47.59247
G01 X100.01607 Y47.73450
G01 X100.01000 Y47.77677
G01 X99.96997 Y47.91304
G01 X99.95252 Y47.95139
G01 X99.87807 Y48.06818
G01 X99.74914 Y48.24499
G01 X99.66347 Y48.41314
G01 X99.60510 Y48.59285
G01 X99.57553 Y48.77949
G01 X99.57553 Y48.96846
G01 X99.60510 Y49.15513
G01 X99.66347 Y49.33481
G01 X99.74925 Y49.50316
G01 X99.86034 Y49.65604
G01 X99.90337 Y49.70123
G01 X99.98849 Y49.81492
G01 X100.00896 Y49.85241
G01 X100.05859 Y49.98550
G01 X100.06766 Y50.02721
G01 X100.07779 Y50.16886
G01 X100.07475 Y50.21146
G01 X100.04455 Y50.35025
G01 X100.02964 Y50.39025
G01 X99.96156 Y50.51491
G01 X99.94023 Y50.54466
G01 X99.86215 Y50.62939
G01 X99.74925 Y50.78479
G01 X99.66347 Y50.95314
G01 X99.60510 Y51.13285
G01 X99.57553 Y51.31949
G01 X99.57553 Y51.50846
G01 X99.60510 Y51.69513
G01 X99.66347 Y51.87481
G01 X99.74925 Y52.04316
G01 X99.86034 Y52.19604
G01 X99.90337 Y52.24123
G01 X99.98849 Y52.35492
G01 X100.00896 Y52.39241
G01 X100.05859 Y52.52550
G01 X100.06766 Y52.56721
G01 X100.07779 Y52.70886
G01 X100.07475 Y52.75146
G01 X100.04455 Y52.89025
G01 X100.02964 Y52.93025
G01 X99.96156 Y53.05489
G01 X99.94023 Y53.08466
G01 X99.86215 Y53.16939
G01 X99.74925 Y53.32479
G01 X99.66347 Y53.49314
G01 X99.60510 Y53.67285
G01 X99.57553 Y53.85948
G01 X99.57553 Y54.04844
G01 X99.60510 Y54.23510
G01 X99.66352 Y54.41491
G01 X99.81125 Y54.70604
G01 X99.82448 Y54.74407
G01 X99.85273 Y54.88331
G01 X99.85516 Y54.92595
G01 X99.84302 Y55.06743
G01 X99.83337 Y55.10904
G01 X99.78186 Y55.24140
G01 X99.76238 Y55.27660
G01 X99.61531 Y55.47409
G01 X99.57907 Y55.57124
G01 X99.57553 Y55.60413
G01 X99.57553 Y57.38381
G01 X99.57907 Y57.41670
G01 X99.61539 Y57.51411
G01 X99.76611 Y57.71792
G01 X99.78605 Y57.75470
G01 X99.83568 Y57.88777
G01 X99.84475 Y57.92948
G01 X99.85488 Y58.07116
G01 X99.85184 Y58.11376
G01 X99.82164 Y58.25254
G01 X99.80866 Y58.28886
G01 X99.66347 Y58.57322
G01 X99.60510 Y58.75285
G01 X99.57553 Y58.93948
G01 X99.57553 Y59.12846
G01 X99.60510 Y59.31513
G01 X99.66347 Y59.49481
G01 X99.74925 Y59.66316
G01 X99.86034 Y59.81604
G01 X99.90337 Y59.86123
G01 X99.98849 Y59.97492
G01 X100.00896 Y60.01241
G01 X100.05859 Y60.14550
G01 X100.06766 Y60.18721
G01 X100.07779 Y60.32886
G01 X100.07475 Y60.37146
G01 X100.04455 Y60.51025
G01 X100.02964 Y60.55025
G01 X99.96156 Y60.67491
G01 X99.94023 Y60.70466
G01 X99.86215 Y60.78939
G01 X99.74925 Y60.94479
G01 X99.66347 Y61.11314
G01 X99.60510 Y61.29285
G01 X99.57566 Y61.47865
G01 X99.57800 Y61.68406
G01 X99.60510 Y61.85510
G01 X99.66347 Y62.03481
G01 X99.74925 Y62.20316
G01 X99.86034 Y62.35604
G01 X99.90337 Y62.40123
G01 X99.98849 Y62.51492
G01 X100.00896 Y62.55241
G01 X100.05859 Y62.68550
G01 X100.06766 Y62.72721
G01 X100.07779 Y62.86886
G01 X100.07475 Y62.91146
G01 X100.04455 Y63.05025
G01 X100.02964 Y63.09025
G01 X99.96156 Y63.21491
G01 X99.94023 Y63.24466
G01 X99.86215 Y63.32939
G01 X99.74925 Y63.48479
G01 X99.66347 Y63.65314
G01 X99.60510 Y63.83285
G01 X99.57559 Y64.01921
G01 X99.57635 Y64.21374
G01 X99.60510 Y64.39510
G01 X99.66347 Y64.57481
G01 X99.74925 Y64.74316
G01 X99.86034 Y64.89604
G01 X99.90337 Y64.94123
G01 X99.98849 Y65.05492
G01 X100.00896 Y65.09241
G01 X100.05859 Y65.22550
G01 X100.06766 Y65.26721
G01 X100.07779 Y65.40886
G01 X100.07475 Y65.45146
G01 X100.04455 Y65.59025
G01 X100.02964 Y65.63025
G01 X99.96156 Y65.75491
G01 X99.94023 Y65.78466
G01 X99.86215 Y65.86939
G01 X99.74925 Y66.02479
G01 X99.66347 Y66.19314
G01 X99.60510 Y66.37285
G01 X99.57553 Y66.55948
G01 X99.57553 Y66.74846
G01 X99.60510 Y66.93513
G01 X99.66347 Y67.11481
G01 X99.74925 Y67.28316
G01 X99.86034 Y67.43604
G01 X99.99395 Y67.56967
G01 X100.14683 Y67.68074
G01 X100.31518 Y67.76654
G01 X100.49491 Y67.82491
G01 X100.68153 Y67.85448
G01 X101.67050 Y67.85448
G01 X101.85714 Y67.82491
G01 X102.03685 Y67.76652
G01 X102.20525 Y67.68072
G01 X102.35810 Y67.56967
G01 X102.41937 Y67.51059
G01 X102.53306 Y67.42545
G01 X102.57055 Y67.40495
G01 X102.70362 Y67.35532
G01 X102.73999 Y67.34673
G01 X102.86209 Y67.33446
G01 X111.46479 Y67.33446
G01 X111.62674 Y67.35621
G01 X111.66771 Y67.36825
G01 X111.79692 Y67.42725
G01 X111.83284 Y67.45031
G01 X111.94018 Y67.54333
G01 X111.96814 Y67.57561
G01 X112.04493 Y67.69509
G01 X112.06266 Y67.73393
G01 X112.10266 Y67.87020
G01 X112.10873 Y67.91247
G01 X112.10873 Y68.05450
G01 X112.10266 Y68.09674
G01 X112.06266 Y68.23301
G01 X112.04493 Y68.27185
G01 X111.96814 Y68.39133
G01 X111.92745 Y68.43853
G01 X109.50272 Y70.86339
G01 X109.37287 Y70.96252
G01 X109.33538 Y70.98300
G01 X109.20231 Y71.03263
G01 X109.16594 Y71.04121
G01 X109.04382 Y71.05348
G01 X102.86209 Y71.05348
G01 X102.70019 Y71.03174
G01 X102.65922 Y71.01970
G01 X102.53001 Y70.96070
G01 X102.49821 Y70.94106
G01 X102.41515 Y70.87413
G01 X102.35810 Y70.81830
G01 X102.20522 Y70.70720
G01 X102.03687 Y70.62143
G01 X101.85714 Y70.56306
G01 X101.67050 Y70.53347
G01 X100.68153 Y70.53347
G01 X100.49494 Y70.56303
G01 X100.31518 Y70.62143
G01 X100.14681 Y70.70723
G01 X99.99395 Y70.81828
G01 X99.86034 Y70.95191
G01 X99.74925 Y71.10479
G01 X99.66347 Y71.27314
G01 X99.60510 Y71.45285
G01 X99.57553 Y71.63948
G01 X99.57553 Y71.82846
G01 X99.60510 Y72.01513
G01 X99.66347 Y72.19481
G01 X99.74925 Y72.36316
G01 X99.86034 Y72.51604
G01 X99.90337 Y72.56123
G01 X99.98849 Y72.67492
G01 X100.00896 Y72.71241
G01 X100.05859 Y72.84550
G01 X100.06766 Y72.88721
G01 X100.07779 Y73.02886
G01 X100.07475 Y73.07146
G01 X100.04455 Y73.21025
G01 X100.02964 Y73.25025
G01 X99.96156 Y73.37491
G01 X99.94023 Y73.40466
G01 X99.86215 Y73.48939
G01 X99.74925 Y73.64479
G01 X99.66347 Y73.81314
G01 X99.60510 Y73.99285
G01 X99.57553 Y74.17948
G01 X99.57553 Y74.36846
G01 X99.60510 Y74.55513
G01 X99.66347 Y74.73481
G01 X99.74925 Y74.90316
G01 X99.86034 Y75.05604
G01 X99.99395 Y75.18967
G01 X100.14683 Y75.30074
G01 X100.31518 Y75.38654
G01 X100.49491 Y75.44491
G01 X100.68153 Y75.47448
G01 X101.67050 Y75.47448
G01 X101.85714 Y75.44491
G01 X102.03685 Y75.38652
G01 X102.20525 Y75.30072
G01 X102.35810 Y75.18967
G01 X102.41937 Y75.13059
G01 X102.53306 Y75.04545
G01 X102.57055 Y75.02495
G01 X102.70362 Y74.97532
G01 X102.73999 Y74.96673
G01 X102.84606 Y74.95533
G01 X109.54506 Y74.95446
G01 X109.67653 Y74.92833
G01 X109.80036 Y74.87702
G01 X109.91184 Y74.80255
G01 X112.86565 Y71.84876
G01 X112.99550 Y71.74962
G01 X113.03299 Y71.72915
G01 X113.16606 Y71.67952
G01 X113.20777 Y71.67045
G01 X113.34945 Y71.66031
G01 X113.39202 Y71.66336
G01 X113.53080 Y71.69354
G01 X113.57083 Y71.70847
G01 X113.69547 Y71.77654
G01 X113.72963 Y71.80212
G01 X113.83007 Y71.90255
G01 X113.85567 Y71.93672
G01 X113.92374 Y72.06138
G01 X113.93865 Y72.10138
G01 X113.96885 Y72.24017
G01 X113.97205 Y72.28012
G01 X113.96552 Y72.40159
G01 X113.96552 Y74.03529
G01 X113.94378 Y74.19721
G01 X113.89509 Y74.35474
G01 X113.86552 Y74.54149
G01 X113.86552 Y75.53046
G01 X113.89509 Y75.71712
G01 X113.95346 Y75.89680
G01 X114.03926 Y76.06516
G01 X114.15033 Y76.21804
G01 X114.28396 Y76.35167
G01 X114.43685 Y76.46274
G01 X114.60522 Y76.54854
G01 X114.78490 Y76.60691
G01 X114.97154 Y76.63648
G01 X115.16052 Y76.63648
G01 X115.34713 Y76.60691
G01 X115.52684 Y76.54852
G01 X115.69524 Y76.46272
G01 X115.84810 Y76.35167
G01 X115.98172 Y76.21804
G01 X116.09277 Y76.06518
G01 X116.17858 Y75.89680
G01 X116.23694 Y75.71707
G01 X116.26654 Y75.53043
G01 X116.26654 Y74.54151
G01 X116.23694 Y74.35487
G01 X116.19313 Y74.21504
G01 X116.16674 Y74.04956
G01 X116.16654 Y73.22069
G01 X116.18825 Y73.05874
G01 X116.20029 Y73.01774
G01 X116.25930 Y72.88853
G01 X116.27896 Y72.85670
G01 X116.35663 Y72.76173
G01 X116.74675 Y72.37161
G01 X116.87659 Y72.27248
G01 X116.91408 Y72.25201
G01 X117.04715 Y72.20237
G01 X117.07662 Y72.19468
G01 X117.32790 Y72.15579
G01 X117.55741 Y72.08503
G01 X117.77352 Y71.98094
G01 X117.97171 Y71.84578
G01 X118.14756 Y71.68264
G01 X118.29711 Y71.49511
G01 X118.41708 Y71.28734
G01 X118.50471 Y71.06405
G01 X118.55810 Y70.83019
G01 X118.57600 Y70.59097
G01 X118.55810 Y70.35176
G01 X118.50471 Y70.11790
G01 X118.41708 Y69.89461
G01 X118.29711 Y69.68683
G01 X118.14756 Y69.49931
G01 X117.97171 Y69.33616
G01 X117.77352 Y69.20101
G01 X117.55739 Y69.09692
G01 X117.32818 Y69.02623
G01 X117.15330 Y68.99832
G01 X117.01731 Y68.95737
G01 X116.97860 Y68.93939
G01 X116.85965 Y68.86179
G01 X116.82760 Y68.83362
G01 X116.73532 Y68.72567
G01 X116.71246 Y68.68958
G01 X116.65432 Y68.55996
G01 X116.64258 Y68.51892
G01 X116.62333 Y68.37820
G01 X116.62361 Y68.33550
G01 X116.64479 Y68.19507
G01 X116.65709 Y68.15420
G01 X116.71695 Y68.02542
G01 X116.73651 Y67.99415
G01 X116.80161 Y67.91391
G01 X119.22183 Y65.49258
G01 X119.35167 Y65.39345
G01 X119.38916 Y65.37295
G01 X119.52223 Y65.32332
G01 X119.55860 Y65.31473
G01 X119.68070 Y65.30246
G01 X125.27858 Y65.30246
G01 X125.44053 Y65.32421
G01 X125.48150 Y65.33625
G01 X125.61069 Y65.39525
G01 X125.64660 Y65.41831
G01 X125.75394 Y65.51133
G01 X125.78191 Y65.54361
G01 X125.85869 Y65.66309
G01 X125.87642 Y65.70190
G01 X125.91645 Y65.83818
G01 X125.92252 Y65.88047
G01 X125.92252 Y66.02250
G01 X125.91645 Y66.06477
G01 X125.87642 Y66.20104
G01 X125.85869 Y66.23985
G01 X125.78191 Y66.35933
G01 X125.76179 Y66.38430
G01 X119.48543 Y72.66250
G01 X119.39234 Y72.80179
G01 X119.32820 Y72.95658
G01 X119.29554 Y73.12089
G01 X119.29554 Y73.55332
G01 X119.27379 Y73.71522
G01 X119.26175 Y73.75619
G01 X119.20275 Y73.88540
G01 X119.11949 Y74.00636
G01 X119.03346 Y74.17517
G01 X118.97509 Y74.35485
G01 X118.94552 Y74.54149
G01 X118.94552 Y75.53046
G01 X118.97509 Y75.71712
G01 X119.03346 Y75.89680
G01 X119.11926 Y76.06516
G01 X119.23033 Y76.21804
G01 X119.36396 Y76.35167
G01 X119.51685 Y76.46274
G01 X119.68522 Y76.54854
G01 X119.86490 Y76.60691
G01 X120.05154 Y76.63648
G01 X120.24052 Y76.63648
G01 X120.42713 Y76.60691
G01 X120.60684 Y76.54852
G01 X120.77524 Y76.46272
G01 X120.92810 Y76.35167
G01 X120.97328 Y76.30864
G01 X121.08697 Y76.22352
G01 X121.12446 Y76.20305
G01 X121.25753 Y76.15342
G01 X121.29924 Y76.14435
G01 X121.44092 Y76.13422
G01 X121.48352 Y76.13727
G01 X121.62233 Y76.16747
G01 X121.66231 Y76.18238
G01 X121.78695 Y76.25042
G01 X121.81671 Y76.27178
G01 X121.90150 Y76.34986
G01 X122.05685 Y76.46274
G01 X122.22522 Y76.54854
G01 X122.40490 Y76.60691
G01 X122.59154 Y76.63648
G01 X122.78052 Y76.63648
G01 X122.96713 Y76.60691
G01 X123.14684 Y76.54852
G01 X123.31524 Y76.46272
G01 X123.46810 Y76.35167
G01 X123.51328 Y76.30864
G01 X123.62697 Y76.22352
G01 X123.66446 Y76.20305
G01 X123.79753 Y76.15342
G01 X123.83924 Y76.14435
G01 X123.98092 Y76.13422
G01 X124.02352 Y76.13727
G01 X124.16230 Y76.16747
G01 X124.20228 Y76.18238
G01 X124.32695 Y76.25042
G01 X124.35671 Y76.27178
G01 X124.44147 Y76.34986
G01 X124.59685 Y76.46274
G01 X124.76522 Y76.54854
G01 X124.94490 Y76.60691
G01 X125.13154 Y76.63648
G01 X125.32052 Y76.63648
G01 X125.50713 Y76.60691
G01 X125.68684 Y76.54852
G01 X125.85524 Y76.46272
G01 X126.00810 Y76.35167
G01 X126.05328 Y76.30864
G01 X126.16697 Y76.22352
G01 X126.20446 Y76.20305
G01 X126.33753 Y76.15342
G01 X126.37924 Y76.14435
G01 X126.52092 Y76.13422
G01 X126.56352 Y76.13727
G01 X126.70230 Y76.16747
G01 X126.74228 Y76.18238
G01 X126.86695 Y76.25042
G01 X126.89671 Y76.27178
G01 X126.98147 Y76.34986
G01 X127.13685 Y76.46274
G01 X127.30522 Y76.54854
G01 X127.48490 Y76.60691
G01 X127.67154 Y76.63648
G01 X127.86052 Y76.63648
G01 X128.04713 Y76.60691
G01 X128.22684 Y76.54852
G01 X128.39524 Y76.46272
G01 X128.54810 Y76.35167
G01 X128.57977 Y76.32215
G01 X128.69346 Y76.23704
G01 X128.73095 Y76.21657
G01 X128.86402 Y76.16693
G01 X128.90573 Y76.15787
G01 X129.04741 Y76.14773
G01 X129.09000 Y76.15078
G01 X129.22879 Y76.18098
G01 X129.26880 Y76.19589
G01 X129.39346 Y76.26396
G01 X129.42765 Y76.28956
G01 X129.52805 Y76.39000
G01 X129.55363 Y76.42416
G01 X129.62170 Y76.54882
G01 X129.70298 Y76.75530
G01 X129.77746 Y76.86678
G01 X130.63422 Y77.72355
G01 X130.74570 Y77.79802
G01 X130.80763 Y77.82370
G01 X130.86953 Y77.84933
G01 X131.00100 Y77.87546
G01 X137.73906 Y77.87546
G01 X137.87053 Y77.84933
G01 X137.99436 Y77.79802
G01 X138.10584 Y77.72355
G01 X141.12160 Y74.70778
G01 X141.19608 Y74.59630
G01 X141.24741 Y74.47247
G01 X141.27355 Y74.34100
G01 X141.27355 Y51.21994
G01 X141.24741 Y51.08847
G01 X141.19608 Y50.96465
G01 X141.12160 Y50.85319
G01 X139.73507 Y49.46663
G01 X139.62981 Y49.36140
G01 X139.51836 Y49.28693
G01 X139.39453 Y49.23562
G01 X139.26306 Y49.20948
G01 X137.96499 Y49.20948
G01 X137.80307 Y49.18774
G01 X137.76210 Y49.17570
G01 X137.63291 Y49.11670
G01 X137.59700 Y49.09363
G01 X137.48966 Y49.00062
G01 X137.32466 Y48.79838
G01 X137.14871 Y48.63516
G01 X136.95052 Y48.50001
G01 X136.73439 Y48.39592
G01 X136.50518 Y48.32523
G01 X136.26797 Y48.28947
G01 X136.02809 Y48.28947
G01 X135.79088 Y48.32523
G01 X135.56165 Y48.39592
G01 X135.34554 Y48.50001
G01 X135.14765 Y48.63493
G01 X134.85588 Y48.90836
G01 X134.82113 Y48.93270
G01 X134.69444 Y48.99693
G01 X134.65398 Y49.01062
G01 X134.51435 Y49.03653
G01 X134.46660 Y49.03948
G01 X132.80928 Y49.03948
G01 X132.64738 Y49.01774
G01 X132.60641 Y49.00570
G01 X132.47720 Y48.94669
G01 X132.44128 Y48.92363
G01 X132.33394 Y48.83062
G01 X132.31205 Y48.80704
G01 X132.23846 Y48.70862
G01 X132.10410 Y48.57428
G01 X131.95124 Y48.46323
G01 X131.78286 Y48.37743
G01 X131.60313 Y48.31906
G01 X131.41649 Y48.28947
G01 X131.22754 Y48.28947
G01 X131.04093 Y48.31903
G01 X130.86122 Y48.37743
G01 X130.69282 Y48.46323
G01 X130.53996 Y48.57428
G01 X130.49475 Y48.61731
G01 X130.38104 Y48.70242
G01 X130.34357 Y48.72289
G01 X130.21050 Y48.77253
G01 X130.16879 Y48.78159
G01 X130.02714 Y48.79173
G01 X129.98457 Y48.78868
G01 X129.84578 Y48.75850
G01 X129.80575 Y48.74359
G01 X129.68109 Y48.67552
G01 X129.65134 Y48.65416
G01 X129.56658 Y48.57608
G01 X129.41124 Y48.46323
G01 X129.24286 Y48.37743
G01 X129.06313 Y48.31906
G01 X128.87649 Y48.28947
G01 X128.68754 Y48.28947
G01 X128.50093 Y48.31903
G01 X128.32110 Y48.37748
G01 X128.03004 Y48.52518
G01 X127.99199 Y48.53841
G01 X127.85280 Y48.56666
G01 X127.81017 Y48.56910
G01 X127.66867 Y48.55698
G01 X127.62709 Y48.54733
G01 X127.49471 Y48.49584
G01 X127.45950 Y48.47636
G01 X127.26192 Y48.32927
G01 X127.16474 Y48.29302
G01 X127.13184 Y48.28947
G01 X125.35222 Y48.28947
G01 X125.31932 Y48.29302
G01 X125.22232 Y48.32919
G01 X125.14163 Y48.38959
G01 X125.08122 Y48.47027
G01 X125.04505 Y48.56724
G01 X125.04152 Y48.60014
G01 X125.04152 Y49.00989
G01 X125.01978 Y49.17179
G01 X125.00774 Y49.21276
G01 X124.94874 Y49.34197
G01 X124.92910 Y49.37377
G01 X124.86217 Y49.45683
G01 X124.10142 Y50.21878
G01 X123.97157 Y50.31791
G01 X123.93408 Y50.33838
G01 X123.80101 Y50.38802
G01 X123.75931 Y50.39708
G01 X123.61763 Y50.40722
G01 X123.57503 Y50.40417
G01 X123.43624 Y50.37397
G01 X123.39624 Y50.35903
G01 X123.27160 Y50.29096
G01 X123.23744 Y50.26538
G01 X123.13701 Y50.16495
G01 X123.11143 Y50.13079
G01 X123.04336 Y50.00615
G01 X123.02842 Y49.96615
G01 X122.99822 Y49.82736
G01 X122.99362 Y49.76521
G01 X122.99352 Y48.58015
G01 X122.98999 Y48.54728
G01 X122.89629 Y48.29633
G01 X122.88720 Y48.25457
G01 X122.87706 Y48.11291
G01 X122.88011 Y48.07034
G01 X122.91029 Y47.93156
G01 X122.92520 Y47.89153
G01 X122.99327 Y47.76686
G01 X123.01156 Y47.74055
G01 X123.06548 Y47.67888
G01 X123.21460 Y47.52978
G01 X123.28908 Y47.41830
G01 X123.34038 Y47.29447
G01 X123.36652 Y47.16300
G01 X123.36805 Y47.10052
G01 X123.38826 Y46.95993
G01 X123.40030 Y46.91896
G01 X123.45931 Y46.78975
G01 X123.48237 Y46.75383
G01 X123.57539 Y46.64649
G01 X123.60767 Y46.61853
G01 X123.72715 Y46.54174
G01 X123.76599 Y46.52402
G01 X123.90226 Y46.48401
G01 X123.94450 Y46.47794
G01 X124.08653 Y46.47794
G01 X124.12880 Y46.48401
G01 X124.26507 Y46.52402
G01 X124.30345 Y46.54147
G01 X124.42021 Y46.61591
G01 X124.59705 Y46.74484
G01 X124.76522 Y46.83054
G01 X124.94490 Y46.88891
G01 X125.13154 Y46.91848
G01 X125.32052 Y46.91848
G01 X125.50713 Y46.88891
G01 X125.68684 Y46.83052
G01 X125.85524 Y46.74472
G01 X126.00810 Y46.63367
G01 X126.05328 Y46.59064
G01 X126.16697 Y46.50552
G01 X126.20446 Y46.48505
G01 X126.33753 Y46.43542
G01 X126.37924 Y46.42635
G01 X126.52092 Y46.41622
G01 X126.56352 Y46.41927
G01 X126.70230 Y46.44947
G01 X126.74228 Y46.46438
G01 X126.86695 Y46.53242
G01 X126.89671 Y46.55378
G01 X126.98147 Y46.63186
G01 X127.13685 Y46.74474
G01 X127.30522 Y46.83054
G01 X127.48490 Y46.88891
G01 X127.67154 Y46.91848
G01 X127.86052 Y46.91848
G01 X128.04713 Y46.88891
G01 X128.22684 Y46.83052
G01 X128.39524 Y46.74472
G01 X128.54810 Y46.63367
G01 X128.59328 Y46.59064
G01 X128.70697 Y46.50552
G01 X128.74446 Y46.48505
G01 X128.87753 Y46.43542
G01 X128.91924 Y46.42635
G01 X129.06092 Y46.41622
G01 X129.10352 Y46.41927
G01 X129.24230 Y46.44947
G01 X129.28228 Y46.46438
G01 X129.40695 Y46.53242
G01 X129.43671 Y46.55378
G01 X129.52147 Y46.63186
G01 X129.67685 Y46.74474
G01 X129.84522 Y46.83054
G01 X130.02490 Y46.88891
G01 X130.21154 Y46.91848
G01 X130.40052 Y46.91848
G01 X130.58713 Y46.88891
G01 X130.76684 Y46.83052
G01 X130.93524 Y46.74472
G01 X131.08810 Y46.63367
G01 X131.13328 Y46.59064
G01 X131.24697 Y46.50552
G01 X131.28446 Y46.48505
G01 X131.41753 Y46.43542
G01 X131.45924 Y46.42635
G01 X131.60092 Y46.41622
G01 X131.64352 Y46.41927
G01 X131.78230 Y46.44947
G01 X131.82228 Y46.46438
G01 X131.94695 Y46.53242
G01 X131.97671 Y46.55378
G01 X132.06147 Y46.63186
G01 X132.21685 Y46.74474
G01 X132.38522 Y46.83054
G01 X132.56490 Y46.88891
G01 X132.75154 Y46.91848
G01 X132.94052 Y46.91848
G01 X133.12713 Y46.88891
G01 X133.30684 Y46.83052
G01 X133.47524 Y46.74472
G01 X133.62810 Y46.63367
G01 X133.76172 Y46.50004
G01 X133.87277 Y46.34718
G01 X133.95857 Y46.17880
G01 X134.01694 Y45.99907
G01 X134.04654 Y45.81243
G01 X134.04654 Y44.87667
G01 X134.06825 Y44.71475
G01 X134.08029 Y44.67375
G01 X134.13930 Y44.54454
G01 X134.16236 Y44.50863
G01 X134.25537 Y44.40129
G01 X134.28766 Y44.37332
G01 X134.40714 Y44.29654
G01 X134.44598 Y44.27881
G01 X134.58225 Y44.23880
G01 X134.62451 Y44.23273
G01 X134.76652 Y44.23273
G01 X134.80706 Y44.23832
G01 X134.93000 Y44.27281
G01 X135.13795 Y44.35780
G01 X135.30226 Y44.39047
G01 X136.18933 Y44.39047
G01 X136.35128 Y44.41221
G01 X136.39225 Y44.42425
G01 X136.52146 Y44.48325
G01 X136.64242 Y44.56651
G01 X136.81122 Y44.65254
G01 X136.99090 Y44.71091
G01 X137.17754 Y44.74048
G01 X138.16652 Y44.74048
G01 X138.35313 Y44.71091
G01 X138.53284 Y44.65252
G01 X138.70124 Y44.56672
G01 X138.85409 Y44.45567
G01 X138.98772 Y44.32204
G01 X139.09877 Y44.16918
G01 X139.18457 Y44.00078
G01 X139.24297 Y43.82107
G01 X139.27253 Y43.63446
G01 X139.27253 Y43.44548
G01 X139.24297 Y43.25887
G01 X139.18457 Y43.07917
G01 X139.09877 Y42.91076
G01 X138.98772 Y42.75791
G01 X138.94470 Y42.71272
G01 X138.85958 Y42.59903
G01 X138.83911 Y42.56154
G01 X138.78948 Y42.42847
G01 X138.78041 Y42.38676
G01 X138.77027 Y42.24508
G01 X138.77332 Y42.20251
G01 X138.80350 Y42.06372
G01 X138.81841 Y42.02369
G01 X138.88648 Y41.89903
G01 X138.90784 Y41.86929
G01 X138.98592 Y41.78453
G01 X139.09877 Y41.62918
G01 X139.18457 Y41.46078
G01 X139.24297 Y41.28107
G01 X139.27253 Y41.09446
G01 X139.27253 Y40.90548
G01 X139.24297 Y40.71887
G01 X139.18457 Y40.53917
G01 X139.09877 Y40.37076
G01 X138.98772 Y40.21791
G01 X138.94470 Y40.17272
G01 X138.85958 Y40.05903
G01 X138.83911 Y40.02154
G01 X138.78948 Y39.88847
G01 X138.78041 Y39.84676
G01 X138.77027 Y39.70508
G01 X138.77332 Y39.66251
G01 X138.80350 Y39.52372
G01 X138.81841 Y39.48369
G01 X138.88648 Y39.35903
G01 X138.90784 Y39.32929
G01 X138.98592 Y39.24453
G01 X139.09877 Y39.08918
G01 X139.18457 Y38.92078
G01 X139.24297 Y38.74107
G01 X139.27253 Y38.55446
G01 X139.27253 Y38.36548
G01 X139.24297 Y38.17887
G01 X139.18452 Y37.99904
G01 X139.03677 Y37.70785
G01 X139.02354 Y37.66975
G01 X138.99534 Y37.53056
G01 X138.99291 Y37.48797
G01 X139.00505 Y37.34646
G01 X139.01470 Y37.30488
G01 X139.06621 Y37.17252
G01 X139.08569 Y37.13734
G01 X139.23273 Y36.93983
G01 X139.26898 Y36.84268
G01 X139.27253 Y36.80979
G01 X139.27253 Y35.03016
G01 X139.26898 Y34.99729
G01 X139.23281 Y34.90026
G01 X139.17251 Y34.81970
G01 X138.95740 Y34.65935
G01 X138.92699 Y34.62899
G01 X138.84185 Y34.51530
G01 X138.82135 Y34.47781
G01 X138.77172 Y34.34472
G01 X138.76265 Y34.30301
G01 X138.75252 Y34.16135
G01 X138.75557 Y34.11876
G01 X138.78577 Y33.97997
G01 X138.80068 Y33.93997
G01 X138.88303 Y33.79382
G01 X138.99809 Y33.64919
G01 X139.11808 Y33.44134
G01 X139.20571 Y33.21805
G01 X139.25910 Y32.98419
G01 X139.27700 Y32.74497
G01 X139.25910 Y32.50576
G01 X139.20571 Y32.27192
G01 X139.11808 Y32.04861
G01 X138.99811 Y31.84083
G01 X138.84856 Y31.65331
G01 X138.67271 Y31.49016
G01 X138.47452 Y31.35501
G01 X138.25839 Y31.25092
G01 X138.02918 Y31.18023
G01 X137.79197 Y31.14447
G01 X137.55209 Y31.14447
G01 X137.31488 Y31.18023
G01 X137.08565 Y31.25092
G01 X136.86926 Y31.35514
G01 X136.55689 Y31.56636
G01 X136.51999 Y31.58450
G01 X136.38514 Y31.62910
G01 X136.35128 Y31.63611
G01 X136.25029 Y31.64447
G01 X134.11910 Y31.64447
G01 X133.95718 Y31.62272
G01 X133.91623 Y31.61071
G01 X133.78705 Y31.55173
G01 X133.75522 Y31.53207
G01 X133.67214 Y31.46512
G01 X133.56810 Y31.36230
G01 X133.41522 Y31.25120
G01 X133.24687 Y31.16542
G01 X133.06714 Y31.10705
G01 X132.88050 Y31.07746
G01 X132.69157 Y31.07746
G01 X132.50493 Y31.10705
G01 X132.32520 Y31.16542
G01 X132.15680 Y31.25122
G01 X132.00397 Y31.36227
G01 X131.87034 Y31.49590
G01 X131.75927 Y31.64879
G01 X131.67346 Y31.81716
G01 X131.61509 Y31.99684
G01 X131.58553 Y32.18348
G01 X131.58553 Y33.17245
G01 X131.61509 Y33.35909
G01 X131.65236 Y33.47870
G01 X131.67656 Y33.61866
G01 X131.67778 Y33.66130
G01 X131.66160 Y33.80240
G01 X131.65073 Y33.84370
G01 X131.59544 Y33.97454
G01 X131.57341 Y34.01109
G01 X131.48352 Y34.12104
G01 X131.45205 Y34.14995
G01 X131.33481 Y34.23011
G01 X131.29648 Y34.24893
G01 X131.16140 Y34.29282
G01 X131.12790 Y34.29961
G01 X131.02996 Y34.30748
G01 X129.44075 Y34.30596
G01 X129.30016 Y34.28574
G01 X129.25919 Y34.27370
G01 X129.12998 Y34.21469
G01 X129.09407 Y34.19163
G01 X128.98673 Y34.09862
G01 X128.95876 Y34.06633
G01 X128.88198 Y33.94685
G01 X128.86425 Y33.90801
G01 X128.82424 Y33.77174
G01 X128.81817 Y33.72950
G01 X128.81817 Y33.58747
G01 X128.82206 Y33.55351
G01 X128.84139 Y33.47032
G01 X128.87695 Y33.35909
G01 X128.90652 Y33.17245
G01 X128.90652 Y32.18348
G01 X128.87695 Y31.99684
G01 X128.81858 Y31.81714
G01 X128.73280 Y31.64879
G01 X128.62170 Y31.49590
G01 X128.50418 Y31.37622
G01 X128.41906 Y31.26253
G01 X128.39859 Y31.22504
G01 X128.34896 Y31.09197
G01 X128.33989 Y31.05026
G01 X128.32976 Y30.90858
G01 X128.33281 Y30.86598
G01 X128.36301 Y30.72720
G01 X128.37792 Y30.68719
G01 X128.44599 Y30.56253
G01 X128.47159 Y30.52834
G01 X128.57202 Y30.42793
G01 X128.60619 Y30.40236
G01 X128.73085 Y30.33428
G01 X128.77085 Y30.31937
G01 X128.90964 Y30.28917
G01 X128.94035 Y30.28574
G01 X129.08820 Y30.28460
G01 X129.22026 Y30.25831
G01 X129.34408 Y30.20703
G01 X129.45554 Y30.13256
G01 X129.92572 Y29.66454
G01 X130.03943 Y29.57942
G01 X130.07690 Y29.55895
G01 X130.20997 Y29.50932
G01 X130.24634 Y29.50073
G01 X130.36844 Y29.48846
G01 X133.29406 Y29.48846
G01 X133.42553 Y29.46233
G01 X133.54936 Y29.41102
G01 X133.66084 Y29.33655
G01 X134.65250 Y28.34488
G01 X134.74199 Y28.24638
G01 X134.77419 Y28.21961
G01 X134.89502 Y28.14498
G01 X134.99510 Y28.10582
G01 X135.11603 Y28.03124
G01 X135.24953 Y27.92845
G01 X135.28702 Y27.90795
G01 X135.42009 Y27.85832
G01 X135.45646 Y27.84971
G01 X135.56253 Y27.83833
G01 X135.73193 Y27.83744
G01 X135.89388 Y27.85921
G01 X135.93485 Y27.87125
G01 X136.06403 Y27.93025
G01 X136.09586 Y27.94991
G01 X136.17892 Y28.01686
G01 X136.23594 Y28.07267
G01 X136.38885 Y28.18372
G01 X136.55722 Y28.26954
G01 X136.73690 Y28.32789
G01 X136.92354 Y28.35748
G01 X137.91252 Y28.35748
G01 X138.09913 Y28.32789
G01 X138.27884 Y28.26952
G01 X138.44724 Y28.18372
G01 X138.60009 Y28.07267
G01 X138.73372 Y27.93904
G01 X138.84477 Y27.78616
G01 X138.93057 Y27.61778
G01 X138.98897 Y27.43807
G01 X139.01853 Y27.25146
G01 X139.01853 Y27.06248
G01 X138.98897 Y26.87587
G01 X138.93057 Y26.69617
G01 X138.84477 Y26.52776
G01 X138.73372 Y26.37491
G01 X138.60009 Y26.24130
G01 X138.44721 Y26.13020
G01 X138.27886 Y26.04443
G01 X138.09913 Y25.98606
G01 X137.91249 Y25.95647
G01 X136.92354 Y25.95647
G01 X136.73693 Y25.98603
G01 X136.55722 Y26.04443
G01 X136.38882 Y26.13023
G01 X136.23596 Y26.24128
G01 X136.17467 Y26.30041
G01 X136.06098 Y26.38552
G01 X136.02349 Y26.40600
G01 X135.89042 Y26.45563
G01 X135.85405 Y26.46421
G01 X135.73193 Y26.47648
G01 X135.55723 Y26.47496
G01 X135.41666 Y26.45474
G01 X135.37569 Y26.44270
G01 X135.24648 Y26.38370
G01 X135.21250 Y26.36226
G01 X135.12172 Y26.28624
G01 X134.99657 Y26.20902
G01 X134.86223 Y26.16454
G01 X134.78339 Y26.15647
G01 X133.44867 Y26.15647
G01 X133.36980 Y26.16454
G01 X133.23551 Y26.20902
G01 X133.11603 Y26.28270
G01 X133.03478 Y26.36183
G01 X132.92106 Y26.44697
G01 X132.88357 Y26.46744
G01 X132.75050 Y26.51707
G01 X132.70879 Y26.52614
G01 X132.56714 Y26.53627
G01 X132.52454 Y26.53323
G01 X132.38576 Y26.50302
G01 X132.34575 Y26.48811
G01 X132.22109 Y26.42004
G01 X132.19472 Y26.40173
G01 X132.13313 Y26.34783
G01 X132.06803 Y26.28273
G01 X131.94855 Y26.20902
G01 X131.81423 Y26.16454
G01 X131.73536 Y26.15647
G01 X130.40067 Y26.15647
G01 X130.32180 Y26.16454
G01 X130.18751 Y26.20902
G01 X130.06803 Y26.28270
G01 X129.96877 Y26.38199
G01 X129.88929 Y26.51087
G01 X129.82988 Y26.62891
G01 X129.80580 Y26.66355
G01 X129.70916 Y26.76762
G01 X129.67596 Y26.79444
G01 X129.55391 Y26.86708
G01 X129.51449 Y26.88349
G01 X129.37692 Y26.91880
G01 X129.33448 Y26.92342
G01 X129.19254 Y26.91854
G01 X129.15051 Y26.91100
G01 X129.01568 Y26.86632
G01 X128.97748 Y26.84727
G01 X128.86069 Y26.76642
G01 X128.82940 Y26.73737
G01 X128.74015 Y26.62690
G01 X128.68531 Y26.52848
G01 X128.57372 Y26.37491
G01 X128.44009 Y26.24130
G01 X128.28721 Y26.13020
G01 X128.11886 Y26.04443
G01 X127.93913 Y25.98606
G01 X127.75249 Y25.95647
G01 X126.76354 Y25.95647
G01 X126.57693 Y25.98603
G01 X126.39722 Y26.04443
G01 X126.22882 Y26.13023
G01 X126.07596 Y26.24128
G01 X126.01467 Y26.30041
G01 X125.90098 Y26.38552
G01 X125.86349 Y26.40600
G01 X125.73042 Y26.45563
G01 X125.69405 Y26.46421
G01 X125.57193 Y26.47648
G01 X123.56766 Y26.47648
G01 X123.40574 Y26.45474
G01 X123.36477 Y26.44270
G01 X123.23558 Y26.38370
G01 X123.19967 Y26.36063
G01 X123.09233 Y26.26762
G01 X123.06436 Y26.23533
G01 X122.98758 Y26.11585
G01 X122.96985 Y26.07704
G01 X122.92982 Y25.94077
G01 X122.92375 Y25.89850
G01 X122.92375 Y25.75647
G01 X122.92982 Y25.71418
G01 X122.96985 Y25.57791
G01 X122.98758 Y25.53909
G01 X123.06436 Y25.41961
G01 X123.10498 Y25.37247
G01 X126.63878 Y21.83857
G01 X126.76862 Y21.73943
G01 X126.80611 Y21.71896
G01 X126.93918 Y21.66933
G01 X126.97556 Y21.66074
G01 X127.09765 Y21.64847
G01 X133.76805 Y21.64847
G01 X133.89952 Y21.62231
G01 X134.02337 Y21.57103
G01 X134.13483 Y21.49656
G01 X138.20060 Y17.43078
G01 X138.27508 Y17.31930
G01 X138.32638 Y17.19547
G01 X138.35252 Y17.06400
G01 X138.35405 Y16.67277
G01 X138.37426 Y16.53218
G01 X138.38630 Y16.49121
G01 X138.44531 Y16.36202
G01 X138.46837 Y16.32611
G01 X138.56139 Y16.21877
G01 X138.59161 Y16.19215
G01 X138.69415 Y16.12387
G01 X138.85409 Y16.00767
G01 X138.98772 Y15.87404
G01 X139.09877 Y15.72118
G01 X139.18457 Y15.55278
G01 X139.24297 Y15.37307
G01 X139.27253 Y15.18646
G01 X139.27253 Y14.99748
G01 X139.24297 Y14.81087
G01 X139.18455 Y14.63112
G01 X139.15841 Y14.57640
G01 X139.11259 Y14.44199
G01 X139.10469 Y14.40003
G01 X139.09860 Y14.25812
G01 X139.10286 Y14.21560
G01 X139.13703 Y14.07773
G01 X139.15308 Y14.03820
G01 X139.22466 Y13.91555
G01 X139.25122 Y13.88209
G01 X139.35450 Y13.78458
G01 X139.38937 Y13.76000
G01 X139.51592 Y13.69551
G01 X139.55635 Y13.68171
G01 X139.72341 Y13.65294
G01 X140.04454 Y13.65250
G01 X140.21574 Y13.62538
G01 X140.38048 Y13.57186
G01 X140.53481 Y13.49322
G01 X140.67494 Y13.39139
G01 X141.30545 Y12.76089
G01 X141.40730 Y12.62076
G01 X141.48592 Y12.46643
G01 X141.53941 Y12.30168
G01 X141.56654 Y12.13056
G01 X141.56654 Y11.70664
G01 X141.58825 Y11.54471
G01 X141.60029 Y11.50371
G01 X141.65930 Y11.37451
G01 X141.68236 Y11.33859
G01 X141.77537 Y11.23125
G01 X141.80766 Y11.20328
G01 X141.92714 Y11.12650
G01 X141.96374 Y11.10946
G01 X142.32229 Y10.99808
G01 X142.53852 Y10.89394
G01 X142.73671 Y10.75878
G01 X142.91256 Y10.59564
G01 X143.06211 Y10.40811
G01 X143.18208 Y10.20034
G01 X143.26971 Y9.97705
G01 X143.32310 Y9.74319
G01 X143.34100 Y9.50397
G01 X143.32310 Y9.26476
G01 X143.26971 Y9.03090
G01 X143.18208 Y8.80761
G01 X143.06211 Y8.59983
G01 X142.91256 Y8.41231
G01 X142.73671 Y8.24916
G01 X142.53852 Y8.11401
G01 X142.32231 Y8.00989
G01 X141.95546 Y7.89631
G01 X141.91787 Y7.87865
G01 X141.79889 Y7.80106
G01 X141.76684 Y7.77289
G01 X141.67456 Y7.66494
G01 X141.65170 Y7.62884
G01 X141.59359 Y7.49925
G01 X141.58401 Y7.47032
G01 X141.56918 Y7.40207
G01 X141.53941 Y7.21426
G01 X141.48592 Y7.04952
G01 X141.40730 Y6.89519
G01 X141.30545 Y6.75506
G01 X140.03994 Y5.48955
G01 X139.89981 Y5.38773
G01 X139.74548 Y5.30909
G01 X139.58074 Y5.25559
G01 X139.40962 Y5.22847
G01 X9.44244 Y5.22847
G01 X9.27132 Y5.25559
G01 X9.10658 Y5.30909
G01 X8.95225 Y5.38773
G01 X8.81211 Y5.48955
G01 X5.71532 Y8.58632
G01 X5.61349 Y8.72650
G01 X5.53485 Y8.88083
G01 X5.48134 Y9.04555
G01 X5.45423 Y9.21665
G01 X5.45423 Y11.64667
G01 X5.43249 Y11.80859
G01 X5.42045 Y11.84956
G01 X5.36145 Y11.97875
G01 X5.34181 Y12.01055
G01 X5.26414 Y12.10554
G01 X5.15264 Y12.21707
G01 X4.99401 Y12.42896
G01 X4.86714 Y12.66129
G01 X4.77463 Y12.90927
G01 X4.71840 Y13.16795
G01 X4.69950 Y13.43198
G01 X4.71840 Y13.69601
G01 X4.77463 Y13.95466
G01 X4.86714 Y14.20267
G01 X4.99401 Y14.43500
G01 X5.15264 Y14.64689
G01 X5.26414 Y14.75837
G01 X5.36328 Y14.88829
G01 X5.38375 Y14.92576
G01 X5.43338 Y15.05883
G01 X5.44197 Y15.09520
G01 X5.45337 Y15.20127
G01 X5.45423 Y24.16330
G01 X5.48134 Y24.33437
G01 X5.53485 Y24.49912
G01 X5.61349 Y24.65345
G01 X5.71532 Y24.79360
G01 X9.71831 Y28.79659
G01 X9.85844 Y28.89842
G01 X10.01277 Y28.97706
G01 X10.17752 Y29.03058
G01 X10.34861 Y29.05768
G01 X45.40368 Y29.05768
G01 X45.56564 Y29.07942
G01 X45.60658 Y29.09144
G01 X45.73576 Y29.15042
G01 X45.76759 Y29.17008
G01 X45.85067 Y29.23703
G01 X45.97412 Y29.35925
G01 X46.18600 Y29.51790
G01 X46.41834 Y29.64475
G01 X46.66637 Y29.73726
G01 X46.92499 Y29.79352
G01 X47.18903 Y29.81242
G01 X47.45306 Y29.79352
G01 X47.71168 Y29.73726
G01 X47.95971 Y29.64475
G01 X48.19205 Y29.51790
G01 X48.40393 Y29.35925
G01 X48.59111 Y29.17208
G01 X48.74975 Y28.96020
G01 X48.87660 Y28.72786
G01 X48.96911 Y28.47983
G01 X49.02537 Y28.22121
G01 X49.04427 Y27.95717
G01 X49.02537 Y27.69314
G01 X48.96911 Y27.43452
G01 X48.87660 Y27.18649
G01 X48.74975 Y26.95415
G01 X48.59111 Y26.74227
G01 X48.46560 Y26.61458
G01 X48.38049 Y26.50087
G01 X48.36002 Y26.46340
G01 X48.31038 Y26.33033
G01 X48.30180 Y26.29396
G01 X48.28953 Y26.17186
G01 X48.28953 Y25.62639
G01 X48.31127 Y25.46444
G01 X48.32329 Y25.42350
G01 X48.38227 Y25.29431
G01 X48.40536 Y25.25837
G01 X48.49837 Y25.15103
G01 X48.53065 Y25.12307
G01 X48.65014 Y25.04628
G01 X48.71732 Y25.01667
G01 X48.84452 Y24.92337
G01 X48.96916 Y24.85530
G01 X49.00916 Y24.84037
G01 X49.14795 Y24.81017
G01 X49.17965 Y24.80674
G01 X50.11673 Y24.80549
G01 X50.26461 Y24.78205
G01 X50.40690 Y24.73584
G01 X50.54020 Y24.66793
G01 X50.68663 Y24.56152
G01 X50.78894 Y24.50013
G01 X50.82788 Y24.48266
G01 X50.96446 Y24.44362
G01 X51.00680 Y24.43785
G01 X51.14881 Y24.43889
G01 X51.19100 Y24.44527
G01 X51.32699 Y24.48626
G01 X51.36570 Y24.50430
G01 X51.50824 Y24.60102
G01 X51.67911 Y24.77049
G01 X51.83225 Y24.88174
G01 X52.00062 Y24.96754
G01 X52.18030 Y25.02591
G01 X52.36694 Y25.05548
G01 X53.06587 Y25.05548
G01 X53.13504 Y25.05947
G01 X55.65416 Y25.05947
G01 X55.81611 Y25.08121
G01 X56.06427 Y25.16401
G01 X56.14214 Y25.17196
G01 X57.47689 Y25.17196
G01 X57.55662 Y25.16383
G01 X57.84445 Y25.07219
G01 X57.87864 Y25.06556
G01 X57.96487 Y25.05947
G01 X58.09655 Y25.06099
G01 X58.23714 Y25.08121
G01 X58.27811 Y25.09325
G01 X58.40729 Y25.15225
G01 X58.44321 Y25.17532
G01 X58.55055 Y25.26833
G01 X58.57851 Y25.30061
G01 X58.65530 Y25.42010
G01 X58.67303 Y25.45891
G01 X58.71306 Y25.59518
G01 X58.72070 Y25.64367
G01 X58.76899 Y25.81240
G01 X58.84907 Y25.96571
G01 X58.95839 Y26.09977
G01 X59.09243 Y26.20907
G01 X59.24575 Y26.28916
G01 X59.41298 Y26.33701
G01 X59.51151 Y26.34577
G01 X60.61425 Y26.34577
G01 X60.71277 Y26.33701
G01 X60.88001 Y26.28916
G01 X61.03332 Y26.20907
G01 X61.16738 Y26.09977
G01 X61.27668 Y25.96571
G01 X61.35676 Y25.81240
G01 X61.40462 Y25.64516
G01 X61.41338 Y25.54664
G01 X61.41338 Y22.64390
G01 X61.40462 Y22.54537
G01 X61.35676 Y22.37814
G01 X61.27668 Y22.22483
G01 X61.16738 Y22.09079
G01 X61.03332 Y21.98147
G01 X60.88001 Y21.90138
G01 X60.71277 Y21.85353
G01 X60.61425 Y21.84477
G01 X59.51151 Y21.84477
G01 X59.41298 Y21.85353
G01 X59.24575 Y21.90138
G01 X59.08369 Y21.98604
G01 X58.93665 Y22.07489
G01 X58.77816 Y22.11802
G01 X58.73574 Y22.12282
G01 X58.59378 Y22.11858
G01 X58.55172 Y22.11126
G01 X58.41669 Y22.06719
G01 X58.37839 Y22.04827
G01 X58.26127 Y21.96793
G01 X58.22987 Y21.93903
G01 X58.14011 Y21.82894
G01 X58.11811 Y21.79237
G01 X58.06299 Y21.66148
G01 X58.05245 Y21.62239
G01 X58.03503 Y21.47710
G01 X58.03503 Y20.62912
G01 X58.02695 Y20.55026
G01 X57.98248 Y20.41597
G01 X57.90879 Y20.29648
G01 X57.80953 Y20.19722
G01 X57.69005 Y20.12354
G01 X57.55573 Y20.07903
G01 X57.47689 Y20.07098
G01 X56.14214 Y20.07098
G01 X56.06241 Y20.07911
G01 X55.77461 Y20.17075
G01 X55.74042 Y20.17738
G01 X55.65416 Y20.18348
G01 X54.47674 Y20.18348
G01 X54.31482 Y20.16174
G01 X54.18490 Y20.11810
G01 X54.15124 Y20.11447
G01 X51.57162 Y20.11447
G01 X51.53872 Y20.11802
G01 X51.45236 Y20.14858
G01 X51.31358 Y20.17878
G01 X51.28183 Y20.18221
G01 X49.96730 Y20.18348
G01 X49.81945 Y20.20690
G01 X49.67716 Y20.25310
G01 X49.54386 Y20.32102
G01 X49.28572 Y20.51530
G01 X49.24825 Y20.53578
G01 X49.11518 Y20.58541
G01 X49.07348 Y20.59448
G01 X48.93182 Y20.60461
G01 X48.88923 Y20.60156
G01 X48.75044 Y20.57136
G01 X48.71046 Y20.55645
G01 X48.58580 Y20.48841
G01 X48.55676 Y20.46773
G01 X48.48379 Y20.40141
G01 X48.32801 Y20.28820
G01 X48.15966 Y20.20243
G01 X47.97993 Y20.14406
G01 X47.79329 Y20.11447
G01 X46.80434 Y20.11447
G01 X46.61773 Y20.14403
G01 X46.57333 Y20.15683
G01 X46.40780 Y20.18328
G01 X44.72040 Y20.18348
G01 X44.55845 Y20.16174
G01 X44.31029 Y20.07893
G01 X44.23244 Y20.07098
G01 X42.89770 Y20.07098
G01 X42.81880 Y20.07903
G01 X42.68451 Y20.12354
G01 X42.56046 Y20.19826
G01 X42.43021 Y20.25485
G01 X42.39041 Y20.26593
G01 X42.23872 Y20.28498
G01 X42.09991 Y20.28498
G01 X41.93801 Y20.26324
G01 X41.89704 Y20.25120
G01 X41.76783 Y20.19219
G01 X41.73191 Y20.16913
G01 X41.62460 Y20.07611
G01 X41.59661 Y20.04383
G01 X41.51985 Y19.92435
G01 X41.50209 Y19.88554
G01 X41.46206 Y19.74927
G01 X41.45307 Y19.68666
G01 X41.40494 Y19.51835
G01 X41.32483 Y19.36504
G01 X41.21553 Y19.23098
G01 X41.08147 Y19.12168
G01 X40.92815 Y19.04157
G01 X40.76092 Y18.99374
G01 X40.66239 Y18.98498
G01 X39.55965 Y18.98498
G01 X39.46113 Y18.99374
G01 X39.29389 Y19.04157
G01 X39.14058 Y19.12168
G01 X39.00654 Y19.23098
G01 X38.89722 Y19.36504
G01 X38.81713 Y19.51835
G01 X38.76148 Y19.71284
G01 X38.69603 Y19.86255
G01 X38.67319 Y19.89862
G01 X38.58094 Y20.00659
G01 X38.54889 Y20.03476
G01 X38.42994 Y20.11238
G01 X38.39120 Y20.13039
G01 X38.25519 Y20.17134
G01 X38.21300 Y20.17771
G01 X38.07098 Y20.17870
G01 X38.02867 Y20.17291
G01 X37.89212 Y20.13385
G01 X37.85315 Y20.11637
G01 X37.73314 Y20.04040
G01 X37.70068 Y20.01266
G01 X37.60693 Y19.90596
G01 X37.58361 Y19.87022
G01 X37.52372 Y19.74144
G01 X37.51140 Y19.70055
G01 X37.48854 Y19.53776
G01 X37.48854 Y17.31656
G01 X37.51025 Y17.15463
G01 X37.52229 Y17.11364
G01 X37.58130 Y16.98443
G01 X37.60274 Y16.95044
G01 X37.67878 Y16.85964
G01 X37.79037 Y16.67632
G01 X37.81371 Y16.62959
G01 X37.83804 Y16.59446
G01 X37.93476 Y16.49042
G01 X37.96799 Y16.46362
G01 X38.09006 Y16.39106
G01 X38.12951 Y16.37470
G01 X38.26710 Y16.33947
G01 X38.30954 Y16.33487
G01 X38.45150 Y16.33985
G01 X38.49349 Y16.34739
G01 X38.62829 Y16.39212
G01 X38.66651 Y16.41120
G01 X38.78323 Y16.49212
G01 X38.81449 Y16.52118
G01 X38.90370 Y16.63170
G01 X38.95546 Y16.72697
G01 X39.03377 Y16.85397
G01 X39.13303 Y16.95323
G01 X39.25252 Y17.02692
G01 X39.38681 Y17.07142
G01 X39.46565 Y17.07947
G01 X40.35041 Y17.07947
G01 X40.42925 Y17.07142
G01 X40.56354 Y17.02692
G01 X40.68302 Y16.95323
G01 X40.78226 Y16.85397
G01 X40.80169 Y16.82540
G01 X40.89270 Y16.71635
G01 X40.92442 Y16.68780
G01 X41.04248 Y16.60881
G01 X41.08099 Y16.59037
G01 X41.21649 Y16.54782
G01 X41.24934 Y16.54142
G01 X41.34154 Y16.53446
G01 X72.37267 Y16.53599
G01 X72.51326 Y16.55621
G01 X72.55423 Y16.56825
G01 X72.68344 Y16.62725
G01 X72.71526 Y16.64691
G01 X72.81023 Y16.72458
G01 X75.84142 Y19.75577
G01 X75.94056 Y19.88561
G01 X75.96100 Y19.92308
G01 X76.01066 Y20.05617
G01 X76.01927 Y20.09262
G01 X76.03151 Y20.21470
G01 X76.03151 Y34.23430
G01 X76.00980 Y34.39618
G01 X75.99776 Y34.43717
G01 X75.93875 Y34.56638
G01 X75.91569 Y34.60230
G01 X75.82267 Y34.70964
G01 X75.79039 Y34.73760
G01 X75.67091 Y34.81439
G01 X75.63207 Y34.83212
G01 X75.49580 Y34.87212
G01 X75.45354 Y34.87819
G01 X75.31150 Y34.87819
G01 X75.26926 Y34.87212
G01 X75.13299 Y34.83212
G01 X75.09415 Y34.81439
G01 X74.97467 Y34.73760
G01 X74.94975 Y34.71751
G01 X73.08687 Y32.85643
G01 X72.98768 Y32.72653
G01 X72.96721 Y32.68904
G01 X72.91757 Y32.55597
G01 X72.90899 Y32.51960
G01 X72.89672 Y32.39750
G01 X72.89672 Y26.20292
G01 X72.91846 Y26.04097
G01 X72.93050 Y26.00000
G01 X72.98951 Y25.87079
G01 X73.01260 Y25.83488
G01 X73.10561 Y25.72756
G01 X73.13289 Y25.70295
G01 X73.21310 Y25.64677
G01 X73.31549 Y25.54438
G01 X73.38918 Y25.42490
G01 X73.43365 Y25.29058
G01 X73.44173 Y25.21171
G01 X73.44173 Y24.32703
G01 X73.43365 Y24.24816
G01 X73.38918 Y24.11385
G01 X73.31549 Y23.99437
G01 X73.21623 Y23.89513
G01 X73.03861 Y23.78705
G01 X72.99207 Y23.76384
G01 X72.95697 Y23.73953
G01 X72.85291 Y23.64288
G01 X72.82608 Y23.60969
G01 X72.75344 Y23.48761
G01 X72.73703 Y23.44817
G01 X72.70175 Y23.31060
G01 X72.69715 Y23.26816
G01 X72.70206 Y23.12620
G01 X72.70957 Y23.08418
G01 X72.75425 Y22.94939
G01 X72.77333 Y22.91116
G01 X72.85420 Y22.79440
G01 X72.88323 Y22.76313
G01 X72.99370 Y22.67387
G01 X73.08928 Y22.62193
G01 X73.21623 Y22.54362
G01 X73.31549 Y22.44438
G01 X73.38918 Y22.32490
G01 X73.43365 Y22.19059
G01 X73.44173 Y22.11172
G01 X73.44173 Y21.22704
G01 X73.43365 Y21.14817
G01 X73.38918 Y21.01386
G01 X73.31549 Y20.89437
G01 X73.21623 Y20.79511
G01 X73.09675 Y20.72143
G01 X72.96243 Y20.67692
G01 X72.88359 Y20.66887
G01 X71.54884 Y20.66887
G01 X71.47000 Y20.67692
G01 X71.33571 Y20.72143
G01 X71.23183 Y20.78371
G01 X71.10155 Y20.84030
G01 X71.06043 Y20.85155
G01 X70.91951 Y20.86918
G01 X70.87679 Y20.86839
G01 X70.73660 Y20.84558
G01 X70.69609 Y20.83291
G01 X70.57554 Y20.77540
G01 X70.43353 Y20.72833
G01 X70.35469 Y20.72028
G01 X69.01994 Y20.72028
G01 X68.94110 Y20.72833
G01 X68.80681 Y20.77284
G01 X68.68733 Y20.84652
G01 X68.55322 Y20.94992
G01 X68.51573 Y20.97040
G01 X68.38266 Y21.02003
G01 X68.34629 Y21.02861
G01 X68.22416 Y21.04088
G01 X67.90237 Y21.04088
G01 X67.74044 Y21.01914
G01 X67.69947 Y21.00710
G01 X67.57029 Y20.94810
G01 X67.54014 Y20.92978
G01 X67.38180 Y20.80580
G01 X67.23953 Y20.73527
G01 X67.08340 Y20.69643
G01 X65.66681 Y20.69478
G01 X65.64235 Y20.69643
G01 X65.48622 Y20.73527
G01 X65.34484 Y20.80537
G01 X65.22186 Y20.90425
G01 X65.12297 Y21.02724
G01 X65.05287 Y21.16862
G01 X65.01403 Y21.32475
G01 X65.01238 Y21.34921
G01 X65.01403 Y22.26580
G01 X65.05287 Y22.42193
G01 X65.12658 Y22.57060
G01 X65.18767 Y22.67850
G01 X65.20395 Y22.71792
G01 X65.23893 Y22.85558
G01 X65.24345 Y22.89808
G01 X65.23819 Y23.04001
G01 X65.23057 Y23.08200
G01 X65.18556 Y23.21670
G01 X65.17090 Y23.24799
G01 X65.12712 Y23.31886
G01 X65.05287 Y23.46861
G01 X65.01403 Y23.62475
G01 X65.01403 Y24.56582
G01 X65.05287 Y24.72193
G01 X65.12297 Y24.86330
G01 X65.22186 Y24.98631
G01 X65.34484 Y25.08517
G01 X65.48622 Y25.15528
G01 X65.64235 Y25.19411
G01 X65.66681 Y25.19576
G01 X67.08340 Y25.19411
G01 X67.23953 Y25.15528
G01 X67.38091 Y25.08517
G01 X67.50389 Y24.98631
G01 X67.60278 Y24.86330
G01 X67.67288 Y24.72193
G01 X67.71172 Y24.56582
G01 X67.71337 Y24.54133
G01 X67.71172 Y23.62472
G01 X67.67291 Y23.46861
G01 X67.60872 Y23.33925
G01 X67.55624 Y23.18451
G01 X67.54883 Y23.14248
G01 X67.54428 Y23.00052
G01 X67.54900 Y22.95807
G01 X67.58464 Y22.82058
G01 X67.60113 Y22.78119
G01 X67.67405 Y22.65932
G01 X67.70095 Y22.62620
G01 X67.80527 Y22.52978
G01 X67.84044 Y22.50555
G01 X67.98860 Y22.43397
G01 X68.19013 Y22.40186
G01 X68.24672 Y22.40339
G01 X68.38731 Y22.42361
G01 X68.42828 Y22.43565
G01 X68.55746 Y22.49465
G01 X68.59137 Y22.51601
G01 X68.68162 Y22.59148
G01 X68.80681 Y22.66872
G01 X68.94110 Y22.71322
G01 X69.01994 Y22.72127
G01 X70.35469 Y22.72127
G01 X70.43353 Y22.71322
G01 X70.56785 Y22.66872
G01 X70.67171 Y22.60644
G01 X70.80196 Y22.54984
G01 X70.84316 Y22.53859
G01 X70.98410 Y22.52099
G01 X71.02677 Y22.52178
G01 X71.16696 Y22.54459
G01 X71.20516 Y22.55617
G01 X71.32507 Y22.61116
G01 X71.44056 Y22.67502
G01 X71.47567 Y22.69935
G01 X71.57971 Y22.79605
G01 X71.60653 Y22.82927
G01 X71.67910 Y22.95134
G01 X71.69545 Y22.99076
G01 X71.73071 Y23.12836
G01 X71.73531 Y23.17077
G01 X71.73038 Y23.31271
G01 X71.72286 Y23.35475
G01 X71.67813 Y23.48957
G01 X71.65903 Y23.52777
G01 X71.57813 Y23.64451
G01 X71.54907 Y23.67580
G01 X71.43856 Y23.76501
G01 X71.34318 Y23.81682
G01 X71.21623 Y23.89510
G01 X71.11697 Y23.99439
G01 X71.04328 Y24.11385
G01 X70.99878 Y24.24816
G01 X70.99073 Y24.32701
G01 X70.99073 Y25.21174
G01 X70.99878 Y25.29058
G01 X71.04328 Y25.42490
G01 X71.11697 Y25.54438
G01 X71.21623 Y25.64362
G01 X71.24481 Y25.66305
G01 X71.35385 Y25.75405
G01 X71.38237 Y25.78578
G01 X71.46137 Y25.90381
G01 X71.47983 Y25.94232
G01 X71.52235 Y26.07783
G01 X71.52875 Y26.11067
G01 X71.53571 Y26.20292
G01 X71.53571 Y32.15150
G01 X71.51400 Y32.31338
G01 X71.50196 Y32.35437
G01 X71.44295 Y32.48358
G01 X71.41989 Y32.51950
G01 X71.32687 Y32.62684
G01 X71.29459 Y32.65480
G01 X71.17511 Y32.73159
G01 X71.13627 Y32.74932
G01 X71.00000 Y32.78932
G01 X70.95774 Y32.79539
G01 X70.81570 Y32.79539
G01 X70.77346 Y32.78932
G01 X70.63719 Y32.74932
G01 X70.59835 Y32.73159
G01 X70.45776 Y32.63839
G01 X69.90681 Y32.08940
G01 X69.79536 Y32.01493
G01 X69.67153 Y31.96362
G01 X69.54006 Y31.93748
G01 X41.21454 Y31.93748
G01 X41.05261 Y31.91574
G01 X41.01164 Y31.90370
G01 X40.88246 Y31.84470
G01 X40.84654 Y31.82163
G01 X40.73920 Y31.72862
G01 X40.71459 Y31.70131
G01 X40.65841 Y31.62110
G01 X40.55602 Y31.51871
G01 X40.43654 Y31.44503
G01 X40.30225 Y31.40053
G01 X40.22341 Y31.39247
G01 X39.33865 Y31.39247
G01 X39.25981 Y31.40053
G01 X39.12552 Y31.44503
G01 X39.00603 Y31.51871
G01 X38.90677 Y31.61798
G01 X38.79875 Y31.79555
G01 X38.77553 Y31.84208
G01 X38.75122 Y31.87718
G01 X38.65457 Y31.98125
G01 X38.62138 Y32.00807
G01 X38.49933 Y32.08071
G01 X38.45993 Y32.09710
G01 X38.32237 Y32.13243
G01 X38.27990 Y32.13707
G01 X38.13796 Y32.13220
G01 X38.09593 Y32.12465
G01 X37.96110 Y32.07998
G01 X37.92290 Y32.06093
G01 X37.80611 Y31.98008
G01 X37.77482 Y31.95102
G01 X37.68556 Y31.84056
G01 X37.63357 Y31.74492
G01 X37.55529 Y31.61798
G01 X37.45602 Y31.51871
G01 X37.33654 Y31.44503
G01 X37.20223 Y31.40053
G01 X37.12341 Y31.39247
G01 X36.23865 Y31.39247
G01 X36.15981 Y31.40053
G01 X36.02550 Y31.44503
G01 X35.90604 Y31.51871
G01 X35.80678 Y31.61798
G01 X35.73307 Y31.73746
G01 X35.68859 Y31.87177
G01 X35.68051 Y31.95061
G01 X35.68051 Y33.28533
G01 X35.68859 Y33.36417
G01 X35.73307 Y33.49849
G01 X35.80678 Y33.61797
G01 X35.90957 Y33.75152
G01 X35.93004 Y33.78899
G01 X35.97968 Y33.92206
G01 X35.98826 Y33.95843
G01 X36.00053 Y34.08056
G01 X36.00053 Y36.68002
G01 X35.97879 Y36.84194
G01 X35.96675 Y36.88291
G01 X35.90774 Y37.01210
G01 X35.88468 Y37.04801
G01 X35.79166 Y37.15535
G01 X35.75938 Y37.18332
G01 X35.63990 Y37.26010
G01 X35.60109 Y37.27783
G01 X35.46482 Y37.31786
G01 X35.42253 Y37.32393
G01 X35.28049 Y37.32393
G01 X35.23822 Y37.31786
G01 X35.10195 Y37.27783
G01 X35.06314 Y37.26010
G01 X34.94366 Y37.18332
G01 X34.91674 Y37.16122
G01 X34.82504 Y37.06094
G01 X34.70206 Y36.96208
G01 X34.56068 Y36.89195
G01 X34.40457 Y36.85312
G01 X32.98796 Y36.85147
G01 X32.96350 Y36.85312
G01 X32.80737 Y36.89195
G01 X32.66599 Y36.96208
G01 X32.54300 Y37.06094
G01 X32.44415 Y37.18395
G01 X32.37399 Y37.32530
G01 X32.33518 Y37.48141
G01 X32.33518 Y38.42253
G01 X32.37402 Y38.57864
G01 X32.41557 Y38.66592
G01 X32.45995 Y38.80084
G01 X32.46739 Y38.84288
G01 X32.47194 Y38.98484
G01 X32.46721 Y39.02728
G01 X32.43157 Y39.16477
G01 X32.41509 Y39.20417
G01 X32.34217 Y39.32604
G01 X32.31524 Y39.35918
G01 X32.21092 Y39.45558
G01 X32.17580 Y39.47978
G01 X32.04854 Y39.54290
G01 X32.00795 Y39.55624
G01 X31.86810 Y39.58093
G01 X31.69284 Y39.58347
G01 X31.53069 Y39.56175
G01 X31.48969 Y39.54971
G01 X31.36048 Y39.49070
G01 X31.32650 Y39.46927
G01 X31.23569 Y39.39322
G01 X31.11055 Y39.31603
G01 X30.97623 Y39.27153
G01 X30.89739 Y39.26348
G01 X29.56264 Y39.26348
G01 X29.48380 Y39.27153
G01 X29.34951 Y39.31603
G01 X29.23003 Y39.38971
G01 X29.13077 Y39.48898
G01 X29.05708 Y39.60846
G01 X29.01258 Y39.74277
G01 X29.00453 Y39.82159
G01 X29.00453 Y40.70635
G01 X29.01258 Y40.78519
G01 X29.05708 Y40.91948
G01 X29.13051 Y41.03853
G01 X29.23397 Y41.14066
G01 X29.34951 Y41.21191
G01 X29.48380 Y41.25641
G01 X29.56264 Y41.26446
G01 X30.89739 Y41.26446
G01 X30.97623 Y41.25641
G01 X31.11055 Y41.21191
G01 X31.23003 Y41.13823
G01 X31.36353 Y41.03543
G01 X31.40102 Y41.01496
G01 X31.53409 Y40.96533
G01 X31.57046 Y40.95674
G01 X31.69256 Y40.94447
G01 X32.07437 Y40.94447
G01 X32.23632 Y40.96622
G01 X32.27729 Y40.97826
G01 X32.40648 Y41.03726
G01 X32.43871 Y41.05725
G01 X32.66632 Y41.24204
G01 X32.80737 Y41.31201
G01 X32.96348 Y41.35082
G01 X34.40457 Y41.35082
G01 X34.56068 Y41.31199
G01 X34.70206 Y41.24186
G01 X34.87597 Y41.10134
G01 X34.91783 Y41.06228
G01 X34.95288 Y41.03790
G01 X35.07983 Y40.97417
G01 X35.12029 Y40.96063
G01 X35.28674 Y40.93282
G01 X35.74401 Y40.93249
G01 X35.87554 Y40.90632
G01 X35.99936 Y40.85502
G01 X36.11082 Y40.78054
G01 X37.20959 Y39.68176
G01 X37.28407 Y39.57031
G01 X37.33537 Y39.44648
G01 X37.35841 Y39.33843
G01 X37.40566 Y39.20450
G01 X37.42547 Y39.16665
G01 X37.50855 Y39.05146
G01 X37.53817 Y39.02075
G01 X37.65033 Y38.93361
G01 X37.68744 Y38.91247
G01 X37.81960 Y38.86048
G01 X37.86118 Y38.85065
G01 X38.00266 Y38.83800
G01 X38.04528 Y38.84029
G01 X38.18457 Y38.86800
G01 X38.22481 Y38.88220
G01 X38.35066 Y38.94801
G01 X38.38531 Y38.97300
G01 X38.48752 Y39.07163
G01 X38.51371 Y39.10534
G01 X38.58399 Y39.22875
G01 X38.59963 Y39.26848
G01 X38.63230 Y39.40671
G01 X38.64228 Y39.50188
G01 X38.69013 Y39.66909
G01 X38.77022 Y39.82240
G01 X38.87954 Y39.95646
G01 X39.01358 Y40.06579
G01 X39.16689 Y40.14587
G01 X39.33413 Y40.19373
G01 X39.43263 Y40.20246
G01 X40.53542 Y40.20246
G01 X40.63392 Y40.19373
G01 X40.80115 Y40.14587
G01 X40.95381 Y40.06614
G01 X41.11482 Y39.93216
G01 X41.23455 Y39.84227
G01 X41.27204 Y39.82179
G01 X41.40512 Y39.77216
G01 X41.44682 Y39.76309
G01 X41.58850 Y39.75296
G01 X41.63110 Y39.75601
G01 X41.76988 Y39.78621
G01 X41.80989 Y39.80112
G01 X41.93455 Y39.86919
G01 X41.96874 Y39.89479
G01 X42.06915 Y39.99523
G01 X42.09473 Y40.02939
G01 X42.16285 Y40.15405
G01 X42.17771 Y40.19406
G01 X42.20791 Y40.33284
G01 X42.21134 Y40.36457
G01 X42.21256 Y41.43177
G01 X42.22063 Y41.51069
G01 X42.26508 Y41.64498
G01 X42.33877 Y41.76446
G01 X42.43803 Y41.86373
G01 X42.55751 Y41.93744
G01 X42.69183 Y41.98191
G01 X42.77067 Y41.98996
G01 X44.10541 Y41.98996
G01 X44.18515 Y41.98184
G01 X44.47295 Y41.89019
G01 X44.50714 Y41.88356
G01 X44.59337 Y41.87747
G01 X45.31252 Y41.87747
G01 X45.47445 Y41.89921
G01 X45.51542 Y41.91125
G01 X45.64465 Y41.97025
G01 X45.68054 Y41.99332
G01 X45.78789 Y42.08633
G01 X45.81585 Y42.11861
G01 X45.89263 Y42.23810
G01 X45.91036 Y42.27693
G01 X45.95037 Y42.41320
G01 X45.95606 Y42.44475
G01 X45.96152 Y42.52649
G01 X45.96152 Y43.24066
G01 X45.93978 Y43.40258
G01 X45.92776 Y43.44353
G01 X45.86878 Y43.57271
G01 X45.84915 Y43.60454
G01 X45.77143 Y43.69956
G01 X45.66000 Y43.81107
G01 X45.53637 Y43.97358
G01 X45.43597 Y44.07401
G01 X45.40178 Y44.09961
G01 X45.27717 Y44.16768
G01 X45.23714 Y44.18259
G01 X45.09833 Y44.21277
G01 X45.06645 Y44.21620
G01 X31.41344 Y44.21747
G01 X31.24232 Y44.24459
G01 X31.07758 Y44.29809
G01 X30.92325 Y44.37673
G01 X30.78311 Y44.47855
G01 X27.48561 Y47.77606
G01 X27.38378 Y47.91619
G01 X27.30514 Y48.07052
G01 X27.25163 Y48.23526
G01 X27.22452 Y48.40636
G01 X27.22452 Y58.42750
G01 X27.20278 Y58.58940
G01 X27.19074 Y58.63037
G01 X27.13174 Y58.75958
G01 X27.10867 Y58.79547
G01 X27.01569 Y58.90281
G01 X26.98340 Y58.93080
G01 X26.86389 Y59.00758
G01 X26.82506 Y59.02531
G01 X26.68879 Y59.06532
G01 X26.65724 Y59.07101
G01 X26.57550 Y59.07647
G01 X17.06150 Y59.07647
G01 X16.89958 Y59.05472
G01 X16.85863 Y59.04271
G01 X16.72945 Y58.98373
G01 X16.69351 Y58.96064
G01 X16.58617 Y58.86763
G01 X16.55820 Y58.83534
G01 X16.48142 Y58.71586
G01 X16.46369 Y58.67705
G01 X16.42366 Y58.54076
G01 X16.41759 Y58.49849
G01 X16.41759 Y58.35648
G01 X16.42223 Y58.31937
G01 X16.45343 Y58.20068
G01 X16.51611 Y58.03263
G01 X16.57237 Y57.77401
G01 X16.59125 Y57.50997
G01 X16.57237 Y57.24594
G01 X16.51611 Y56.98732
G01 X16.42361 Y56.73929
G01 X16.29676 Y56.50695
G01 X16.13811 Y56.29507
G01 X15.95094 Y56.10789
G01 X15.73905 Y55.94924
G01 X15.50672 Y55.82240
G01 X15.25869 Y55.72989
G01 X15.00006 Y55.67363
G01 X14.73603 Y55.65476
G01 X14.47200 Y55.67363
G01 X14.21337 Y55.72989
G01 X13.96534 Y55.82240
G01 X13.73301 Y55.94924
G01 X13.58292 Y56.05971
G01 X13.45828 Y56.12776
G01 X13.41830 Y56.14267
G01 X13.27952 Y56.17287
G01 X13.23692 Y56.17591
G01 X13.09524 Y56.16578
G01 X13.05353 Y56.15671
G01 X12.92046 Y56.10708
G01 X12.89179 Y56.09273
G01 X12.82308 Y56.04813
G01 X12.69102 Y55.94924
G01 X12.45872 Y55.82240
G01 X12.21069 Y55.72989
G01 X11.95206 Y55.67363
G01 X11.68803 Y55.65476
G01 X11.42400 Y55.67363
G01 X11.16537 Y55.72989
G01 X10.91734 Y55.82240
G01 X10.68501 Y55.94924
G01 X10.47312 Y56.10789
G01 X10.28595 Y56.29507
G01 X10.12730 Y56.50695
G01 X10.00045 Y56.73929
G01 X9.90795 Y56.98732
G01 X9.85169 Y57.24594
G01 X9.83279 Y57.50997
G01 X9.85169 Y57.77401
G01 X9.90795 Y58.03263
G01 X9.97665 Y58.22122
G01 X10.00683 Y58.36001
G01 X10.00988 Y58.40258
G01 X9.99974 Y58.54426
G01 X9.99067 Y58.58597
G01 X9.94104 Y58.71904
G01 X9.92057 Y58.75653
G01 X9.83546 Y58.87022
G01 X9.80528 Y58.90039
G01 X9.69159 Y58.98551
G01 X9.65410 Y59.00598
G01 X9.52103 Y59.05561
G01 X9.48466 Y59.06420
G01 X9.36253 Y59.07647
G01 X8.47567 Y59.07647
G01 X8.31377 Y59.05472
G01 X8.27282 Y59.04271
G01 X8.14361 Y58.98373
G01 X8.11176 Y58.96405
G01 X8.01679 Y58.88640
G01 X7.83129 Y58.69874
G01 X7.74618 Y58.58503
G01 X7.72571 Y58.54756
G01 X7.67607 Y58.41449
G01 X7.66749 Y58.37812
G01 X7.65522 Y58.25602
G01 X7.65522 Y55.21732
G01 X7.67696 Y55.05537
G01 X7.68900 Y55.01440
G01 X7.74801 Y54.88521
G01 X7.76764 Y54.85341
G01 X7.84531 Y54.75834
G01 X7.95682 Y54.64688
G01 X8.11544 Y54.43500
G01 X8.24229 Y54.20266
G01 X8.33482 Y53.95463
G01 X8.39106 Y53.69601
G01 X8.40996 Y53.43198
G01 X8.39106 Y53.16794
G01 X8.33482 Y52.90930
G01 X8.24229 Y52.66129
G01 X8.11544 Y52.42896
G01 X7.95682 Y52.21707
G01 X7.76962 Y52.02990
G01 X7.55771 Y51.87125
G01 X7.32543 Y51.74440
G01 X7.07740 Y51.65189
G01 X6.81875 Y51.59563
G01 X6.55472 Y51.57674
G01 X6.29071 Y51.59563
G01 X6.03206 Y51.65189
G01 X5.78403 Y51.74440
G01 X5.55169 Y51.87125
G01 X5.33981 Y52.02990
G01 X5.15264 Y52.21707
G01 X4.99401 Y52.42896
G01 X4.86714 Y52.66129
G01 X4.77463 Y52.90927
G01 X4.71840 Y53.16794
G01 X4.69950 Y53.43198
G01 X4.71840 Y53.69601
G01 X4.77463 Y53.95466
G01 X4.86714 Y54.20266
G01 X4.99401 Y54.43500
G01 X5.15264 Y54.64688
G01 X5.26414 Y54.75834
G01 X5.36328 Y54.88829
G01 X5.38375 Y54.92573
G01 X5.43338 Y55.05880
G01 X5.44197 Y55.09519
G01 X5.45423 Y55.21732
G01 X5.45423 Y59.06730
G01 X5.48134 Y59.23839
G01 X5.53485 Y59.40311
G01 X5.61349 Y59.55744
G01 X5.71532 Y59.69760
G01 X6.79845 Y60.78076
G01 X6.89759 Y60.91065
G01 X6.91806 Y60.94812
G01 X6.96769 Y61.08119
G01 X6.97676 Y61.12289
G01 X6.98690 Y61.26455
G01 X6.98385 Y61.30715
G01 X6.95365 Y61.44593
G01 X6.93874 Y61.48591
G01 X6.87069 Y61.61057
G01 X6.85103 Y61.63849
G01 X6.79673 Y61.69942
G01 X6.72723 Y61.79229
G01 X6.69106 Y61.88926
G01 X6.68753 Y61.92213
G01 X6.68753 Y65.00180
G01 X6.69106 Y65.03470
G01 X6.72723 Y65.13167
G01 X6.78763 Y65.21237
G01 X6.86833 Y65.27277
G01 X6.96531 Y65.30894
G01 X6.99820 Y65.31247
G01 X11.63853 Y65.31247
G01 X11.80045 Y65.33421
G01 X11.84142 Y65.34625
G01 X11.97063 Y65.40526
G01 X12.00655 Y65.42832
G01 X12.11389 Y65.52134
G01 X12.14185 Y65.55362
G01 X12.21864 Y65.67310
G01 X12.23636 Y65.71194
G01 X12.27637 Y65.84821
G01 X12.28206 Y65.87976
G01 X12.28752 Y65.96149
G01 X12.28752 Y67.23325
G01 X12.31919 Y67.47376
G01 X12.38198 Y67.70807
G01 X12.47479 Y67.93218
G01 X12.59608 Y68.14229
G01 X12.74376 Y68.33469
G01 X12.91531 Y68.50624
G01 X13.10774 Y68.65392
G01 X13.31782 Y68.77520
G01 X13.54192 Y68.86801
G01 X13.77624 Y68.93080
G01 X14.01675 Y68.96248
G01 X14.25930 Y68.96248
G01 X14.49981 Y68.93080
G01 X14.69008 Y68.87983
G01 X14.73412 Y68.86801
G01 X14.95823 Y68.77520
G01 X15.16834 Y68.65392
G01 X15.36074 Y68.50624
G01 X15.53229 Y68.33469
G01 X15.67997 Y68.14226
G01 X15.80125 Y67.93218
G01 X15.89407 Y67.70807
G01 X15.95686 Y67.47376
G01 X15.98853 Y67.23325
G01 X15.98853 Y65.49070
G01 X15.95686 Y65.25019
G01 X15.89407 Y65.01588
G01 X15.80125 Y64.79177
G01 X15.67997 Y64.58169
G01 X15.53229 Y64.38926
G01 X15.36074 Y64.21771
G01 X15.16834 Y64.07003
G01 X14.95823 Y63.94875
G01 X14.73412 Y63.85593
G01 X14.49981 Y63.79315
G01 X14.25930 Y63.76147
G01 X14.01675 Y63.76147
G01 X13.77624 Y63.79315
G01 X13.54192 Y63.85593
G01 X13.31782 Y63.94875
G01 X13.10774 Y64.07003
G01 X13.01475 Y64.13947
G01 X12.89090 Y64.20902
G01 X12.85110 Y64.22441
G01 X12.71269 Y64.25626
G01 X12.67012 Y64.25982
G01 X12.52834 Y64.25136
G01 X12.48653 Y64.24278
G01 X12.35287 Y64.19474
G01 X12.31516 Y64.17473
G01 X12.20045 Y64.09096
G01 X12.16989 Y64.06114
G01 X12.08343 Y63.94847
G01 X12.06253 Y63.91123
G01 X12.01132 Y63.77877
G01 X12.00220 Y63.74161
G01 X11.98950 Y63.62972
G01 X11.99006 Y61.90516
G01 X12.01025 Y61.76457
G01 X12.02229 Y61.72358
G01 X12.08130 Y61.59437
G01 X12.10436 Y61.55845
G01 X12.19738 Y61.45111
G01 X12.22966 Y61.42315
G01 X12.34914 Y61.34636
G01 X12.38798 Y61.32863
G01 X12.52425 Y61.28863
G01 X12.55580 Y61.28294
G01 X12.63751 Y61.27748
G01 X18.38852 Y61.27748
G01 X18.55045 Y61.29922
G01 X18.59142 Y61.31126
G01 X18.72063 Y61.37026
G01 X18.75652 Y61.39333
G01 X18.86386 Y61.48632
G01 X18.89185 Y61.51860
G01 X18.96863 Y61.63808
G01 X18.98636 Y61.67692
G01 X19.02637 Y61.81322
G01 X19.03206 Y61.84476
G01 X19.03752 Y61.92650
G01 X19.03752 Y65.00178
G01 X19.04108 Y65.03470
G01 X19.07725 Y65.13167
G01 X19.13762 Y65.21237
G01 X19.21834 Y65.27277
G01 X19.31529 Y65.30894
G01 X19.34819 Y65.31247
G01 X23.98851 Y65.31247
G01 X24.15046 Y65.33421
G01 X24.19143 Y65.34625
G01 X24.32062 Y65.40526
G01 X24.35653 Y65.42832
G01 X24.46387 Y65.52134
G01 X24.49184 Y65.55362
G01 X24.56862 Y65.67310
G01 X24.58635 Y65.71191
G01 X24.62638 Y65.84818
G01 X24.63715 Y65.95077
G01 X24.63753 Y67.23327
G01 X24.66918 Y67.47376
G01 X24.73197 Y67.70807
G01 X24.82478 Y67.93218
G01 X24.94609 Y68.14226
G01 X25.09377 Y68.33469
G01 X25.26529 Y68.50624
G01 X25.45773 Y68.65392
G01 X25.66781 Y68.77520
G01 X25.89194 Y68.86801
G01 X26.12623 Y68.93080
G01 X26.36674 Y68.96248
G01 X26.60931 Y68.96248
G01 X26.84982 Y68.93080
G01 X27.08399 Y68.86807
G01 X27.48706 Y68.70197
G01 X27.60629 Y68.68889
G01 X27.61932 Y68.65755
G01 X27.69196 Y68.53550
G01 X27.71360 Y68.50736
G01 X27.88177 Y68.33538
G01 X28.02998 Y68.14224
G01 X28.15127 Y67.93218
G01 X28.24408 Y67.70807
G01 X28.30687 Y67.47376
G01 X28.33852 Y67.23327
G01 X28.33852 Y65.49068
G01 X28.30687 Y65.25019
G01 X28.24408 Y65.01588
G01 X28.15127 Y64.79177
G01 X28.02998 Y64.58171
G01 X27.88228 Y64.38926
G01 X27.71076 Y64.21771
G01 X27.54281 Y64.08883
G01 X27.51833 Y64.07006
G01 X27.30824 Y63.94875
G01 X27.08411 Y63.85593
G01 X26.84982 Y63.79315
G01 X26.60931 Y63.76147
G01 X26.36674 Y63.76147
G01 X26.12623 Y63.79315
G01 X25.89194 Y63.85593
G01 X25.66781 Y63.94875
G01 X25.45773 Y64.07003
G01 X25.36474 Y64.13945
G01 X25.24091 Y64.20899
G01 X25.20111 Y64.22441
G01 X25.06268 Y64.25626
G01 X25.02011 Y64.25982
G01 X24.87835 Y64.25136
G01 X24.83654 Y64.24278
G01 X24.70289 Y64.19474
G01 X24.66517 Y64.17473
G01 X24.55046 Y64.09096
G01 X24.51993 Y64.06114
G01 X24.43344 Y63.94847
G01 X24.41252 Y63.91123
G01 X24.36131 Y63.77877
G01 X24.35219 Y63.74161
G01 X24.33949 Y63.62972
G01 X24.33853 Y61.92650
G01 X24.36027 Y61.76455
G01 X24.37231 Y61.72358
G01 X24.43131 Y61.59437
G01 X24.45437 Y61.55848
G01 X24.54736 Y61.45114
G01 X24.57965 Y61.42315
G01 X24.69915 Y61.34636
G01 X24.73799 Y61.32863
G01 X24.87426 Y61.28863
G01 X24.90581 Y61.28294
G01 X24.98752 Y61.27748
G01 X28.41164 Y61.27748
G01 X28.58274 Y61.25038
G01 X28.74748 Y61.19686
G01 X28.90181 Y61.11822
G01 X29.04194 Y61.01639
G01 X29.16445 Y60.89389
G01 X29.26628 Y60.75376
G01 X29.34492 Y60.59943
G01 X29.39841 Y60.43468
G01 X29.42554 Y60.26356
G01 X29.42554 Y55.54792
G01 X29.44725 Y55.38600
G01 X29.45929 Y55.34500
G01 X29.51830 Y55.21579
G01 X29.54138 Y55.17988
G01 X29.63440 Y55.07256
G01 X29.66663 Y55.04462
G01 X29.78611 Y54.96781
G01 X29.82498 Y54.95006
G01 X29.96125 Y54.91005
G01 X30.00349 Y54.90398
G01 X30.14552 Y54.90398
G01 X30.18779 Y54.91005
G01 X30.32406 Y54.95006
G01 X30.36292 Y54.96781
G01 X30.48240 Y55.04462
G01 X30.51464 Y55.07256
G01 X30.60765 Y55.17988
G01 X30.62965 Y55.21346
G01 X30.68355 Y55.32628
G01 X30.70308 Y55.38148
G01 X30.77676 Y55.50096
G01 X30.87608 Y55.60025
G01 X30.90460 Y55.61965
G01 X31.01365 Y55.71066
G01 X31.04217 Y55.74239
G01 X31.12116 Y55.86042
G01 X31.13963 Y55.89893
G01 X31.18217 Y56.03444
G01 X31.18857 Y56.06728
G01 X31.19553 Y56.15951
G01 X31.19553 Y66.36299
G01 X31.22167 Y66.49446
G01 X31.27298 Y66.61831
G01 X31.35357 Y66.73894
G01 X31.43389 Y66.84709
G01 X31.45403 Y66.88412
G01 X31.50366 Y67.01719
G01 X31.51225 Y67.05357
G01 X31.52452 Y67.17569
G01 X31.52452 Y67.85288
G01 X31.55192 Y68.06088
G01 X31.60623 Y68.26355
G01 X31.68649 Y68.45737
G01 X31.79139 Y68.63908
G01 X31.90714 Y68.78988
G01 X31.98845 Y68.93159
G01 X32.00386 Y68.97142
G01 X32.03569 Y69.10985
G01 X32.03925 Y69.15237
G01 X32.03081 Y69.29413
G01 X32.02223 Y69.33598
G01 X31.97417 Y69.46964
G01 X31.95416 Y69.50733
G01 X31.87041 Y69.62204
G01 X31.84059 Y69.65257
G01 X31.72792 Y69.73906
G01 X31.69068 Y69.75999
G01 X31.55820 Y69.81119
G01 X31.52104 Y69.82031
G01 X31.40917 Y69.83301
G01 X30.78207 Y69.83398
G01 X30.62015 Y69.81223
G01 X30.57918 Y69.80019
G01 X30.44999 Y69.74119
G01 X30.41822 Y69.72156
G01 X30.30702 Y69.62773
G01 X30.18754 Y69.55402
G01 X30.05325 Y69.50954
G01 X29.97438 Y69.50147
G01 X28.58967 Y69.50147
G01 X28.51083 Y69.50954
G01 X28.39237 Y69.54719
G01 X28.23933 Y69.57266
G01 X28.21208 Y69.64015
G01 X28.08403 Y69.84663
G01 X28.03958 Y69.98076
G01 X28.03153 Y70.05960
G01 X28.03153 Y70.96936
G01 X28.03958 Y71.04820
G01 X28.08409 Y71.18249
G01 X28.15777 Y71.30197
G01 X28.25703 Y71.40123
G01 X28.37652 Y71.47492
G01 X28.51081 Y71.51942
G01 X28.58965 Y71.52747
G01 X29.97440 Y71.52747
G01 X30.05325 Y71.51942
G01 X30.18754 Y71.47492
G01 X30.30702 Y71.40123
G01 X30.33935 Y71.37106
G01 X30.45307 Y71.28594
G01 X30.49053 Y71.26547
G01 X30.62360 Y71.21584
G01 X30.65998 Y71.20725
G01 X30.76605 Y71.19585
G01 X31.93973 Y71.19498
G01 X32.10165 Y71.21670
G01 X32.14265 Y71.22874
G01 X32.27183 Y71.28775
G01 X32.30775 Y71.31081
G01 X32.41509 Y71.40382
G01 X32.44303 Y71.43608
G01 X32.51984 Y71.55556
G01 X32.53759 Y71.59443
G01 X32.57760 Y71.73070
G01 X32.58367 Y71.77296
G01 X32.58367 Y71.91500
G01 X32.57760 Y71.95724
G01 X32.53759 Y72.09351
G01 X32.45144 Y72.29364
G01 X32.42451 Y72.42897
G01 X32.42451 Y72.56697
G01 X32.45144 Y72.70230
G01 X32.50424 Y72.82978
G01 X32.58090 Y72.94449
G01 X32.67849 Y73.04210
G01 X32.79322 Y73.11876
G01 X32.88387 Y73.15797
G01 X33.00602 Y73.23044
G01 X33.03927 Y73.25721
G01 X33.12659 Y73.35101
G01 X33.17684 Y73.28863
G01 X33.20810 Y73.25952
G01 X33.32479 Y73.17852
G01 X33.45624 Y73.11919
G01 X33.57158 Y73.04210
G01 X33.66914 Y72.94451
G01 X33.74580 Y72.82978
G01 X33.79860 Y72.70230
G01 X33.82553 Y72.56697
G01 X33.82553 Y72.42897
G01 X33.79876 Y72.29435
G01 X33.73218 Y72.13791
G01 X33.68077 Y71.99686
G01 X33.67209 Y71.95505
G01 X33.66322 Y71.81330
G01 X33.66662 Y71.77075
G01 X33.69804 Y71.63225
G01 X33.71333 Y71.59237
G01 X33.78252 Y71.46831
G01 X33.80841 Y71.43435
G01 X33.90973 Y71.33484
G01 X33.94412 Y71.30956
G01 X34.06937 Y71.24261
G01 X34.10952 Y71.22806
G01 X34.27452 Y71.19603
G01 X35.54381 Y71.19498
G01 X35.70574 Y71.21670
G01 X35.74673 Y71.22874
G01 X35.87592 Y71.28775
G01 X35.90772 Y71.30738
G01 X35.99080 Y71.37433
G01 X36.15681 Y71.54129
G01 X36.24193 Y71.65498
G01 X36.26240 Y71.69247
G01 X36.31203 Y71.82554
G01 X36.32110 Y71.86725
G01 X36.33124 Y72.00893
G01 X36.32953 Y72.04454
G01 X36.31379 Y72.13809
G01 X36.30190 Y72.18505
G01 X36.27452 Y72.39305
G01 X36.27452 Y72.60288
G01 X36.30190 Y72.81088
G01 X36.35623 Y73.01355
G01 X36.43649 Y73.20738
G01 X36.54140 Y73.38906
G01 X36.66913 Y73.55551
G01 X36.81749 Y73.70387
G01 X36.98394 Y73.83161
G01 X37.16563 Y73.93651
G01 X37.35945 Y74.01677
G01 X37.56212 Y74.07108
G01 X37.77012 Y74.09848
G01 X38.47992 Y74.09848
G01 X38.68795 Y74.07108
G01 X38.89059 Y74.01677
G01 X39.08442 Y73.93651
G01 X39.26613 Y73.83161
G01 X39.43258 Y73.70387
G01 X39.58091 Y73.55551
G01 X39.70865 Y73.38906
G01 X39.81355 Y73.20738
G01 X39.89384 Y73.01355
G01 X39.94815 Y72.81088
G01 X39.97553 Y72.60288
G01 X39.97553 Y72.39308
G01 X39.94815 Y72.18508
G01 X39.89384 Y71.98241
G01 X39.81355 Y71.78856
G01 X39.70865 Y71.60690
G01 X39.58091 Y71.44043
G01 X39.43258 Y71.29209
G01 X39.26613 Y71.16435
G01 X39.08442 Y71.05945
G01 X38.89059 Y70.97916
G01 X38.68795 Y70.92486
G01 X38.48005 Y70.89750
G01 X37.74421 Y70.89854
G01 X37.63291 Y70.89379
G01 X37.59072 Y70.88724
G01 X37.45488 Y70.84573
G01 X37.41627 Y70.82760
G01 X37.29763 Y70.74955
G01 X37.25524 Y70.71272
G01 X36.52832 Y69.98589
G01 X36.41686 Y69.91142
G01 X36.29301 Y69.86011
G01 X36.16156 Y69.83398
G01 X34.83647 Y69.83245
G01 X34.69588 Y69.81223
G01 X34.65491 Y69.80019
G01 X34.52570 Y69.74119
G01 X34.48979 Y69.71813
G01 X34.38245 Y69.62511
G01 X34.35448 Y69.59283
G01 X34.27770 Y69.47335
G01 X34.25997 Y69.43451
G01 X34.21996 Y69.29824
G01 X34.21389 Y69.25600
G01 X34.21389 Y69.11396
G01 X34.21996 Y69.07170
G01 X34.25997 Y68.93543
G01 X34.27536 Y68.90035
G01 X34.34292 Y68.78991
G01 X34.45865 Y68.63908
G01 X34.56355 Y68.45737
G01 X34.64384 Y68.26355
G01 X34.69814 Y68.06088
G01 X34.72552 Y67.85288
G01 X34.72552 Y67.14308
G01 X34.69814 Y66.93507
G01 X34.64384 Y66.73241
G01 X34.56355 Y66.53858
G01 X34.45865 Y66.35687
G01 X34.33091 Y66.19042
G01 X34.18257 Y66.04209
G01 X34.01610 Y65.91435
G01 X33.84605 Y65.81615
G01 X33.64006 Y65.72901
G01 X33.43795 Y65.67485
G01 X33.22995 Y65.64747
G01 X33.18418 Y65.64595
G01 X33.04359 Y65.62573
G01 X33.00262 Y65.61369
G01 X32.87343 Y65.55469
G01 X32.83754 Y65.53162
G01 X32.73020 Y65.43863
G01 X32.70221 Y65.40635
G01 X32.62543 Y65.28687
G01 X32.60770 Y65.24806
G01 X32.56767 Y65.11176
G01 X32.56198 Y65.08019
G01 X32.55652 Y64.99848
G01 X32.55652 Y56.15951
G01 X32.57826 Y55.99758
G01 X32.59030 Y55.95661
G01 X32.64930 Y55.82740
G01 X32.67237 Y55.79149
G01 X32.76538 Y55.68414
G01 X32.79269 Y55.65953
G01 X32.87290 Y55.60335
G01 X32.98329 Y55.49512
G01 X33.09698 Y55.41000
G01 X33.13447 Y55.38953
G01 X33.26754 Y55.33990
G01 X33.30925 Y55.33083
G01 X33.45093 Y55.32070
G01 X33.49350 Y55.32372
G01 X33.63228 Y55.35389
G01 X33.67231 Y55.36885
G01 X33.79695 Y55.43693
G01 X33.87173 Y55.49756
G01 X33.99550 Y55.57393
G01 X34.12982 Y55.61841
G01 X34.20869 Y55.62649
G01 X35.53050 Y55.62649
G01 X35.69243 Y55.64820
G01 X35.73342 Y55.66024
G01 X35.86263 Y55.71925
G01 X35.89855 Y55.74231
G01 X36.00589 Y55.83533
G01 X36.03385 Y55.86761
G01 X36.11064 Y55.98709
G01 X36.12837 Y56.02593
G01 X36.16837 Y56.16220
G01 X36.17406 Y56.19374
G01 X36.17952 Y56.27548
G01 X36.17952 Y57.63580
G01 X36.18305 Y57.66870
G01 X36.21925 Y57.76567
G01 X36.27962 Y57.84637
G01 X36.36035 Y57.90677
G01 X36.45730 Y57.94294
G01 X36.49019 Y57.94647
G01 X38.56987 Y57.94647
G01 X38.60276 Y57.94294
G01 X38.69974 Y57.90677
G01 X38.78041 Y57.84637
G01 X38.84081 Y57.76567
G01 X38.87698 Y57.66867
G01 X38.88053 Y57.63578
G01 X38.88053 Y56.24368
G01 X38.90225 Y56.08176
G01 X38.91429 Y56.04076
G01 X38.97329 Y55.91158
G01 X38.99636 Y55.87566
G01 X39.08937 Y55.76832
G01 X39.12166 Y55.74035
G01 X39.24114 Y55.66357
G01 X39.27995 Y55.64584
G01 X39.41624 Y55.60581
G01 X39.45851 Y55.59974
G01 X39.60052 Y55.59974
G01 X39.64281 Y55.60581
G01 X39.77908 Y55.64584
G01 X39.81789 Y55.66357
G01 X39.93740 Y55.74035
G01 X39.98462 Y55.78110
G01 X42.22142 Y58.01777
G01 X42.32056 Y58.14761
G01 X42.34103 Y58.18510
G01 X42.39066 Y58.31818
G01 X42.39930 Y58.35455
G01 X42.41156 Y58.47667
G01 X42.41156 Y65.45804
G01 X42.38980 Y65.61994
G01 X42.37776 Y65.66093
G01 X42.31875 Y65.79012
G01 X42.29569 Y65.82603
G01 X42.20270 Y65.93337
G01 X42.06780 Y66.04176
G01 X41.91913 Y66.19045
G01 X41.79140 Y66.35689
G01 X41.68650 Y66.53858
G01 X41.60623 Y66.73241
G01 X41.55190 Y66.93505
G01 X41.52452 Y67.14305
G01 X41.52452 Y67.85288
G01 X41.55190 Y68.06088
G01 X41.60623 Y68.26355
G01 X41.68650 Y68.45737
G01 X41.79140 Y68.63908
G01 X41.91913 Y68.80553
G01 X42.06750 Y68.95387
G01 X42.23394 Y69.08160
G01 X42.41563 Y69.18651
G01 X42.60946 Y69.26677
G01 X42.81215 Y69.32110
G01 X43.02012 Y69.34848
G01 X43.23000 Y69.34848
G01 X43.43795 Y69.32110
G01 X43.64059 Y69.26677
G01 X43.83442 Y69.18651
G01 X44.01616 Y69.08160
G01 X44.18258 Y68.95387
G01 X44.33092 Y68.80553
G01 X44.45863 Y68.63908
G01 X44.48296 Y68.59999
G01 X44.57077 Y68.48836
G01 X44.60165 Y68.45892
G01 X44.71735 Y68.37655
G01 X44.75530 Y68.35699
G01 X44.88951 Y68.31054
G01 X44.93145 Y68.30246
G01 X45.07333 Y68.29570
G01 X45.11583 Y68.29974
G01 X45.25385 Y68.33322
G01 X45.29350 Y68.34909
G01 X45.41649 Y68.42011
G01 X45.45001 Y68.44650
G01 X45.54803 Y68.54930
G01 X45.61029 Y68.64460
G01 X45.73912 Y68.81252
G01 X45.88748 Y68.96088
G01 X46.05398 Y69.08861
G01 X46.23561 Y69.19352
G01 X46.42946 Y69.27378
G01 X46.63213 Y69.32808
G01 X46.84011 Y69.35547
G01 X47.04994 Y69.35547
G01 X47.25794 Y69.32808
G01 X47.46060 Y69.27378
G01 X47.65443 Y69.19352
G01 X47.83612 Y69.08861
G01 X48.00256 Y68.96088
G01 X48.15092 Y68.81252
G01 X48.27866 Y68.64607
G01 X48.38356 Y68.46438
G01 X48.46383 Y68.27053
G01 X48.51813 Y68.06789
G01 X48.54554 Y67.85986
G01 X48.54554 Y67.15009
G01 X48.51813 Y66.94206
G01 X48.46383 Y66.73942
G01 X48.38356 Y66.54557
G01 X48.27866 Y66.36388
G01 X48.15092 Y66.19743
G01 X48.00259 Y66.04907
G01 X47.87945 Y65.95461
G01 X47.76421 Y65.83876
G01 X47.73904 Y65.80432
G01 X47.67244 Y65.67887
G01 X47.65799 Y65.63863
G01 X47.62946 Y65.49949
G01 X47.62560 Y65.44420
G01 X47.62552 Y64.10869
G01 X47.64727 Y63.94674
G01 X47.65931 Y63.90577
G01 X47.71831 Y63.77658
G01 X47.73794 Y63.74481
G01 X47.81562 Y63.64976
G01 X50.83682 Y60.62856
G01 X50.96667 Y60.52942
G01 X51.00416 Y60.50895
G01 X51.13723 Y60.45932
G01 X51.17360 Y60.45073
G01 X51.29570 Y60.43847
G01 X56.52706 Y60.43847
G01 X56.65853 Y60.41233
G01 X56.78235 Y60.36102
G01 X56.89383 Y60.28655
G01 X56.98860 Y60.19178
G01 X57.06307 Y60.08030
G01 X57.11438 Y59.95648
G01 X57.14052 Y59.82501
G01 X57.14204 Y55.88816
G01 X57.16226 Y55.74757
G01 X57.17430 Y55.70660
G01 X57.23330 Y55.57741
G01 X57.25637 Y55.54150
G01 X57.34938 Y55.43416
G01 X57.37669 Y55.40955
G01 X57.45690 Y55.35334
G01 X57.55929 Y55.25097
G01 X57.63297 Y55.13149
G01 X57.67747 Y54.99718
G01 X57.68552 Y54.91836
G01 X57.68552 Y54.03360
G01 X57.67747 Y53.95476
G01 X57.63297 Y53.82047
G01 X57.55929 Y53.70096
G01 X57.46002 Y53.60170
G01 X57.28243 Y53.49365
G01 X57.23584 Y53.47041
G01 X57.20077 Y53.44613
G01 X57.09670 Y53.34948
G01 X57.06985 Y53.31626
G01 X56.99724 Y53.19418
G01 X56.98085 Y53.15479
G01 X56.94555 Y53.01720
G01 X56.94095 Y52.97475
G01 X56.94585 Y52.83282
G01 X56.95337 Y52.79081
G01 X56.99805 Y52.65598
G01 X57.01712 Y52.61776
G01 X57.09800 Y52.50099
G01 X57.12705 Y52.46972
G01 X57.23754 Y52.38047
G01 X57.33307 Y52.32853
G01 X57.46002 Y52.25024
G01 X57.55929 Y52.15098
G01 X57.63297 Y52.03150
G01 X57.67747 Y51.89718
G01 X57.68552 Y51.81834
G01 X57.68552 Y50.93361
G01 X57.68189 Y50.88304
G01 X57.68771 Y50.74113
G01 X57.69551 Y50.69914
G01 X57.74107 Y50.56462
G01 X57.76040 Y50.52652
G01 X57.84204 Y50.41029
G01 X57.87127 Y50.37923
G01 X57.98232 Y50.29071
G01 X58.01915 Y50.26912
G01 X58.15067 Y50.21545
G01 X58.18905 Y50.20544
G01 X58.32817 Y50.18946
G01 X61.53952 Y50.18946
G01 X61.70147 Y50.21121
G01 X61.74244 Y50.22325
G01 X61.87162 Y50.28225
G01 X61.90754 Y50.30531
G01 X62.01488 Y50.39833
G01 X62.04284 Y50.43061
G01 X62.11963 Y50.55009
G01 X62.13736 Y50.58890
G01 X62.17739 Y50.72518
G01 X62.18308 Y50.75680
G01 X62.18851 Y50.83849
G01 X62.18851 Y65.85550
G01 X62.16680 Y66.01737
G01 X62.15476 Y66.05837
G01 X62.09575 Y66.18758
G01 X62.07269 Y66.22349
G01 X61.97967 Y66.33083
G01 X61.94739 Y66.35880
G01 X61.82791 Y66.43558
G01 X61.78907 Y66.45331
G01 X61.65280 Y66.49332
G01 X61.62125 Y66.49901
G01 X61.53952 Y66.50447
G01 X60.36467 Y66.50447
G01 X60.28582 Y66.51255
G01 X60.15151 Y66.55702
G01 X60.03208 Y66.63068
G01 X59.89853 Y66.73353
G01 X59.86103 Y66.75400
G01 X59.72794 Y66.80363
G01 X59.69157 Y66.81221
G01 X59.56944 Y66.82448
G01 X58.91925 Y66.82448
G01 X58.75735 Y66.80274
G01 X58.71638 Y66.79070
G01 X58.58717 Y66.73170
G01 X58.55126 Y66.70863
G01 X58.44392 Y66.61562
G01 X58.41997 Y66.58925
G01 X58.35723 Y66.49997
G01 X58.27867 Y66.36385
G01 X58.15093 Y66.19743
G01 X58.00257 Y66.04907
G01 X57.83612 Y65.92134
G01 X57.65444 Y65.81643
G01 X57.46058 Y65.73617
G01 X57.25794 Y65.68186
G01 X57.04994 Y65.65448
G01 X56.84011 Y65.65448
G01 X56.63211 Y65.68186
G01 X56.42947 Y65.73617
G01 X56.23562 Y65.81643
G01 X56.05393 Y65.92134
G01 X55.88748 Y66.04907
G01 X55.73912 Y66.19743
G01 X55.61139 Y66.36388
G01 X55.50648 Y66.54557
G01 X55.42622 Y66.73942
G01 X55.37191 Y66.94206
G01 X55.34453 Y67.15006
G01 X55.34453 Y67.85989
G01 X55.37191 Y68.06789
G01 X55.42622 Y68.27053
G01 X55.50648 Y68.46438
G01 X55.61139 Y68.64607
G01 X55.73912 Y68.81252
G01 X55.88748 Y68.96088
G01 X56.05393 Y69.08861
G01 X56.23562 Y69.19352
G01 X56.42947 Y69.27378
G01 X56.63211 Y69.32808
G01 X56.84011 Y69.35547
G01 X57.04994 Y69.35547
G01 X57.25794 Y69.32808
G01 X57.46058 Y69.27378
G01 X57.65444 Y69.19352
G01 X57.83612 Y69.08861
G01 X58.00257 Y68.96088
G01 X58.15093 Y68.81252
G01 X58.27867 Y68.64607
G01 X58.36922 Y68.49225
G01 X58.45700 Y68.38061
G01 X58.48791 Y68.35115
G01 X58.60361 Y68.26875
G01 X58.64156 Y68.24919
G01 X58.77577 Y68.20274
G01 X58.81057 Y68.19517
G01 X58.91925 Y68.18547
G01 X59.56944 Y68.18547
G01 X59.73139 Y68.20721
G01 X59.77236 Y68.21925
G01 X59.90157 Y68.27825
G01 X59.93556 Y68.29969
G01 X60.02636 Y68.37574
G01 X60.20968 Y68.48732
G01 X60.25636 Y68.51064
G01 X60.29144 Y68.53494
G01 X60.39548 Y68.63162
G01 X60.42232 Y68.66487
G01 X60.49492 Y68.78696
G01 X60.51127 Y68.82638
G01 X60.54650 Y68.96395
G01 X60.55110 Y69.00637
G01 X60.54617 Y69.14833
G01 X60.53863 Y69.19037
G01 X60.49390 Y69.32516
G01 X60.47483 Y69.36337
G01 X60.39393 Y69.48010
G01 X60.36487 Y69.51137
G01 X60.25435 Y69.60060
G01 X60.15898 Y69.65242
G01 X60.03203 Y69.73073
G01 X59.93276 Y69.82999
G01 X59.85908 Y69.94947
G01 X59.81458 Y70.08376
G01 X59.80653 Y70.16260
G01 X59.80653 Y71.04736
G01 X59.81458 Y71.12618
G01 X59.85908 Y71.26049
G01 X59.93276 Y71.37997
G01 X60.03203 Y71.47921
G01 X60.06060 Y71.49864
G01 X60.16964 Y71.58965
G01 X60.19817 Y71.62137
G01 X60.27716 Y71.73941
G01 X60.29563 Y71.77791
G01 X60.33817 Y71.91345
G01 X60.34457 Y71.94629
G01 X60.35105 Y72.02643
G01 X60.35153 Y72.63100
G01 X60.37767 Y72.76247
G01 X60.42898 Y72.88629
G01 X60.50345 Y72.99778
G01 X65.57957 Y78.07389
G01 X65.68642 Y78.16889
G01 X65.71436 Y78.20216
G01 X65.78901 Y78.32299
G01 X65.80608 Y78.36215
G01 X65.84365 Y78.49914
G01 X65.84896 Y78.54145
G01 X65.84644 Y78.68344
G01 X65.83961 Y78.72560
G01 X65.79717 Y78.86116
G01 X65.77873 Y78.89969
G01 X65.69981 Y79.01778
G01 X65.67128 Y79.04953
G01 X65.61091 Y79.10000
G01 X65.56229 Y79.14061
G01 X65.52600 Y79.16304
G01 X65.39577 Y79.21973
G01 X65.35592 Y79.23086
G01 X65.20387 Y79.24999
G01 X-1.60100 Y79.24999
G01 X-1.76290 Y79.22824
G01 X-1.80387 Y79.21620
G01 X-1.93308 Y79.15720
G01 X-1.96899 Y79.13414
G01 X-2.07633 Y79.04112
G01 X-2.10430 Y79.00884
G01 X-2.18108 Y78.88936
G01 X-2.19881 Y78.85052
G01 X-2.23882 Y78.71425
G01 X-2.24451 Y78.68270
G01 X-2.24997 Y78.60099
G01 X-2.24997 Y2.59898
G01 X-2.22825 Y2.43706
G01 X-2.21621 Y2.39606
G01 X-2.15721 Y2.26688
G01 X-2.13414 Y2.23096
G01 X-2.04113 Y2.12362
G01 X-2.00884 Y2.09568
G01 X-1.88936 Y2.01890
G01 X-1.85055 Y2.00117
G01 X-1.71428 Y1.96114
G01 X-1.68266 Y1.95545
G01 X-1.60100 Y1.95001
G01 X147.40102 Y1.95001
G01 X147.56294 Y1.97173
G01 X147.60394 Y1.98377
G01 X147.73312 Y2.04277
G01 X147.76904 Y2.06584
G01 X147.87638 Y2.15883
G01 X147.90432 Y2.19111
G01 X147.98110 Y2.31059
G01 X147.99883 Y2.34940
G01 X148.03886 Y2.48567
G01 X148.04455 Y2.51730
G01 X148.04999 Y2.59898
G04 P0 ( dwell for no time -- G64 should not smooth over this point )
G00 Z5.00000 ( retract )
(Block-name: block)
(Block-expand: 0)
(Block-enable: 1)

G00 X143.13529 Y9.48929 ( rapid move to begin. )
G01 F200.00000
( Mill infeed pass 1/1 )
G01 Z-0.10000
G04 P0 ( dwell for no time -- G64 should not smooth over this point )
G01 F400.00000
G01 X143.13529 Y9.48929
G01 X143.13529 Y9.51868
G01 X143.11126 Y9.76255
G01 X143.10555 Y9.79140
G01 X143.03440 Y10.02589
G01 X143.02315 Y10.05304
G01 X142.90763 Y10.26915
G01 X142.89130 Y10.29361
G01 X142.73585 Y10.48304
G01 X142.71505 Y10.50382
G01 X142.52564 Y10.65927
G01 X142.50118 Y10.67562
G01 X142.28508 Y10.79112
G01 X142.25790 Y10.80237
G01 X142.02343 Y10.87352
G01 X141.99458 Y10.87926
G01 X141.75071 Y10.90326
G01 X141.72130 Y10.90326
G01 X141.47746 Y10.87926
G01 X141.36603 Y10.84845
G01 X141.36603 Y12.04400
G01 X141.35091 Y12.20501
G01 X141.34515 Y12.23384
G01 X141.29125 Y12.40171
G01 X141.20558 Y12.55583
G01 X141.11231 Y12.66947
G01 X140.58350 Y13.19828
G01 X140.46986 Y13.29154
G01 X140.31574 Y13.37719
G01 X140.28856 Y13.38845
G01 X140.11904 Y13.43686
G01 X139.95800 Y13.45200
G01 X138.50091 Y13.45200
G01 X138.44084 Y13.48083
G01 X138.28138 Y13.52919
G01 X138.25255 Y13.53493
G01 X138.07200 Y13.55200
G01 X137.25730 Y13.55126
G01 X137.06263 Y13.52919
G01 X136.90320 Y13.48083
G01 X136.84313 Y13.45200
G01 X134.43691 Y13.45200
G01 X134.37684 Y13.48083
G01 X134.21738 Y13.52919
G01 X134.18855 Y13.53493
G01 X134.00800 Y13.55200
G01 X133.19330 Y13.55126
G01 X132.99863 Y13.52919
G01 X132.83920 Y13.48083
G01 X132.77913 Y13.45200
G01 X130.37291 Y13.45200
G01 X130.31284 Y13.48083
G01 X130.15338 Y13.52919
G01 X130.12455 Y13.53493
G01 X129.94400 Y13.55200
G01 X129.12930 Y13.55126
G01 X128.93463 Y13.52919
G01 X128.77520 Y13.48083
G01 X128.71513 Y13.45200
G01 X126.30891 Y13.45200
G01 X126.24884 Y13.48083
G01 X126.08938 Y13.52919
G01 X126.06055 Y13.53493
G01 X125.88000 Y13.55200
G01 X125.06530 Y13.55126
G01 X124.87063 Y13.52919
G01 X124.71120 Y13.48083
G01 X124.65113 Y13.45200
G01 X122.24491 Y13.45200
G01 X122.18484 Y13.48083
G01 X122.02538 Y13.52919
G01 X121.99655 Y13.53493
G01 X121.81600 Y13.55200
G01 X121.00130 Y13.55126
G01 X120.80663 Y13.52919
G01 X120.64720 Y13.48083
G01 X120.58713 Y13.45200
G01 X118.18091 Y13.45200
G01 X118.12084 Y13.48083
G01 X117.96138 Y13.52919
G01 X117.93255 Y13.53493
G01 X117.75200 Y13.55200
G01 X116.93730 Y13.55126
G01 X116.74263 Y13.52919
G01 X116.58320 Y13.48083
G01 X116.52313 Y13.45200
G01 X114.11691 Y13.45200
G01 X114.05684 Y13.48083
G01 X113.89738 Y13.52919
G01 X113.86855 Y13.53493
G01 X113.68800 Y13.55200
G01 X112.87330 Y13.55126
G01 X112.67863 Y13.52919
G01 X112.51920 Y13.48083
G01 X112.45913 Y13.45200
G01 X110.05291 Y13.45200
G01 X109.99284 Y13.48083
G01 X109.83338 Y13.52919
G01 X109.80455 Y13.53493
G01 X109.62400 Y13.55200
G01 X108.80930 Y13.55126
G01 X108.61463 Y13.52919
G01 X108.45520 Y13.48083
G01 X108.39513 Y13.45200
G01 X107.56480 Y13.45200
G01 X107.32040 Y13.69637
G01 X107.19586 Y13.79954
G01 X107.17140 Y13.81588
G01 X107.04174 Y13.88519
G01 X106.87387 Y13.93912
G01 X106.84504 Y13.94486
G01 X106.68400 Y13.96000
G01 X105.17052 Y13.96000
G01 X105.00951 Y13.94486
G01 X104.89125 Y13.91199
G01 X104.53501 Y13.91199
G01 X104.47154 Y13.90645
G01 X104.39579 Y13.88649
G01 X104.32541 Y13.85215
G01 X104.26308 Y13.80473
G01 X104.24228 Y13.78392
G01 X104.19486 Y13.72159
G01 X104.16051 Y13.65121
G01 X104.14626 Y13.60429
G01 X104.13572 Y13.52670
G01 X104.13572 Y12.57229
G01 X104.14626 Y12.49467
G01 X104.17177 Y12.42060
G01 X104.19486 Y12.37737
G01 X104.24228 Y12.31504
G01 X104.30095 Y12.26318
G01 X104.36864 Y12.22373
G01 X104.39579 Y12.21248
G01 X104.47154 Y12.19251
G01 X104.53501 Y12.18698
G01 X104.96046 Y12.18698
G01 X105.00951 Y12.17511
G01 X105.17052 Y12.15997
G01 X106.31123 Y12.15997
G01 X106.55563 Y11.91560
G01 X106.68017 Y11.81243
G01 X106.83430 Y11.72678
G01 X106.86147 Y11.71553
G01 X107.03099 Y11.66711
G01 X107.19200 Y11.65197
G01 X108.39513 Y11.65197
G01 X108.45520 Y11.62315
G01 X108.61463 Y11.57478
G01 X108.64349 Y11.56904
G01 X108.82400 Y11.55197
G01 X109.63871 Y11.55271
G01 X109.83338 Y11.57478
G01 X109.99284 Y11.62315
G01 X110.05291 Y11.65197
G01 X112.45913 Y11.65197
G01 X112.51920 Y11.62315
G01 X112.67863 Y11.57478
G01 X112.70749 Y11.56904
G01 X112.88801 Y11.55197
G01 X113.70271 Y11.55271
G01 X113.89738 Y11.57478
G01 X114.05684 Y11.62315
G01 X114.11691 Y11.65197
G01 X116.52313 Y11.65197
G01 X116.58320 Y11.62315
G01 X116.74263 Y11.57478
G01 X116.77149 Y11.56904
G01 X116.95200 Y11.55197
G01 X117.76671 Y11.55271
G01 X117.96138 Y11.57478
G01 X118.12084 Y11.62315
G01 X118.18091 Y11.65197
G01 X120.58713 Y11.65197
G01 X120.64720 Y11.62315
G01 X120.80663 Y11.57478
G01 X120.83549 Y11.56904
G01 X121.01601 Y11.55197
G01 X121.83071 Y11.55271
G01 X122.02538 Y11.57478
G01 X122.18484 Y11.62315
G01 X122.24491 Y11.65197
G01 X124.65113 Y11.65197
G01 X124.71120 Y11.62315
G01 X124.87063 Y11.57478
G01 X124.89949 Y11.56904
G01 X125.08000 Y11.55197
G01 X125.89471 Y11.55271
G01 X126.08938 Y11.57478
G01 X126.24884 Y11.62315
G01 X126.30891 Y11.65197
G01 X128.71513 Y11.65197
G01 X128.77520 Y11.62315
G01 X128.93463 Y11.57478
G01 X128.96349 Y11.56904
G01 X129.14400 Y11.55197
G01 X129.95871 Y11.55271
G01 X130.15338 Y11.57478
G01 X130.31284 Y11.62315
G01 X130.37291 Y11.65197
G01 X132.77913 Y11.65197
G01 X132.83920 Y11.62315
G01 X132.99863 Y11.57478
G01 X133.02749 Y11.56904
G01 X133.20800 Y11.55197
G01 X134.02271 Y11.55271
G01 X134.21738 Y11.57478
G01 X134.37684 Y11.62315
G01 X134.43691 Y11.65197
G01 X136.84313 Y11.65197
G01 X136.90320 Y11.62315
G01 X137.06263 Y11.57478
G01 X137.09149 Y11.56904
G01 X137.27201 Y11.55197
G01 X138.08671 Y11.55271
G01 X138.28138 Y11.57478
G01 X138.44084 Y11.62315
G01 X138.50091 Y11.65197
G01 X139.56601 Y11.65197
G01 X139.56601 Y7.84477
G01 X138.95023 Y7.22900
G01 X15.63603 Y7.22900
G01 X15.63603 Y7.61431
G01 X15.66453 Y7.63283
G01 X15.89183 Y7.81937
G01 X15.91263 Y7.84017
G01 X16.09917 Y8.06748
G01 X16.11550 Y8.09191
G01 X16.25411 Y8.35124
G01 X16.26536 Y8.37842
G01 X16.35073 Y8.65980
G01 X16.35647 Y8.68866
G01 X16.38530 Y8.98129
G01 X16.38530 Y9.01068
G01 X16.35647 Y9.30331
G01 X16.35073 Y9.33217
G01 X16.26536 Y9.61355
G01 X16.25411 Y9.64073
G01 X16.11550 Y9.90006
G01 X16.09917 Y9.92450
G01 X15.91263 Y10.15180
G01 X15.89183 Y10.17260
G01 X15.66453 Y10.35914
G01 X15.64007 Y10.37547
G01 X15.38076 Y10.51411
G01 X15.35358 Y10.52536
G01 X15.07220 Y10.61070
G01 X15.04334 Y10.61644
G01 X14.75071 Y10.64527
G01 X14.72130 Y10.64527
G01 X14.42866 Y10.61644
G01 X14.39984 Y10.61070
G01 X14.11845 Y10.52536
G01 X14.09128 Y10.51411
G01 X13.83194 Y10.37547
G01 X13.80751 Y10.35914
G01 X13.58020 Y10.17260
G01 X13.55940 Y10.15180
G01 X13.37286 Y9.92450
G01 X13.35435 Y9.89600
G01 X13.06969 Y9.89600
G01 X13.05117 Y9.92450
G01 X12.86463 Y10.15180
G01 X12.84383 Y10.17260
G01 X12.61653 Y10.35914
G01 X12.59207 Y10.37547
G01 X12.33276 Y10.51411
G01 X12.30558 Y10.52536
G01 X12.02420 Y10.61070
G01 X11.99534 Y10.61644
G01 X11.70271 Y10.64527
G01 X11.67330 Y10.64527
G01 X11.38066 Y10.61644
G01 X11.35184 Y10.61070
G01 X11.07045 Y10.52536
G01 X11.04328 Y10.51411
G01 X10.78394 Y10.37547
G01 X10.75951 Y10.35914
G01 X10.53220 Y10.17260
G01 X10.51140 Y10.15180
G01 X10.32486 Y9.92450
G01 X10.30853 Y9.90006
G01 X10.16990 Y9.64073
G01 X10.15864 Y9.61355
G01 X10.07330 Y9.33217
G01 X10.06756 Y9.30331
G01 X10.03873 Y9.01068
G01 X10.03873 Y8.98129
G01 X10.06756 Y8.68866
G01 X10.07330 Y8.65980
G01 X10.15864 Y8.37842
G01 X10.16990 Y8.35124
G01 X10.30853 Y8.09191
G01 X10.32486 Y8.06748
G01 X10.51140 Y7.84017
G01 X10.53220 Y7.81937
G01 X10.75951 Y7.63283
G01 X10.78801 Y7.61431
G01 X10.78801 Y7.22900
G01 X9.90180 Y7.22900
G01 X7.45474 Y9.67606
G01 X7.45474 Y12.05032
G01 X7.48324 Y12.06884
G01 X7.71054 Y12.25538
G01 X7.73132 Y12.27618
G01 X7.91786 Y12.50348
G01 X7.93421 Y12.52792
G01 X8.07282 Y12.78725
G01 X8.08407 Y12.81443
G01 X8.16944 Y13.09581
G01 X8.17516 Y13.12464
G01 X8.20399 Y13.41727
G01 X8.20399 Y13.44669
G01 X8.17516 Y13.73932
G01 X8.16944 Y13.76818
G01 X8.08407 Y14.04956
G01 X8.07282 Y14.07671
G01 X7.93421 Y14.33604
G01 X7.91786 Y14.36050
G01 X7.73132 Y14.58781
G01 X7.71054 Y14.60861
G01 X7.48324 Y14.79515
G01 X7.45474 Y14.81364
G01 X7.45474 Y23.70389
G01 X10.80800 Y27.05718
G01 X45.80734 Y27.05718
G01 X45.82591 Y27.02868
G01 X46.01240 Y26.80137
G01 X46.03320 Y26.78057
G01 X46.26055 Y26.59403
G01 X46.28900 Y26.57552
G01 X46.28900 Y24.85898
G01 X44.46714 Y24.85898
G01 X44.39965 Y24.91164
G01 X44.32921 Y24.94600
G01 X44.25350 Y24.96597
G01 X44.19002 Y24.97148
G01 X42.94001 Y24.97148
G01 X42.84771 Y24.96023
G01 X42.77364 Y24.93475
G01 X42.70595 Y24.89531
G01 X42.66808 Y24.86422
G01 X42.64728 Y24.84341
G01 X42.59986 Y24.78108
G01 X42.57677 Y24.73788
G01 X42.55126 Y24.66381
G01 X42.54072 Y24.58619
G01 X42.54004 Y23.64649
G01 X42.54555 Y23.58302
G01 X42.56554 Y23.50727
G01 X42.59986 Y23.43689
G01 X42.64728 Y23.37456
G01 X42.66808 Y23.35375
G01 X42.73041 Y23.30633
G01 X42.80079 Y23.27197
G01 X42.87654 Y23.25200
G01 X42.92531 Y23.24720
G01 X44.19002 Y23.24649
G01 X44.25350 Y23.25200
G01 X44.32921 Y23.27197
G01 X44.39965 Y23.30633
G01 X44.46714 Y23.35899
G01 X45.89881 Y23.35899
G01 X45.89881 Y23.00499
G01 X45.90170 Y22.97573
G01 X45.91024 Y22.94758
G01 X45.92408 Y22.92165
G01 X45.94275 Y22.89892
G01 X45.96551 Y22.88027
G01 X45.99142 Y22.86641
G01 X46.01958 Y22.85787
G01 X46.04882 Y22.85497
G01 X48.54881 Y22.85497
G01 X48.57808 Y22.85787
G01 X48.60622 Y22.86641
G01 X48.63215 Y22.88027
G01 X48.65488 Y22.89892
G01 X48.67353 Y22.92165
G01 X48.68740 Y22.94758
G01 X48.69593 Y22.97573
G01 X48.69880 Y23.10499
G01 X49.29202 Y23.10499
G01 X49.29202 Y21.13400
G01 X49.31000 Y20.97339
G01 X49.34414 Y20.86082
G01 X49.41084 Y20.72993
G01 X49.42717 Y20.70547
G01 X49.52260 Y20.59377
G01 X49.61351 Y20.51914
G01 X49.74170 Y20.44736
G01 X49.76885 Y20.43611
G01 X49.91025 Y20.39623
G01 X50.04200 Y20.38399
G01 X51.48544 Y20.38399
G01 X51.50535 Y20.35892
G01 X51.52808 Y20.34027
G01 X51.55402 Y20.32640
G01 X51.58216 Y20.31787
G01 X51.61142 Y20.31497
G01 X54.11141 Y20.31497
G01 X54.14068 Y20.31787
G01 X54.16882 Y20.32640
G01 X54.19475 Y20.34027
G01 X54.21748 Y20.35892
G01 X54.23737 Y20.38399
G01 X55.90737 Y20.38399
G01 X55.95045 Y20.34766
G01 X56.01814 Y20.30822
G01 X56.09221 Y20.28274
G01 X56.16981 Y20.27220
G01 X57.43452 Y20.27149
G01 X57.52683 Y20.28274
G01 X57.60089 Y20.30822
G01 X57.66856 Y20.34766
G01 X57.72723 Y20.39956
G01 X57.77468 Y20.46189
G01 X57.80902 Y20.53227
G01 X57.82898 Y20.60801
G01 X57.83378 Y20.65678
G01 X57.83452 Y21.59648
G01 X57.82898 Y21.65996
G01 X57.82324 Y21.68881
G01 X57.79777 Y21.76288
G01 X57.77468 Y21.80608
G01 X57.72723 Y21.86841
G01 X57.70645 Y21.88922
G01 X57.64412 Y21.93664
G01 X57.60089 Y21.95975
G01 X57.52683 Y21.98523
G01 X57.43452 Y21.99648
G01 X56.18451 Y21.99648
G01 X56.12104 Y21.99097
G01 X56.04529 Y21.97100
G01 X55.97491 Y21.93664
G01 X55.90737 Y21.88398
G01 X54.26140 Y21.88398
G01 X54.26140 Y22.16498
G01 X54.25853 Y22.19424
G01 X54.25000 Y22.22239
G01 X54.23613 Y22.24832
G01 X54.21748 Y22.27105
G01 X54.19475 Y22.28970
G01 X54.16882 Y22.30357
G01 X54.14068 Y22.31210
G01 X54.11141 Y22.31500
G01 X51.61142 Y22.31500
G01 X51.58216 Y22.31210
G01 X51.55402 Y22.30357
G01 X51.52808 Y22.28970
G01 X51.50535 Y22.27105
G01 X51.48668 Y22.24832
G01 X51.47284 Y22.22239
G01 X51.46430 Y22.19424
G01 X51.46141 Y22.16498
G01 X51.46141 Y21.88398
G01 X50.79202 Y21.88398
G01 X50.79130 Y23.86968
G01 X50.77977 Y23.98675
G01 X50.73989 Y24.12815
G01 X50.67319 Y24.25904
G01 X50.58224 Y24.37440
G01 X50.47053 Y24.46983
G01 X50.44607 Y24.48616
G01 X50.31518 Y24.55286
G01 X50.17378 Y24.59274
G01 X50.04200 Y24.60498
G01 X48.69880 Y24.60498
G01 X48.69880 Y24.70498
G01 X48.69593 Y24.73424
G01 X48.68740 Y24.76239
G01 X48.67353 Y24.78832
G01 X48.65488 Y24.81105
G01 X48.63215 Y24.82970
G01 X48.60622 Y24.84357
G01 X48.57808 Y24.85210
G01 X48.54881 Y24.85500
G01 X48.08902 Y24.85500
G01 X48.08902 Y26.57552
G01 X48.11752 Y26.59403
G01 X48.34483 Y26.78057
G01 X48.36563 Y26.80137
G01 X48.55217 Y27.02868
G01 X48.56850 Y27.05311
G01 X48.70713 Y27.31245
G01 X48.71838 Y27.33962
G01 X48.80373 Y27.62101
G01 X48.80947 Y27.64986
G01 X48.83830 Y27.94247
G01 X48.83830 Y27.97188
G01 X48.80947 Y28.26451
G01 X48.80373 Y28.29334
G01 X48.71838 Y28.57475
G01 X48.70713 Y28.60193
G01 X48.56850 Y28.86126
G01 X48.55217 Y28.88570
G01 X48.36563 Y29.11300
G01 X48.34483 Y29.13380
G01 X48.11752 Y29.32034
G01 X48.09309 Y29.33667
G01 X47.83375 Y29.47531
G01 X47.80658 Y29.48656
G01 X47.52519 Y29.57190
G01 X47.49634 Y29.57764
G01 X47.20371 Y29.60647
G01 X47.17432 Y29.60647
G01 X46.88169 Y29.57764
G01 X46.85283 Y29.57190
G01 X46.57145 Y29.48656
G01 X46.54427 Y29.47531
G01 X46.28494 Y29.33667
G01 X46.26055 Y29.32034
G01 X46.03320 Y29.13380
G01 X46.01240 Y29.11300
G01 X45.82591 Y28.88570
G01 X45.80734 Y28.85720
G01 X10.43520 Y28.85720
G01 X10.27419 Y28.84206
G01 X10.10464 Y28.79365
G01 X9.94782 Y28.71308
G01 X9.92336 Y28.69672
G01 X9.79880 Y28.59355
G01 X5.91832 Y24.71306
G01 X5.81517 Y24.58850
G01 X5.79884 Y24.56406
G01 X5.71827 Y24.40722
G01 X5.66986 Y24.23770
G01 X5.65472 Y24.07669
G01 X5.65472 Y14.81367
G01 X5.62619 Y14.79515
G01 X5.39889 Y14.60861
G01 X5.37811 Y14.58781
G01 X5.19155 Y14.36050
G01 X5.17522 Y14.33604
G01 X5.03661 Y14.07671
G01 X5.02536 Y14.04956
G01 X4.93999 Y13.76818
G01 X4.93425 Y13.73932
G01 X4.90544 Y13.44669
G01 X4.90544 Y13.41727
G01 X4.93425 Y13.12464
G01 X4.93999 Y13.09581
G01 X5.02536 Y12.81443
G01 X5.03661 Y12.78725
G01 X5.17522 Y12.52792
G01 X5.19155 Y12.50348
G01 X5.37811 Y12.27618
G01 X5.39889 Y12.25538
G01 X5.62619 Y12.06884
G01 X5.65472 Y12.05032
G01 X5.65472 Y9.30329
G01 X5.66986 Y9.14225
G01 X5.67560 Y9.11342
G01 X5.72952 Y8.94555
G01 X5.79884 Y8.81589
G01 X5.81517 Y8.79143
G01 X5.91834 Y8.66689
G01 X8.90353 Y5.68270
G01 X9.04163 Y5.57309
G01 X9.19847 Y5.49253
G01 X9.36799 Y5.44411
G01 X9.52900 Y5.42897
G01 X139.32300 Y5.42897
G01 X139.48404 Y5.44411
G01 X139.65356 Y5.49253
G01 X139.68074 Y5.50378
G01 X139.83487 Y5.58943
G01 X139.95940 Y5.69260
G01 X141.10240 Y6.83560
G01 X141.20558 Y6.96014
G01 X141.29125 Y7.11426
G01 X141.30248 Y7.14144
G01 X141.35091 Y7.31096
G01 X141.36603 Y7.47200
G01 X141.36603 Y8.15953
G01 X141.47746 Y8.12872
G01 X141.72130 Y8.10471
G01 X141.75071 Y8.10471
G01 X141.99458 Y8.12872
G01 X142.02343 Y8.13446
G01 X142.25790 Y8.20560
G01 X142.28508 Y8.21685
G01 X142.50118 Y8.33237
G01 X142.52564 Y8.34870
G01 X142.71505 Y8.50415
G01 X142.73585 Y8.52493
G01 X142.89130 Y8.71434
G01 X142.90763 Y8.73882
G01 X143.02315 Y8.95493
G01 X143.03440 Y8.98208
G01 X143.10555 Y9.21657
G01 X143.11126 Y9.24543
G01 X143.13529 Y9.48929
G04 P0 ( dwell for no time -- G64 should not smooth over this point )
G00 Z5.00000 ( retract )
(Block-name: block)
(Block-expand: 0)
(Block-enable: 1)

G00 X139.32971 Y8.18736 ( rapid move to begin. )
G01 F200.00000
( Mill infeed pass 1/1 )
G01 Z-0.10000
G04 P0 ( dwell for no time -- G64 should not smooth over this point )
G01 F400.00000
G01 X139.32971 Y8.18736
G01 X139.32666 Y8.22996
G01 X139.29646 Y8.36875
G01 X139.28155 Y8.40875
G01 X139.21348 Y8.53341
G01 X139.18790 Y8.56758
G01 X139.08750 Y8.66801
G01 X139.05331 Y8.69361
G01 X138.92864 Y8.76168
G01 X138.88861 Y8.77659
G01 X138.74983 Y8.80677
G01 X138.68237 Y8.81147
G01 X136.38222 Y8.81147
G01 X136.34932 Y8.81502
G01 X136.17983 Y8.87659
G01 X136.04104 Y8.90677
G01 X135.97894 Y8.91137
G01 X135.28512 Y8.90994
G01 X135.14455 Y8.88972
G01 X135.11430 Y8.88210
G01 X134.93119 Y8.81507
G01 X134.89784 Y8.81147
G01 X132.31822 Y8.81147
G01 X132.28532 Y8.81502
G01 X132.11583 Y8.87659
G01 X131.97704 Y8.90677
G01 X131.90958 Y8.91147
G01 X131.22112 Y8.90994
G01 X131.08053 Y8.88972
G01 X131.05030 Y8.88210
G01 X130.86719 Y8.81507
G01 X130.83384 Y8.81147
G01 X128.25422 Y8.81147
G01 X128.22132 Y8.81502
G01 X128.05183 Y8.87659
G01 X127.91304 Y8.90677
G01 X127.84558 Y8.91147
G01 X127.15712 Y8.90994
G01 X127.01653 Y8.88972
G01 X126.98630 Y8.88210
G01 X126.80319 Y8.81507
G01 X126.76984 Y8.81147
G01 X124.19022 Y8.81147
G01 X124.15732 Y8.81502
G01 X123.98783 Y8.87659
G01 X123.84904 Y8.90677
G01 X123.78158 Y8.91147
G01 X123.09312 Y8.90994
G01 X122.95253 Y8.88972
G01 X122.92230 Y8.88210
G01 X122.73919 Y8.81507
G01 X122.70584 Y8.81147
G01 X120.12622 Y8.81147
G01 X120.09332 Y8.81502
G01 X119.92383 Y8.87659
G01 X119.78504 Y8.90677
G01 X119.71758 Y8.91147
G01 X119.02912 Y8.90994
G01 X118.88853 Y8.88972
G01 X118.85830 Y8.88210
G01 X118.67519 Y8.81507
G01 X118.64184 Y8.81147
G01 X116.06222 Y8.81147
G01 X116.02932 Y8.81502
G01 X115.85983 Y8.87659
G01 X115.72104 Y8.90677
G01 X115.65358 Y8.91147
G01 X114.96512 Y8.90994
G01 X114.82453 Y8.88972
G01 X114.79430 Y8.88210
G01 X114.61119 Y8.81507
G01 X114.57784 Y8.81147
G01 X111.99822 Y8.81147
G01 X111.96532 Y8.81502
G01 X111.79583 Y8.87659
G01 X111.65704 Y8.90677
G01 X111.58958 Y8.91147
G01 X110.90112 Y8.90994
G01 X110.76053 Y8.88972
G01 X110.73030 Y8.88210
G01 X110.54719 Y8.81507
G01 X110.51384 Y8.81147
G01 X107.93422 Y8.81147
G01 X107.90132 Y8.81502
G01 X107.79485 Y8.85472
G01 X107.65177 Y8.93280
G01 X107.49178 Y8.96928
G01 X107.42962 Y8.97387
G01 X102.72491 Y8.97398
G01 X102.55381 Y9.00108
G01 X102.38907 Y9.05460
G01 X102.23474 Y9.13323
G01 X102.09461 Y9.23506
G01 X101.83710 Y9.49041
G01 X101.72341 Y9.57552
G01 X101.68592 Y9.59600
G01 X101.55285 Y9.64563
G01 X101.51648 Y9.65421
G01 X101.41041 Y9.66562
G01 X100.87566 Y9.66648
G01 X100.77713 Y9.67525
G01 X100.60990 Y9.72307
G01 X100.45658 Y9.80316
G01 X100.32252 Y9.91248
G01 X100.21323 Y10.04654
G01 X100.13314 Y10.19986
G01 X100.08529 Y10.36707
G01 X100.07652 Y10.46562
G01 X100.07652 Y13.36835
G01 X100.08529 Y13.46688
G01 X100.13314 Y13.63411
G01 X100.21323 Y13.78743
G01 X100.32252 Y13.92146
G01 X100.45658 Y14.03079
G01 X100.60990 Y14.11087
G01 X100.77713 Y14.15873
G01 X100.87563 Y14.16746
G01 X101.97843 Y14.16746
G01 X102.07693 Y14.15873
G01 X102.24416 Y14.11087
G01 X102.39747 Y14.03079
G01 X102.53151 Y13.92146
G01 X102.64037 Y13.78796
G01 X102.73537 Y13.60173
G01 X102.80995 Y13.47194
G01 X102.83631 Y13.43836
G01 X102.93903 Y13.34026
G01 X102.97378 Y13.31547
G01 X103.09996 Y13.25030
G01 X103.14032 Y13.23627
G01 X103.27977 Y13.20930
G01 X103.32239 Y13.20724
G01 X103.46379 Y13.22063
G01 X103.50530 Y13.23066
G01 X103.63717 Y13.28334
G01 X103.67415 Y13.30465
G01 X103.78589 Y13.39236
G01 X103.81540 Y13.42327
G01 X103.89788 Y13.53892
G01 X103.91401 Y13.56785
G01 X103.94842 Y13.65085
G01 X103.98708 Y13.76749
G01 X104.06077 Y13.88697
G01 X104.16003 Y13.98623
G01 X104.27951 Y14.05992
G01 X104.41383 Y14.10442
G01 X104.49264 Y14.11247
G01 X104.76460 Y14.11351
G01 X104.88772 Y14.12825
G01 X105.08431 Y14.16048
G01 X106.77064 Y14.16048
G01 X106.92050 Y14.13830
G01 X107.06251 Y14.13627
G01 X107.10486 Y14.14173
G01 X107.24169 Y14.17978
G01 X107.28078 Y14.19695
G01 X107.40135 Y14.27204
G01 X107.43402 Y14.29954
G01 X107.52855 Y14.40554
G01 X107.55215 Y14.44112
G01 X107.61298 Y14.56947
G01 X107.62558 Y14.61024
G01 X107.64781 Y14.75052
G01 X107.64928 Y14.78471
G01 X107.64318 Y14.86990
G01 X107.62352 Y14.99748
G01 X107.62352 Y15.18646
G01 X107.65309 Y15.37313
G01 X107.71146 Y15.55278
G01 X107.79726 Y15.72116
G01 X107.90833 Y15.87404
G01 X108.04153 Y16.00724
G01 X108.32434 Y16.20927
G01 X108.35461 Y16.23805
G01 X108.44295 Y16.34927
G01 X108.46449 Y16.38618
G01 X108.51788 Y16.51780
G01 X108.52779 Y16.55600
G01 X108.54351 Y16.69413
G01 X108.54351 Y17.57249
G01 X108.52180 Y17.73439
G01 X108.50976 Y17.77538
G01 X108.45075 Y17.90457
G01 X108.42769 Y17.94048
G01 X108.33467 Y18.04782
G01 X108.30239 Y18.07579
G01 X108.18291 Y18.15257
G01 X108.14410 Y18.17030
G01 X108.00783 Y18.21033
G01 X107.90524 Y18.22110
G01 X97.21900 Y18.22148
G01 X97.08755 Y18.24762
G01 X96.92738 Y18.31394
G01 X96.82850 Y18.34574
G01 X96.78667 Y18.35445
G01 X96.64491 Y18.36332
G01 X96.60239 Y18.35991
G01 X96.46391 Y18.32852
G01 X96.42400 Y18.31325
G01 X96.29995 Y18.24409
G01 X96.26599 Y18.21818
G01 X96.16645 Y18.11686
G01 X96.14120 Y18.08247
G01 X96.07422 Y17.95722
G01 X96.05962 Y17.91709
G01 X96.03066 Y17.77805
G01 X96.02660 Y17.72100
G01 X96.02652 Y16.58359
G01 X96.01847 Y16.50477
G01 X95.97399 Y16.37046
G01 X95.89426 Y16.23830
G01 X95.83765 Y16.10805
G01 X95.82657 Y16.06825
G01 X95.80887 Y15.93655
G01 X95.80752 Y15.77686
G01 X95.82929 Y15.61491
G01 X95.84133 Y15.57394
G01 X95.90031 Y15.44473
