( pcb2gcode 2.5.0 )
( Software-independent Gcode )

( This file uses only one drill bit. Forced by 'onedrill' option )

G94       (Millimeters per minute feed rate.)
G21       (Units == Millimeters.)
G91.1     (Incremental arc distance mode.)
G90       (Absolute coordinates.)
G00 S10000     (RPM spindle speed.)

G00 Z10.00000 (Retract)
T1
M5      (Spindle stop.)
G04 P1.00000
(MSG, Change tool bit to drill size 1mm)
M6      (Tool change.)
M0      (Temporary machine stop.)
M3      (Spindle on clockwise.)
G0 Z5.00000
G04 P1.00000

G81 R5.00000 Z-3.00000 F500.00000 X7.55500 Y12.43200
X12.68800 Y7.99600
X15.73600 Y7.99600
X24.55500 Y12.43200
X48.29900 Y20.31500
X48.29900 Y22.85500
X53.86100 Y20.31500
X53.86100 Y22.85500
X48.18900 Y26.95700
X53.83100 Y37.20100
X53.83100 Y39.74100
X48.24800 Y37.20600
X48.24800 Y39.74600
X48.06200 Y44.02600
X48.06000 Y50.62600
X48.06000 Y53.16600
X48.06000 Y55.70600
X38.53000 Y50.62600
X38.53000 Y53.16600
X38.53000 Y55.70600
X24.55500 Y52.43200
X15.73600 Y56.51000
X12.68800 Y56.51000
X7.55500 Y52.43200
X10.33800 Y62.46200
X10.33800 Y68.76200
X15.13800 Y65.36200
X22.68800 Y68.76200
X22.68800 Y62.46200
X27.48800 Y65.36200
X34.12500 Y66.49800
X39.12500 Y71.49800
X44.12500 Y66.49800
X47.94500 Y66.50500
X52.94500 Y71.50500
X57.94500 Y66.50500
X68.56800 Y65.40000
X73.14000 Y70.73400
X70.60000 Y70.73400
X73.14000 Y65.40000
X76.95000 Y65.40000
X84.39600 Y73.27400
X84.39600 Y70.73400
X84.39600 Y68.19400
X84.39600 Y65.65400
X84.39600 Y63.11400
X75.68000 Y55.49400
X73.14000 Y55.49400
X70.60000 Y55.49400
X70.60000 Y59.30400
X73.14000 Y59.30400
X75.68000 Y59.30400
X84.39600 Y60.57400
X84.39600 Y58.03400
X84.39600 Y55.49400
X84.39600 Y52.95400
X84.39600 Y50.41400
X84.39600 Y47.87400
X84.39600 Y45.33400
X84.39600 Y42.79400
X84.39600 Y40.25400
X84.39600 Y37.71400
X84.39600 Y35.17400
X84.39600 Y32.63400
X84.39600 Y30.09400
X84.39600 Y27.55400
X84.39600 Y25.01400
X102.17600 Y25.01400
X102.17600 Y27.55400
X102.17600 Y30.09400
X102.17600 Y32.63400
X102.17600 Y35.17400
X102.17600 Y37.71400
X102.17600 Y40.25400
X93.28600 Y49.14400
X102.17600 Y42.79400
X102.17600 Y45.33400
X102.17600 Y47.87400
X102.17600 Y50.41400
X102.17600 Y52.95400
X102.17600 Y55.49400
X102.17600 Y58.03400
X102.17600 Y60.57400
X102.17600 Y63.11400
X102.17600 Y65.65400
X102.17600 Y68.19400
X102.17600 Y70.73400
X102.17600 Y73.27400
X117.97100 Y69.59100
X116.06600 Y74.03600
X118.60600 Y74.03600
X121.14600 Y74.03600
X123.68600 Y74.03600
X126.22600 Y74.03600
X128.76600 Y74.03600
X131.30600 Y74.03600
X133.84600 Y74.03600
X138.67200 Y71.62300
X138.67200 Y69.08300
X138.67200 Y66.54300
X138.67200 Y64.00300
X133.78600 Y61.39600
X131.24600 Y61.39600
X128.70600 Y61.39600
X126.16600 Y61.39600
X123.62600 Y61.39600
X121.08600 Y61.39600
X118.54600 Y61.39600
X116.00600 Y61.39600
X117.71300 Y56.73000
X120.25300 Y56.73000
X122.79300 Y56.73000
X120.25300 Y52.73000
X122.79300 Y52.73000
X127.24200 Y52.70000
X127.24200 Y48.89000
X129.78200 Y48.89000
X132.32200 Y48.89000
X132.32200 Y52.70000
X129.78200 Y52.70000
X127.24200 Y56.51000
X129.78200 Y56.51000
X132.32200 Y56.51000
X137.14800 Y52.70000
X137.14800 Y48.89000
X133.84600 Y44.31800
X131.30600 Y44.31800
X128.76600 Y44.31800
X126.22600 Y44.31800
X123.68600 Y44.31800
X122.79300 Y48.87000
X117.71300 Y52.73000
X117.71300 Y48.87000
X120.25300 Y48.87000
X121.14600 Y44.31800
X118.60600 Y44.31800
X116.06600 Y44.31800
X118.35200 Y36.44400
X116.00600 Y31.67800
X118.54600 Y31.67800
X121.08600 Y31.67800
X123.62600 Y31.67800
X126.16600 Y31.67800
X128.70600 Y31.67800
X131.24600 Y31.67800
X133.78600 Y31.67800
X128.25800 Y26.15700
X128.25800 Y23.61700
X130.54400 Y14.09200
X126.48000 Y14.09200
X122.41600 Y14.09200
X118.35200 Y14.09200
X114.28800 Y14.09200
X110.22400 Y14.09200
X110.22400 Y11.55200
X110.22400 Y9.01200
X114.28800 Y9.01200
X114.28800 Y11.55200
X118.35200 Y9.01200
X118.35200 Y11.55200
X122.41600 Y9.01200
X122.41600 Y11.55200
X126.48000 Y9.01200
X126.48000 Y11.55200
X130.54400 Y9.01200
X130.54400 Y11.55200
X134.60800 Y14.09200
X134.60800 Y11.55200
X134.60800 Y9.01200
X138.67200 Y9.01200
X142.73600 Y8.50400
X138.67200 Y11.55200
X138.67200 Y14.09200
X138.41800 Y23.61700
X138.41800 Y26.15700
X138.67200 Y31.74500
X138.67200 Y34.92000
X138.67200 Y37.46000
X138.67200 Y40.00000
X138.67200 Y42.54000
G80

G00 Z10.000 ( All done -- retract )

M5      (Spindle off.)
G04 P1.000000
M9      (Coolant off.)
M2      (Program end.)

