( pcb2gcode 2.5.0 )
( Software-independent Gcode )

G94 ( Millimeters per minute feed rate. )
G21 ( Units == Millimeters. )

G90 ( Absolute coordinates. )
G00 S10000 ( RPM spindle speed. )
G64 P0.01016 ( set maximum deviation from commanded toolpath )
G01 F600.00000 ( Feedrate. )


G00 Z10.00000 (Retract to tool change height)
T1
M5      (Spindle stop.)
G04 P1.00000 (Wait for spindle to stop)
(MSG, Change tool bit to mill diameter 0.20000mm)
M6      (Tool change.)
M0      (Temporary machine stop.)
M3 ( Spindle on clockwise. )
G04 P1.00000 (Wait for spindle to get up to speed)
G04 P0 ( dwell for no time -- G64 should not smooth over this point )
G00 Z5.00000 ( retract )

G00 X6.91447 Y9.49419 ( rapid move to begin. )
G01 F300.00000
( Mill infeed pass 1/1 )
G01 Z-0.05000
G04 P0 ( dwell for no time -- G64 should not smooth over this point )
G01 F600.00000
G01 X6.91447 Y9.49419
G01 X6.93850 Y9.75764
G01 X7.01345 Y10.01136
G01 X7.13646 Y10.24560
G01 X7.30281 Y10.45132
G01 X7.50609 Y10.62063
G01 X7.73850 Y10.74702
G01 X7.99110 Y10.82566
G01 X8.25419 Y10.85350
G01 X8.51764 Y10.82950
G01 X8.77136 Y10.75454
G01 X9.00560 Y10.63150
G01 X9.21131 Y10.46516
G01 X9.38063 Y10.26188
G01 X9.50702 Y10.02947
G01 X9.58566 Y9.77687
G01 X9.61350 Y9.51378
G01 X9.58949 Y9.25033
G01 X9.51454 Y8.99661
G01 X9.39153 Y8.76239
G01 X9.22518 Y8.55665
G01 X9.02188 Y8.38734
G01 X8.78947 Y8.26095
G01 X8.53684 Y8.18231
G01 X8.27380 Y8.15447
G01 X8.01033 Y8.17850
G01 X7.75661 Y8.25345
G01 X7.52239 Y8.37647
G01 X7.31665 Y8.54281
G01 X7.14736 Y8.74606
G01 X7.02095 Y8.97850
G01 X6.94231 Y9.23110
G01 X6.91447 Y9.49419
G04 P0 ( dwell for no time -- G64 should not smooth over this point )
G00 Z5.00000 ( retract )

G00 X19.10647 Y15.08217 ( rapid move to begin. )
G01 F300.00000
( Mill infeed pass 1/1 )
G01 Z-0.05000
G04 P0 ( dwell for no time -- G64 should not smooth over this point )
G01 F600.00000
G01 X19.10647 Y15.08217
G01 X19.12280 Y14.91633
G01 X19.17500 Y14.73767
G01 X19.26105 Y14.57262
G01 X19.39151 Y14.41364
G01 X19.52031 Y14.30793
G01 X19.68356 Y14.21849
G01 X19.86113 Y14.16264
G01 X20.05600 Y14.14199
G01 X20.85599 Y14.14199
G01 X21.03161 Y14.15880
G01 X21.22841 Y14.21849
G01 X21.39166 Y14.30793
G01 X21.53433 Y14.42751
G01 X21.65094 Y14.57262
G01 X21.72948 Y14.71956
G01 X21.78536 Y14.89713
G01 X21.80550 Y15.08217
G01 X21.78536 Y15.28684
G01 X21.72948 Y15.46441
G01 X21.65094 Y15.61135
G01 X21.53433 Y15.75646
G01 X21.37537 Y15.88692
G01 X21.22841 Y15.96548
G01 X21.05084 Y16.02136
G01 X20.85599 Y16.04198
G01 X20.04619 Y16.04150
G01 X19.86113 Y16.02136
G01 X19.70167 Y15.97297
G01 X19.53662 Y15.88692
G01 X19.39151 Y15.77033
G01 X19.27195 Y15.62766
G01 X19.18249 Y15.46441
G01 X19.12664 Y15.28684
G01 X19.10647 Y15.10178
G01 X19.10647 Y12.54219
G01 X19.12280 Y12.72761
G01 X19.17500 Y12.90630
G01 X19.26105 Y13.07135
G01 X19.37764 Y13.21646
G01 X19.52031 Y13.33605
G01 X19.68356 Y13.42548
G01 X19.86113 Y13.48136
G01 X20.05600 Y13.50198
G01 X20.85599 Y13.50198
G01 X21.03161 Y13.48517
G01 X21.21030 Y13.43297
G01 X21.37537 Y13.34692
G01 X21.52046 Y13.23033
G01 X21.65094 Y13.07135
G01 X21.72948 Y12.92441
G01 X21.78536 Y12.74684
G01 X21.80550 Y12.54219
G01 X21.78536 Y12.35713
G01 X21.72948 Y12.17956
G01 X21.64004 Y12.01631
G01 X21.52046 Y11.87364
G01 X21.37537 Y11.75705
G01 X21.21030 Y11.67100
G01 X21.03161 Y11.61880
G01 X20.85599 Y11.60199
G01 X20.05600 Y11.60199
G01 X19.88036 Y11.61880
G01 X19.70167 Y11.67100
G01 X19.53662 Y11.75705
G01 X19.39151 Y11.87364
G01 X19.26105 Y12.03262
G01 X19.17500 Y12.19767
G01 X19.12280 Y12.37636
G01 X19.10647 Y12.54219
G01 X19.10599 Y9.16199
G01 X19.11361 Y9.12371
G01 X19.13527 Y9.09127
G01 X19.16771 Y9.06961
G01 X19.20599 Y9.06199
G01 X21.70598 Y9.06199
G01 X21.74426 Y9.06961
G01 X21.77669 Y9.09127
G01 X21.79839 Y9.12371
G01 X21.80598 Y9.16199
G01 X21.80598 Y10.86198
G01 X21.79839 Y10.90026
G01 X21.77669 Y10.93270
G01 X21.74426 Y10.95436
G01 X21.70598 Y10.96198
G01 X19.20599 Y10.96198
G01 X19.16771 Y10.95436
G01 X19.15044 Y10.94514
G01 X19.13527 Y10.93270
G01 X19.11361 Y10.90026
G01 X19.10599 Y10.86198
G01 X19.10599 Y9.16199
G04 P0 ( dwell for no time -- G64 should not smooth over this point )
G00 Z5.00000 ( retract )

G00 X15.04196 Y9.16199 ( rapid move to begin. )
G01 F300.00000
( Mill infeed pass 1/1 )
G01 Z-0.05000
G04 P0 ( dwell for no time -- G64 should not smooth over this point )
G01 F600.00000
G01 X15.04196 Y9.16199
G01 X15.04196 Y10.86198
G01 X15.04961 Y10.90026
G01 X15.07127 Y10.93270
G01 X15.10371 Y10.95436
G01 X15.14199 Y10.96198
G01 X17.64198 Y10.96198
G01 X17.66149 Y10.96005
G01 X17.69756 Y10.94514
G01 X17.72514 Y10.91753
G01 X17.73439 Y10.90026
G01 X17.74198 Y10.86198
G01 X17.74198 Y9.16199
G01 X17.73439 Y9.12371
G01 X17.71269 Y9.09127
G01 X17.68026 Y9.06961
G01 X17.64198 Y9.06199
G01 X15.14199 Y9.06199
G01 X15.10371 Y9.06961
G01 X15.08644 Y9.07883
G01 X15.05883 Y9.10644
G01 X15.04961 Y9.12371
G01 X15.04196 Y9.16199
G01 X15.04247 Y12.56178
G01 X15.05880 Y12.37636
G01 X15.11100 Y12.19767
G01 X15.19705 Y12.03262
G01 X15.31361 Y11.88751
G01 X15.45631 Y11.76793
G01 X15.61956 Y11.67849
G01 X15.79713 Y11.62264
G01 X15.99200 Y11.60199
G01 X16.79199 Y11.60199
G01 X16.96761 Y11.61880
G01 X17.14630 Y11.67100
G01 X17.31137 Y11.75705
G01 X17.45646 Y11.87364
G01 X17.58694 Y12.03262
G01 X17.66548 Y12.17956
G01 X17.72136 Y12.35713
G01 X17.74150 Y12.54219
G01 X17.72517 Y12.72761
G01 X17.67297 Y12.90630
G01 X17.58694 Y13.07135
G01 X17.47033 Y13.21646
G01 X17.32766 Y13.33605
G01 X17.16441 Y13.42548
G01 X16.98684 Y13.48136
G01 X16.79199 Y13.50198
G01 X15.99200 Y13.50198
G01 X15.81636 Y13.48517
G01 X15.63767 Y13.43297
G01 X15.47262 Y13.34692
G01 X15.31361 Y13.21646
G01 X15.19705 Y13.07135
G01 X15.11100 Y12.90630
G01 X15.05880 Y12.72761
G01 X15.04247 Y12.56178
G01 X15.04247 Y15.10178
G01 X15.06264 Y15.28684
G01 X15.11847 Y15.46441
G01 X15.19705 Y15.61135
G01 X15.31361 Y15.75646
G01 X15.45631 Y15.87605
G01 X15.61956 Y15.96548
G01 X15.79713 Y16.02136
G01 X15.99200 Y16.04198
G01 X16.79199 Y16.04198
G01 X16.96761 Y16.02517
G01 X17.16441 Y15.96548
G01 X17.32766 Y15.87605
G01 X17.47033 Y15.75646
G01 X17.58694 Y15.61135
G01 X17.66548 Y15.46441
G01 X17.72136 Y15.28684
G01 X17.74150 Y15.10178
G01 X17.72136 Y14.89713
G01 X17.66548 Y14.71956
G01 X17.57604 Y14.55631
G01 X17.45646 Y14.41364
G01 X17.32766 Y14.30793
G01 X17.16441 Y14.21849
G01 X16.98684 Y14.16264
G01 X16.79199 Y14.14199
G01 X15.99200 Y14.14199
G01 X15.79713 Y14.16264
G01 X15.61956 Y14.21849
G01 X15.45631 Y14.30793
G01 X15.31361 Y14.42751
G01 X15.20795 Y14.55631
G01 X15.11100 Y14.73767
G01 X15.05880 Y14.91633
G01 X15.04247 Y15.08217
G01 X11.23199 Y23.76699
G01 X11.23961 Y23.72871
G01 X11.26127 Y23.69627
G01 X11.27644 Y23.68383
G01 X11.29371 Y23.67461
G01 X11.33199 Y23.66699
G01 X13.83198 Y23.66699
G01 X13.85149 Y23.66892
G01 X13.88756 Y23.68383
G01 X13.91514 Y23.71144
G01 X13.92439 Y23.72871
G01 X13.93198 Y23.76699
G01 X13.93198 Y25.46698
G01 X13.92439 Y25.50526
G01 X13.90269 Y25.53770
G01 X13.87026 Y25.55936
G01 X13.83198 Y25.56698
G01 X11.33199 Y25.56698
G01 X11.29371 Y25.55936
G01 X11.26127 Y25.53770
G01 X11.23961 Y25.50526
G01 X11.23392 Y25.48649
G01 X11.23199 Y23.76699
G01 X10.97847 Y15.08217
G01 X10.99864 Y14.89713
G01 X11.05449 Y14.71956
G01 X11.13305 Y14.57262
G01 X11.24964 Y14.42751
G01 X11.39231 Y14.30793
G01 X11.55556 Y14.21849
G01 X11.73313 Y14.16264
G01 X11.91819 Y14.14247
G01 X12.73780 Y14.14247
G01 X12.92284 Y14.16264
G01 X13.10041 Y14.21849
G01 X13.26366 Y14.30793
G01 X13.39246 Y14.41364
G01 X13.51204 Y14.55631
G01 X13.60148 Y14.71956
G01 X13.65736 Y14.89713
G01 X13.67750 Y15.08217
G01 X13.65736 Y15.28684
G01 X13.60148 Y15.46441
G01 X13.51204 Y15.62766
G01 X13.39246 Y15.77033
G01 X13.24737 Y15.88692
G01 X13.08230 Y15.97297
G01 X12.90361 Y16.02517
G01 X12.72799 Y16.04198
G01 X11.92800 Y16.04198
G01 X11.73313 Y16.02136
G01 X11.55556 Y15.96548
G01 X11.39231 Y15.87605
G01 X11.24964 Y15.75646
G01 X11.13305 Y15.61135
G01 X11.05449 Y15.46441
G01 X10.99864 Y15.28684
G01 X10.97847 Y15.10178
G01 X10.97799 Y9.16199
G01 X10.97799 Y10.86198
G01 X10.98561 Y10.90026
G01 X11.00727 Y10.93270
G01 X11.02244 Y10.94514
G01 X11.03971 Y10.95436
G01 X11.07799 Y10.96198
G01 X13.57798 Y10.96198
G01 X13.61626 Y10.95436
G01 X13.64869 Y10.93270
G01 X13.67039 Y10.90026
G01 X13.67798 Y10.86198
G01 X13.67608 Y9.14248
G01 X13.66114 Y9.10644
G01 X13.63356 Y9.07883
G01 X13.59749 Y9.06392
G01 X13.57798 Y9.06199
G01 X11.07799 Y9.06199
G01 X11.03971 Y9.06961
G01 X11.02244 Y9.07883
G01 X11.00727 Y9.09127
G01 X10.98561 Y9.12371
G01 X10.97799 Y9.16199
G01 X10.97847 Y12.56178
G01 X10.99480 Y12.37636
G01 X11.04700 Y12.19767
G01 X11.13305 Y12.03262
G01 X11.24964 Y11.88751
G01 X11.39231 Y11.76793
G01 X11.55556 Y11.67849
G01 X11.73313 Y11.62264
G01 X11.92800 Y11.60199
G01 X12.72799 Y11.60199
G01 X12.90361 Y11.61880
G01 X13.08230 Y11.67100
G01 X13.24737 Y11.75705
G01 X13.39246 Y11.87364
G01 X13.52294 Y12.03262
G01 X13.60148 Y12.17956
G01 X13.65736 Y12.35713
G01 X13.67750 Y12.56178
G01 X13.65736 Y12.74684
G01 X13.60148 Y12.92441
G01 X13.51204 Y13.08766
G01 X13.39246 Y13.23033
G01 X13.24737 Y13.34692
G01 X13.08230 Y13.43297
G01 X12.90361 Y13.48517
G01 X12.72799 Y13.50198
G01 X11.92800 Y13.50198
G01 X11.75236 Y13.48517
G01 X11.57367 Y13.43297
G01 X11.40862 Y13.34692
G01 X11.26351 Y13.23033
G01 X11.13305 Y13.07135
G01 X11.04700 Y12.90630
G01 X10.99480 Y12.72761
G01 X10.97847 Y12.56178
G01 X10.97847 Y15.08217
G01 X11.23199 Y23.76699
G01 X11.23247 Y27.14719
G01 X11.25264 Y26.96213
G01 X11.30849 Y26.78456
G01 X11.39795 Y26.62131
G01 X11.51751 Y26.47864
G01 X11.66262 Y26.36205
G01 X11.82767 Y26.27600
G01 X12.00636 Y26.22380
G01 X12.18200 Y26.20699
G01 X12.98199 Y26.20699
G01 X13.15761 Y26.22380
G01 X13.33630 Y26.27600
G01 X13.50137 Y26.36205
G01 X13.64646 Y26.47864
G01 X13.77694 Y26.63762
G01 X13.85548 Y26.78456
G01 X13.91136 Y26.96213
G01 X13.93150 Y27.14719
G01 X13.91517 Y27.33261
G01 X13.86297 Y27.51130
G01 X13.77694 Y27.67633
G01 X13.66033 Y27.82146
G01 X13.51766 Y27.94102
G01 X13.35441 Y28.03048
G01 X13.17684 Y28.08636
G01 X12.98199 Y28.10698
G01 X12.18200 Y28.10698
G01 X12.00636 Y28.09014
G01 X11.82767 Y28.03797
G01 X11.66262 Y27.95192
G01 X11.50364 Y27.82146
G01 X11.39795 Y27.69266
G01 X11.30849 Y27.52941
G01 X11.24880 Y27.33261
G01 X11.23247 Y27.14719
G01 X10.97847 Y32.73519
G01 X11.00631 Y32.47210
G01 X11.08495 Y32.21950
G01 X11.21136 Y31.98709
G01 X11.38065 Y31.78381
G01 X11.58639 Y31.61747
G01 X11.82061 Y31.49445
G01 X12.07433 Y31.41950
G01 X12.33780 Y31.39547
G01 X12.60087 Y31.42331
G01 X12.85347 Y31.50195
G01 X13.08588 Y31.62834
G01 X13.28918 Y31.79765
G01 X13.45553 Y32.00339
G01 X13.57854 Y32.23761
G01 X13.65349 Y32.49133
G01 X13.67750 Y32.75478
G01 X13.64966 Y33.01787
G01 X13.57102 Y33.27047
G01 X13.44463 Y33.50288
G01 X13.27531 Y33.70616
G01 X13.06960 Y33.87250
G01 X12.83536 Y33.99554
G01 X12.58164 Y34.07050
G01 X12.31819 Y34.09450
G01 X12.05510 Y34.06666
G01 X11.80250 Y33.98802
G01 X11.57009 Y33.86163
G01 X11.36681 Y33.69232
G01 X11.20046 Y33.48660
G01 X11.07745 Y33.25236
G01 X11.00250 Y32.99864
G01 X10.97847 Y32.73519
G01 X10.97992 Y36.78949
G01 X10.98561 Y36.80826
G01 X11.00727 Y36.84070
G01 X11.03971 Y36.86236
G01 X11.07799 Y36.86998
G01 X13.57798 Y36.86998
G01 X13.61626 Y36.86236
G01 X13.64869 Y36.84070
G01 X13.67039 Y36.80826
G01 X13.67798 Y36.76998
G01 X13.67798 Y35.06999
G01 X13.67039 Y35.03171
G01 X13.66114 Y35.01444
G01 X13.63356 Y34.98683
G01 X13.59749 Y34.97192
G01 X13.57798 Y34.96999
G01 X11.07799 Y34.96999
G01 X11.03971 Y34.97761
G01 X11.02244 Y34.98683
G01 X11.00727 Y34.99927
G01 X10.98561 Y35.03171
G01 X10.97799 Y35.06999
G01 X10.97847 Y38.46978
G01 X10.99480 Y38.28436
G01 X11.04700 Y38.10567
G01 X11.13305 Y37.94062
G01 X11.24964 Y37.79551
G01 X11.39231 Y37.67593
G01 X11.55556 Y37.58649
G01 X11.73313 Y37.53064
G01 X11.92800 Y37.50999
G01 X12.72799 Y37.50999
G01 X12.90361 Y37.52680
G01 X13.08230 Y37.57900
G01 X13.24737 Y37.66505
G01 X13.40633 Y37.79551
G01 X13.52294 Y37.94062
G01 X13.60148 Y38.08756
G01 X13.65736 Y38.26513
G01 X13.67750 Y38.46978
G01 X13.65736 Y38.65484
G01 X13.60148 Y38.83241
G01 X13.51204 Y38.99566
G01 X13.39246 Y39.13833
G01 X13.24737 Y39.25492
G01 X13.08230 Y39.34097
G01 X12.90361 Y39.39317
G01 X12.72799 Y39.40998
G01 X11.92800 Y39.40998
G01 X11.75236 Y39.39317
G01 X11.57367 Y39.34097
G01 X11.40862 Y39.25492
G01 X11.24964 Y39.12446
G01 X11.13305 Y38.97935
G01 X11.04700 Y38.81430
G01 X10.99480 Y38.63561
G01 X10.97847 Y38.46978
G01 X10.97847 Y41.00978
G01 X10.99480 Y40.82436
G01 X11.04700 Y40.64567
G01 X11.13305 Y40.48062
G01 X11.24964 Y40.33551
G01 X11.39231 Y40.21593
G01 X11.55556 Y40.12649
G01 X11.73313 Y40.07064
G01 X11.92800 Y40.04999
G01 X12.72799 Y40.04999
G01 X12.90361 Y40.06680
G01 X13.08230 Y40.11900
G01 X13.24737 Y40.20505
G01 X13.39246 Y40.32164
G01 X13.52294 Y40.48062
G01 X13.60148 Y40.62756
G01 X13.65736 Y40.80513
G01 X13.67750 Y41.00978
G01 X13.65736 Y41.19484
G01 X13.60148 Y41.37241
G01 X13.51204 Y41.53566
G01 X13.39246 Y41.67833
G01 X13.24737 Y41.79492
G01 X13.08230 Y41.88097
G01 X12.90361 Y41.93317
G01 X12.72799 Y41.94998
G01 X11.92800 Y41.94998
G01 X11.75236 Y41.93317
G01 X11.57367 Y41.88097
G01 X11.40862 Y41.79492
G01 X11.26351 Y41.67833
G01 X11.13305 Y41.51935
G01 X11.04700 Y41.35430
G01 X10.99480 Y41.17561
G01 X10.97847 Y41.00978
G01 X10.97847 Y43.53019
G01 X11.00798 Y43.76570
G01 X11.05449 Y43.91241
G01 X11.13305 Y44.05935
G01 X11.24964 Y44.20446
G01 X11.39231 Y44.32405
G01 X11.55556 Y44.41348
G01 X11.73313 Y44.46936
G01 X11.91819 Y44.48950
G01 X12.73780 Y44.48950
G01 X12.92284 Y44.46936
G01 X13.10041 Y44.41348
G01 X13.26366 Y44.32405
G01 X13.40633 Y44.20446
G01 X13.52294 Y44.05935
G01 X13.60148 Y43.91241
G01 X13.65736 Y43.73484
G01 X13.67750 Y43.54978
G01 X13.65736 Y43.34513
G01 X13.60148 Y43.16756
G01 X13.52294 Y43.02062
G01 X13.40633 Y42.87551
G01 X13.24737 Y42.74505
G01 X13.08230 Y42.65900
G01 X12.90361 Y42.60680
G01 X12.72799 Y42.58999
G01 X11.91819 Y42.59047
G01 X11.73313 Y42.61064
G01 X11.55556 Y42.66649
G01 X11.39231 Y42.75593
G01 X11.24964 Y42.87551
G01 X11.13305 Y43.02062
G01 X11.04700 Y43.18567
G01 X10.99480 Y43.36436
G01 X10.97847 Y43.53019
G01 X10.99480 Y43.71561
G01 X11.00798 Y43.76570
G01 X12.25246 Y53.69019
G01 X12.50247 Y49.88019
G01 X12.53031 Y50.16287
G01 X12.60895 Y50.41547
G01 X12.73536 Y50.64788
G01 X12.90465 Y50.85116
G01 X13.11039 Y51.01750
G01 X13.34461 Y51.14054
G01 X13.59833 Y51.21550
G01 X13.86180 Y51.23950
G01 X14.12487 Y51.21166
G01 X14.37747 Y51.13302
G01 X14.60988 Y51.00663
G01 X14.81318 Y50.83732
G01 X14.97950 Y50.63160
G01 X15.10254 Y50.39736
G01 X15.17749 Y50.14364
G01 X15.20150 Y49.89978
G01 X15.17749 Y49.63633
G01 X15.09502 Y49.36450
G01 X14.97950 Y49.14839
G01 X14.81318 Y48.94265
G01 X14.59360 Y48.76247
G01 X14.37747 Y48.64695
G01 X14.12487 Y48.56831
G01 X13.84219 Y48.54047
G01 X13.57910 Y48.56831
G01 X13.32650 Y48.64695
G01 X13.09409 Y48.77334
G01 X12.90465 Y48.92881
G01 X12.72446 Y49.14839
G01 X12.60895 Y49.36450
G01 X12.53031 Y49.61710
G01 X12.50247 Y49.88019
G01 X12.25246 Y53.69019
G01 X12.28129 Y54.00244
G01 X12.37798 Y54.32113
G01 X12.51659 Y54.58049
G01 X12.71402 Y54.82408
G01 X12.95520 Y55.02448
G01 X13.23081 Y55.17401
G01 X13.53033 Y55.26682
G01 X13.84219 Y55.29951
G01 X14.17366 Y55.26682
G01 X14.47315 Y55.17401
G01 X14.73249 Y55.03538
G01 X14.97607 Y54.83792
G01 X15.17650 Y54.59677
G01 X15.32601 Y54.32113
G01 X15.41887 Y54.02164
G01 X15.45151 Y53.69019
G01 X15.41887 Y53.37833
G01 X15.32601 Y53.07882
G01 X15.17650 Y52.80320
G01 X14.98994 Y52.57590
G01 X14.74879 Y52.37549
G01 X14.47315 Y52.22599
G01 X14.17366 Y52.13312
G01 X13.86180 Y52.10046
G01 X13.54956 Y52.12929
G01 X13.24892 Y52.21847
G01 X12.95520 Y52.37549
G01 X12.71402 Y52.57590
G01 X12.51659 Y52.81948
G01 X12.37046 Y53.09693
G01 X12.28512 Y53.37833
G01 X12.25246 Y53.69019
G01 X10.97799 Y64.15299
G01 X10.97992 Y65.87249
G01 X10.98561 Y65.89126
G01 X11.00727 Y65.92370
G01 X11.03971 Y65.94536
G01 X11.07799 Y65.95298
G01 X13.57798 Y65.95298
G01 X13.61626 Y65.94536
G01 X13.64869 Y65.92370
G01 X13.67039 Y65.89126
G01 X13.67798 Y65.85298
G01 X13.67798 Y64.15299
G01 X13.67039 Y64.11471
G01 X13.66114 Y64.09744
G01 X13.63356 Y64.06983
G01 X13.59749 Y64.05492
G01 X13.57798 Y64.05299
G01 X11.07799 Y64.05299
G01 X11.03971 Y64.06061
G01 X11.02244 Y64.06983
G01 X11.00727 Y64.08227
G01 X10.98561 Y64.11471
G01 X10.97799 Y64.15299
G01 X10.97847 Y67.55278
G01 X10.99480 Y67.36736
G01 X11.04700 Y67.18867
G01 X11.13305 Y67.02362
G01 X11.24964 Y66.87851
G01 X11.39231 Y66.75893
G01 X11.55556 Y66.66949
G01 X11.73313 Y66.61364
G01 X11.92800 Y66.59299
G01 X12.72799 Y66.59299
G01 X12.90361 Y66.60980
G01 X13.08230 Y66.66200
G01 X13.24737 Y66.74805
G01 X13.39246 Y66.86464
G01 X13.52294 Y67.02362
G01 X13.60148 Y67.17056
G01 X13.65736 Y67.34813
G01 X13.67750 Y67.55278
G01 X13.65736 Y67.73784
G01 X13.60148 Y67.91541
G01 X13.51204 Y68.07866
G01 X13.39246 Y68.22133
G01 X13.24737 Y68.33792
G01 X13.08230 Y68.42397
G01 X12.90361 Y68.47617
G01 X12.72799 Y68.49298
G01 X11.92800 Y68.49298
G01 X11.75236 Y68.47617
G01 X11.57367 Y68.42397
G01 X11.40862 Y68.33792
G01 X11.26351 Y68.22133
G01 X11.13305 Y68.06235
G01 X11.04700 Y67.89730
G01 X10.99480 Y67.71861
G01 X10.97847 Y67.55278
G01 X10.97847 Y70.09278
G01 X10.99480 Y69.90736
G01 X11.04700 Y69.72867
G01 X11.13305 Y69.56362
G01 X11.24964 Y69.41851
G01 X11.39231 Y69.29893
G01 X11.55556 Y69.20949
G01 X11.73313 Y69.15364
G01 X11.92800 Y69.13299
G01 X12.72799 Y69.13299
G01 X12.90361 Y69.14980
G01 X13.08230 Y69.20200
G01 X13.24737 Y69.28805
G01 X13.40633 Y69.41851
G01 X13.52294 Y69.56362
G01 X13.60148 Y69.71056
G01 X13.65736 Y69.88813
G01 X13.67750 Y70.09278
G01 X13.65736 Y70.27784
G01 X13.60148 Y70.45541
G01 X13.51204 Y70.61866
G01 X13.39246 Y70.76133
G01 X13.24737 Y70.87792
G01 X13.08230 Y70.96397
G01 X12.90361 Y71.01617
G01 X12.72799 Y71.03298
G01 X11.92800 Y71.03298
G01 X11.75236 Y71.01617
G01 X11.57367 Y70.96397
G01 X11.40862 Y70.87792
G01 X11.26351 Y70.76133
G01 X11.13305 Y70.60235
G01 X11.04700 Y70.43730
G01 X10.99480 Y70.25861
G01 X10.97847 Y70.09278
G01 X10.97847 Y72.61319
G01 X10.99480 Y72.44736
G01 X11.04700 Y72.26867
G01 X11.13305 Y72.10362
G01 X11.26351 Y71.94464
G01 X11.40862 Y71.82805
G01 X11.57367 Y71.74200
G01 X11.75236 Y71.68980
G01 X11.92800 Y71.67299
G01 X12.72799 Y71.67299
G01 X12.92284 Y71.69364
G01 X13.10041 Y71.74949
G01 X13.26366 Y71.83893
G01 X13.40633 Y71.95851
G01 X13.52294 Y72.10362
G01 X13.60897 Y72.26867
G01 X13.66117 Y72.44736
G01 X13.67750 Y72.63278
G01 X13.65736 Y72.81784
G01 X13.60148 Y72.99541
G01 X13.52294 Y73.14235
G01 X13.39246 Y73.30133
G01 X13.24737 Y73.41792
G01 X13.08230 Y73.50397
G01 X12.90361 Y73.55617
G01 X12.72799 Y73.57298
G01 X11.92800 Y73.57298
G01 X11.73313 Y73.55236
G01 X11.55556 Y73.49648
G01 X11.39231 Y73.40705
G01 X11.24964 Y73.28746
G01 X11.13305 Y73.14235
G01 X11.04700 Y72.97730
G01 X10.99480 Y72.79861
G01 X10.97847 Y72.61319
G04 P0 ( dwell for no time -- G64 should not smooth over this point )
G00 Z5.00000 ( retract )

G00 X23.88398 Y61.99599 ( rapid move to begin. )
G01 F300.00000
( Mill infeed pass 1/1 )
G01 Z-0.05000
G04 P0 ( dwell for no time -- G64 should not smooth over this point )
G01 F600.00000
G01 X23.88398 Y61.99599
G01 X23.90079 Y61.82035
G01 X23.95299 Y61.64169
G01 X24.03905 Y61.47661
G01 X24.15563 Y61.33150
G01 X24.29830 Y61.21195
G01 X24.46158 Y61.12249
G01 X24.63912 Y61.06663
G01 X24.82419 Y61.04647
G01 X25.00961 Y61.06280
G01 X25.18830 Y61.11499
G01 X25.35337 Y61.20105
G01 X25.49848 Y61.31764
G01 X25.62893 Y61.47661
G01 X25.71499 Y61.64169
G01 X25.76716 Y61.82035
G01 X25.78398 Y61.99599
G01 X25.78398 Y62.79599
G01 X25.76335 Y62.99084
G01 X25.70747 Y63.16841
G01 X25.62893 Y63.31537
G01 X25.51232 Y63.46046
G01 X25.35337 Y63.59094
G01 X25.18830 Y63.67699
G01 X25.02883 Y63.72535
G01 X24.84380 Y63.74550
G01 X24.63912 Y63.72535
G01 X24.47969 Y63.67699
G01 X24.31461 Y63.59094
G01 X24.15563 Y63.46046
G01 X24.03905 Y63.31537
G01 X23.95299 Y63.15030
G01 X23.90079 Y62.97161
G01 X23.88398 Y62.79599
G01 X23.88398 Y61.99599
G01 X23.82398 Y74.63600
G01 X23.82398 Y75.43600
G01 X23.84080 Y75.61161
G01 X23.90049 Y75.80841
G01 X23.97905 Y75.95535
G01 X24.09564 Y76.10046
G01 X24.25462 Y76.23092
G01 X24.40156 Y76.30948
G01 X24.57913 Y76.36536
G01 X24.76419 Y76.38550
G01 X24.96884 Y76.36536
G01 X25.14641 Y76.30948
G01 X25.29335 Y76.23092
G01 X25.45233 Y76.10046
G01 X25.56894 Y75.95535
G01 X25.64748 Y75.80841
G01 X25.70717 Y75.61161
G01 X25.72398 Y75.43600
G01 X25.72398 Y74.63600
G01 X25.70336 Y74.44113
G01 X25.64748 Y74.26356
G01 X25.55804 Y74.10031
G01 X25.43846 Y73.95764
G01 X25.30966 Y73.85193
G01 X25.14641 Y73.76249
G01 X24.94961 Y73.70280
G01 X24.78380 Y73.68647
G01 X24.59835 Y73.70280
G01 X24.40156 Y73.76249
G01 X24.23831 Y73.85193
G01 X24.10951 Y73.95764
G01 X23.97905 Y74.11662
G01 X23.90049 Y74.26356
G01 X23.84464 Y74.44113
G01 X23.82398 Y74.63600
G04 P0 ( dwell for no time -- G64 should not smooth over this point )
G00 Z5.00000 ( retract )

G00 X21.28398 Y74.63600 ( rapid move to begin. )
G01 F300.00000
( Mill infeed pass 1/1 )
G01 Z-0.05000
G04 P0 ( dwell for no time -- G64 should not smooth over this point )
G01 F600.00000
G01 X21.28398 Y74.63600
G01 X21.30464 Y74.44113
G01 X21.36049 Y74.26356
G01 X21.43905 Y74.11662
G01 X21.56951 Y73.95764
G01 X21.69831 Y73.85193
G01 X21.86156 Y73.76249
G01 X22.05835 Y73.70280
G01 X22.22419 Y73.68647
G01 X22.40961 Y73.70280
G01 X22.60641 Y73.76249
G01 X22.76966 Y73.85193
G01 X22.89846 Y73.95764
G01 X23.01804 Y74.10031
G01 X23.10748 Y74.26356
G01 X23.16336 Y74.44113
G01 X23.18398 Y74.63600
G01 X23.18398 Y75.43600
G01 X23.16717 Y75.61161
G01 X23.10748 Y75.80841
G01 X23.02894 Y75.95535
G01 X22.91233 Y76.10046
G01 X22.75335 Y76.23092
G01 X22.60641 Y76.30948
G01 X22.42884 Y76.36536
G01 X22.24380 Y76.38550
G01 X22.03913 Y76.36536
G01 X21.86156 Y76.30948
G01 X21.71462 Y76.23092
G01 X21.55564 Y76.10046
G01 X21.43905 Y75.95535
G01 X21.36049 Y75.80841
G01 X21.30080 Y75.61161
G01 X21.28398 Y75.43600
G01 X21.28398 Y74.63600
G01 X21.34398 Y61.99599
G01 X21.34398 Y62.79599
G01 X21.36079 Y62.97161
G01 X21.41299 Y63.15030
G01 X21.49905 Y63.31537
G01 X21.61563 Y63.46046
G01 X21.77461 Y63.59094
G01 X21.93969 Y63.67699
G01 X22.09912 Y63.72535
G01 X22.30379 Y63.74550
G01 X22.48883 Y63.72535
G01 X22.64830 Y63.67699
G01 X22.81337 Y63.59094
G01 X22.97232 Y63.46046
G01 X23.08893 Y63.31537
G01 X23.16747 Y63.16841
G01 X23.22335 Y62.99084
G01 X23.24398 Y62.79599
G01 X23.24398 Y61.99599
G01 X23.22716 Y61.82035
G01 X23.17499 Y61.64169
G01 X23.08893 Y61.47661
G01 X22.95848 Y61.31764
G01 X22.81337 Y61.20105
G01 X22.64830 Y61.11499
G01 X22.46961 Y61.06280
G01 X22.28419 Y61.04647
G01 X22.09912 Y61.06663
G01 X21.92158 Y61.12249
G01 X21.75830 Y61.21195
G01 X21.61563 Y61.33150
G01 X21.49905 Y61.47661
G01 X21.41299 Y61.64169
G01 X21.36079 Y61.82035
G01 X21.34398 Y61.99599
G04 P0 ( dwell for no time -- G64 should not smooth over this point )
G00 Z5.00000 ( retract )

G00 X18.80398 Y61.99599 ( rapid move to begin. )
G01 F300.00000
( Mill infeed pass 1/1 )
G01 Z-0.05000
G04 P0 ( dwell for no time -- G64 should not smooth over this point )
G01 F600.00000
G01 X18.80398 Y61.99599
G01 X18.82079 Y61.82035
G01 X18.87299 Y61.64169
G01 X18.95905 Y61.47661
G01 X19.07563 Y61.33150
G01 X19.21830 Y61.21195
G01 X19.38158 Y61.12249
G01 X19.55912 Y61.06663
G01 X19.74419 Y61.04647
G01 X19.92961 Y61.06280
G01 X20.10830 Y61.11499
G01 X20.27337 Y61.20105
G01 X20.41848 Y61.31764
G01 X20.54893 Y61.47661
G01 X20.63499 Y61.64169
G01 X20.68716 Y61.82035
G01 X20.70398 Y61.99599
G01 X20.70398 Y62.79599
G01 X20.68335 Y62.99084
G01 X20.62747 Y63.16841
G01 X20.54893 Y63.31537
G01 X20.43232 Y63.46046
G01 X20.27337 Y63.59094
G01 X20.10830 Y63.67699
G01 X19.94883 Y63.72535
G01 X19.76379 Y63.74550
G01 X19.55912 Y63.72535
G01 X19.39969 Y63.67699
G01 X19.23461 Y63.59094
G01 X19.08950 Y63.47432
G01 X18.95905 Y63.31537
G01 X18.87299 Y63.15030
G01 X18.82079 Y62.97161
G01 X18.80398 Y62.79599
G01 X18.80398 Y61.99599
G01 X18.74398 Y74.63600
G01 X18.74398 Y75.43600
G01 X18.76080 Y75.61161
G01 X18.82049 Y75.80841
G01 X18.89905 Y75.95535
G01 X19.01564 Y76.10046
G01 X19.17462 Y76.23092
G01 X19.32156 Y76.30948
G01 X19.49913 Y76.36536
G01 X19.68419 Y76.38550
G01 X19.88884 Y76.36536
G01 X20.06641 Y76.30948
G01 X20.21335 Y76.23092
G01 X20.37233 Y76.10046
G01 X20.48894 Y75.95535
G01 X20.56748 Y75.80841
G01 X20.62717 Y75.61161
G01 X20.64398 Y75.43600
G01 X20.64398 Y74.63600
G01 X20.62336 Y74.44113
G01 X20.56748 Y74.26356
G01 X20.47804 Y74.10031
G01 X20.35846 Y73.95764
G01 X20.22966 Y73.85193
G01 X20.06641 Y73.76249
G01 X19.86961 Y73.70280
G01 X19.70380 Y73.68647
G01 X19.51835 Y73.70280
G01 X19.32156 Y73.76249
G01 X19.15831 Y73.85193
G01 X19.02951 Y73.95764
G01 X18.89905 Y74.11662
G01 X18.82049 Y74.26356
G01 X18.76464 Y74.44113
G01 X18.74398 Y74.63600
G04 P0 ( dwell for no time -- G64 should not smooth over this point )
G00 Z5.00000 ( retract )

G00 X16.20398 Y74.63600 ( rapid move to begin. )
G01 F300.00000
( Mill infeed pass 1/1 )
G01 Z-0.05000
G04 P0 ( dwell for no time -- G64 should not smooth over this point )
G01 F600.00000
G01 X16.20398 Y74.63600
G01 X16.20398 Y75.43600
G01 X16.22080 Y75.61161
G01 X16.28049 Y75.80841
G01 X16.36995 Y75.97166
G01 X16.48951 Y76.11433
G01 X16.63462 Y76.23092
G01 X16.79967 Y76.31697
G01 X16.97835 Y76.36917
G01 X17.16380 Y76.38550
G01 X17.34884 Y76.36536
G01 X17.52641 Y76.30948
G01 X17.68966 Y76.22004
G01 X17.83233 Y76.10046
G01 X17.94894 Y75.95535
G01 X18.02748 Y75.80841
G01 X18.08717 Y75.61161
G01 X18.10398 Y75.43600
G01 X18.10398 Y74.63600
G01 X18.08336 Y74.44113
G01 X18.02748 Y74.26356
G01 X17.93804 Y74.10031
G01 X17.81846 Y73.95764
G01 X17.68966 Y73.85193
G01 X17.52641 Y73.76249
G01 X17.32961 Y73.70280
G01 X17.16380 Y73.68647
G01 X16.97835 Y73.70280
G01 X16.78156 Y73.76249
G01 X16.61831 Y73.85193
G01 X16.48951 Y73.95764
G01 X16.35905 Y74.11662
G01 X16.28049 Y74.26356
G01 X16.22464 Y74.44113
G01 X16.20398 Y74.63600
G01 X16.26398 Y61.14598
G01 X16.26398 Y63.64598
G01 X16.27160 Y63.68426
G01 X16.28085 Y63.70155
G01 X16.30843 Y63.72914
G01 X16.32573 Y63.73838
G01 X16.36398 Y63.74598
G01 X18.06398 Y63.74598
G01 X18.10225 Y63.73838
G01 X18.13469 Y63.71669
G01 X18.15638 Y63.68426
G01 X18.16398 Y63.64598
G01 X18.16207 Y61.12648
G01 X18.14714 Y61.09043
G01 X18.13469 Y61.07527
G01 X18.10225 Y61.05360
G01 X18.06398 Y61.04598
G01 X16.36398 Y61.04598
G01 X16.32573 Y61.05360
G01 X16.29327 Y61.07527
G01 X16.27160 Y61.10773
G01 X16.26591 Y61.12648
G01 X16.26398 Y61.14598
G01 X17.72798 Y57.11000
G01 X17.74480 Y56.93436
G01 X17.79700 Y56.75567
G01 X17.88305 Y56.59062
G01 X18.01351 Y56.43164
G01 X18.14231 Y56.32593
G01 X18.30556 Y56.23649
G01 X18.48313 Y56.18061
G01 X18.66819 Y56.16047
G01 X18.85361 Y56.17680
G01 X19.03230 Y56.22900
G01 X19.19735 Y56.31506
G01 X19.34246 Y56.43164
G01 X19.47294 Y56.59062
G01 X19.55897 Y56.75567
G01 X19.61117 Y56.93436
G01 X19.62798 Y57.11000
G01 X19.62798 Y57.91000
G01 X19.61117 Y58.08561
G01 X19.55897 Y58.26430
G01 X19.47294 Y58.42935
G01 X19.35633 Y58.57446
G01 X19.21366 Y58.69404
G01 X19.05041 Y58.78348
G01 X18.87284 Y58.83936
G01 X18.68780 Y58.85950
G01 X18.48313 Y58.83936
G01 X18.30556 Y58.78348
G01 X18.14231 Y58.69404
G01 X17.99964 Y58.57446
G01 X17.88305 Y58.42935
G01 X17.79700 Y58.26430
G01 X17.74480 Y58.08561
G01 X17.72798 Y57.91000
G01 X17.72798 Y54.10000
G01 X17.74480 Y54.27561
G01 X17.79700 Y54.45428
G01 X17.88305 Y54.61935
G01 X17.99964 Y54.76446
G01 X18.14231 Y54.88404
G01 X18.30556 Y54.97348
G01 X18.48313 Y55.02933
G01 X18.66819 Y55.04950
G01 X18.85361 Y55.03317
G01 X19.03230 Y54.98097
G01 X19.19735 Y54.89489
G01 X19.34246 Y54.77833
G01 X19.46204 Y54.63566
G01 X19.55148 Y54.47241
G01 X19.60736 Y54.29482
G01 X19.62750 Y54.10978
G01 X19.62750 Y53.29019
G01 X19.60736 Y53.10513
G01 X19.55148 Y52.92753
G01 X19.46204 Y52.76431
G01 X19.35633 Y52.63551
G01 X19.21366 Y52.51593
G01 X19.03230 Y52.41900
G01 X18.87284 Y52.37061
G01 X18.68780 Y52.35047
G01 X18.48313 Y52.37061
G01 X18.30556 Y52.42649
G01 X18.14231 Y52.51593
G01 X18.01351 Y52.62164
G01 X17.88305 Y52.78062
G01 X17.79700 Y52.94567
G01 X17.74480 Y53.12436
G01 X17.72798 Y53.29997
G01 X17.72798 Y54.10000
G01 X17.72798 Y49.49000
G01 X17.74480 Y49.31436
G01 X17.80449 Y49.11756
G01 X17.88305 Y48.97062
G01 X17.99964 Y48.82551
G01 X18.14231 Y48.70593
G01 X18.30556 Y48.61649
G01 X18.50235 Y48.55680
G01 X18.66819 Y48.54047
G01 X18.85361 Y48.55680
G01 X19.05041 Y48.61649
G01 X19.21366 Y48.70593
G01 X19.34246 Y48.81164
G01 X19.47294 Y48.97062
G01 X19.55148 Y49.11756
G01 X19.60736 Y49.29513
G01 X19.62750 Y49.48019
G01 X19.62798 Y50.29000
G01 X19.61117 Y50.46561
G01 X19.55897 Y50.64430
G01 X19.47294 Y50.80935
G01 X19.35633 Y50.95446
G01 X19.21366 Y51.07404
G01 X19.05041 Y51.16348
G01 X18.87284 Y51.21936
G01 X18.66819 Y51.23950
G01 X18.48313 Y51.21936
G01 X18.30556 Y51.16348
G01 X18.14231 Y51.07404
G01 X17.99964 Y50.95446
G01 X17.88305 Y50.80935
G01 X17.79700 Y50.64430
G01 X17.74480 Y50.46561
G01 X17.72798 Y50.29000
G01 X17.72798 Y57.11000
G01 X16.26398 Y61.14598
G01 X16.20706 Y45.75427
G01 X16.20398 Y45.71800
G01 X16.20398 Y44.91800
G01 X16.22080 Y44.74236
G01 X16.27300 Y44.56367
G01 X16.35905 Y44.39862
G01 X16.47564 Y44.25351
G01 X16.61831 Y44.13393
G01 X16.78156 Y44.04449
G01 X16.95913 Y43.98861
G01 X17.14419 Y43.96847
G01 X17.32961 Y43.98480
G01 X17.50830 Y44.03700
G01 X17.67335 Y44.12306
G01 X17.81846 Y44.23964
G01 X17.94894 Y44.39862
G01 X18.03497 Y44.56367
G01 X18.08717 Y44.74236
G01 X18.10398 Y44.91800
G01 X18.10398 Y45.71800
G01 X18.08717 Y45.89361
G01 X18.03497 Y46.07230
G01 X17.94894 Y46.23735
G01 X17.83233 Y46.38246
G01 X17.68966 Y46.50204
G01 X17.52641 Y46.59148
G01 X17.34884 Y46.64736
G01 X17.16380 Y46.66750
G01 X16.95913 Y46.64736
G01 X16.78156 Y46.59148
G01 X16.61831 Y46.50204
G01 X16.47564 Y46.38246
G01 X16.35905 Y46.23735
G01 X16.27300 Y46.07230
G01 X16.22080 Y45.89361
G01 X16.20706 Y45.75427
G01 X16.20398 Y44.91800
G01 X16.26446 Y32.26819
G01 X16.28463 Y32.08313
G01 X16.34051 Y31.90558
G01 X16.42994 Y31.74231
G01 X16.54950 Y31.59964
G01 X16.69461 Y31.48305
G01 X16.85969 Y31.39699
G01 X17.03835 Y31.34480
G01 X17.22379 Y31.32847
G01 X17.40883 Y31.34863
G01 X17.58641 Y31.40449
G01 X17.74965 Y31.49395
G01 X17.89232 Y31.61350
G01 X18.00893 Y31.75861
G01 X18.09499 Y31.92369
G01 X18.14716 Y32.10235
G01 X18.16398 Y32.27799
G01 X18.16398 Y33.07799
G01 X18.14716 Y33.25361
G01 X18.09499 Y33.43230
G01 X18.00893 Y33.59737
G01 X17.87848 Y33.75632
G01 X17.73337 Y33.87294
G01 X17.56830 Y33.95899
G01 X17.40883 Y34.00735
G01 X17.22379 Y34.02750
G01 X17.01912 Y34.00735
G01 X16.85969 Y33.95899
G01 X16.69461 Y33.87294
G01 X16.54950 Y33.75632
G01 X16.41905 Y33.59737
G01 X16.33299 Y33.43230
G01 X16.28079 Y33.25361
G01 X16.26398 Y33.07799
G01 X16.26398 Y32.27799
G04 P0 ( dwell for no time -- G64 should not smooth over this point )
G00 Z5.00000 ( retract )

G00 X23.88398 Y32.27799 ( rapid move to begin. )
G01 F300.00000
( Mill infeed pass 1/1 )
G01 Z-0.05000
G04 P0 ( dwell for no time -- G64 should not smooth over this point )
G01 F600.00000
G01 X23.88398 Y32.27799
G01 X23.88398 Y33.07799
G01 X23.90079 Y33.25361
G01 X23.95299 Y33.43230
G01 X24.03905 Y33.59737
G01 X24.16950 Y33.75632
G01 X24.31461 Y33.87294
G01 X24.47969 Y33.95899
G01 X24.63912 Y34.00735
G01 X24.82419 Y34.02750
G01 X25.02883 Y34.00735
G01 X25.18830 Y33.95899
G01 X25.35337 Y33.87294
G01 X25.49848 Y33.75632
G01 X25.62893 Y33.59737
G01 X25.71499 Y33.43230
G01 X25.76716 Y33.25361
G01 X25.78398 Y33.07799
G01 X25.78398 Y32.27799
G01 X25.76716 Y32.10235
G01 X25.71499 Y31.92369
G01 X25.62893 Y31.75861
G01 X25.51232 Y31.61350
G01 X25.36965 Y31.49395
G01 X25.20641 Y31.40449
G01 X25.02883 Y31.34863
G01 X24.84380 Y31.32847
G01 X24.65835 Y31.34480
G01 X24.47969 Y31.39699
G01 X24.31461 Y31.48305
G01 X24.16950 Y31.59964
G01 X24.04994 Y31.74231
G01 X23.96051 Y31.90558
G01 X23.90463 Y32.08313
G01 X23.88398 Y32.27799
G01 X23.82398 Y44.91800
G01 X23.82398 Y45.71800
G01 X23.84080 Y45.89361
G01 X23.90049 Y46.09041
G01 X23.98995 Y46.25366
G01 X24.10951 Y46.39633
G01 X24.23831 Y46.50204
G01 X24.40156 Y46.59148
G01 X24.57913 Y46.64736
G01 X24.76419 Y46.66750
G01 X24.96884 Y46.64736
G01 X25.14641 Y46.59148
G01 X25.30966 Y46.50204
G01 X25.45233 Y46.38246
G01 X25.56894 Y46.23735
G01 X25.65497 Y46.07230
G01 X25.70717 Y45.89361
G01 X25.72398 Y45.71800
G01 X25.72398 Y44.91800
G01 X25.70717 Y44.74236
G01 X25.64748 Y44.54556
G01 X25.56894 Y44.39862
G01 X25.45233 Y44.25351
G01 X25.30966 Y44.13393
G01 X25.14641 Y44.04449
G01 X24.96884 Y43.98861
G01 X24.78380 Y43.96847
G01 X24.59835 Y43.98480
G01 X24.41967 Y44.03700
G01 X24.25462 Y44.12306
G01 X24.10951 Y44.23964
G01 X23.97905 Y44.39862
G01 X23.90049 Y44.54556
G01 X23.84464 Y44.72313
G01 X23.82398 Y44.91800
G01 X22.80798 Y48.63999
G01 X22.81560 Y48.60171
G01 X22.83727 Y48.56927
G01 X22.86971 Y48.54761
G01 X22.90798 Y48.53999
G01 X24.60798 Y48.53999
G01 X24.62749 Y48.54192
G01 X24.66356 Y48.55683
G01 X24.69114 Y48.58444
G01 X24.70608 Y48.62048
G01 X24.70798 Y51.13998
G01 X24.70039 Y51.17826
G01 X24.69114 Y51.19553
G01 X24.66356 Y51.22314
G01 X24.62749 Y51.23808
G01 X24.60798 Y51.23998
G01 X22.90798 Y51.23998
G01 X22.86971 Y51.23236
G01 X22.83727 Y51.21070
G01 X22.81560 Y51.17826
G01 X22.80798 Y51.13998
G01 X22.80798 Y52.44999
G01 X22.81560 Y52.41171
G01 X22.83727 Y52.37927
G01 X22.86971 Y52.35761
G01 X22.90798 Y52.34999
G01 X24.60798 Y52.34999
G01 X24.62749 Y52.35192
G01 X24.66356 Y52.36683
G01 X24.69114 Y52.39444
G01 X24.70608 Y52.43048
G01 X24.70798 Y54.94998
G01 X24.70039 Y54.98826
G01 X24.69114 Y55.00553
G01 X24.66356 Y55.03312
G01 X24.64626 Y55.04236
G01 X24.60798 Y55.04998
G01 X22.90798 Y55.04998
G01 X22.86971 Y55.04236
G01 X22.83727 Y55.02070
G01 X22.81560 Y54.98826
G01 X22.80798 Y54.94998
G01 X22.80798 Y56.25999
G01 X22.81560 Y56.22171
G01 X22.83727 Y56.18927
G01 X22.86971 Y56.16761
G01 X22.90798 Y56.15999
G01 X24.60798 Y56.15999
G01 X24.62749 Y56.16192
G01 X24.66356 Y56.17683
G01 X24.69114 Y56.20444
G01 X24.70039 Y56.22171
G01 X24.70798 Y56.25999
G01 X24.70798 Y58.75998
G01 X24.70039 Y58.79826
G01 X24.69114 Y58.81553
G01 X24.66356 Y58.84314
G01 X24.62749 Y58.85808
G01 X22.90798 Y58.85998
G01 X22.86971 Y58.85236
G01 X22.83727 Y58.83070
G01 X22.81560 Y58.79826
G01 X22.80992 Y58.77949
G01 X22.80798 Y48.63999
G04 P0 ( dwell for no time -- G64 should not smooth over this point )
G00 Z5.00000 ( retract )

G00 X20.26798 Y57.11000 ( rapid move to begin. )
G01 F300.00000
( Mill infeed pass 1/1 )
G01 Z-0.05000
G04 P0 ( dwell for no time -- G64 should not smooth over this point )
G01 F600.00000
G01 X20.26798 Y57.11000
G01 X20.28864 Y56.91513
G01 X20.34449 Y56.73756
G01 X20.42305 Y56.59062
G01 X20.55351 Y56.43164
G01 X20.68231 Y56.32593
G01 X20.84556 Y56.23649
G01 X21.04235 Y56.17680
G01 X21.20819 Y56.16047
G01 X21.39361 Y56.17680
G01 X21.59041 Y56.23649
G01 X21.75366 Y56.32593
G01 X21.88246 Y56.43164
G01 X22.00204 Y56.57431
G01 X22.09148 Y56.73756
G01 X22.14736 Y56.91513
G01 X22.16798 Y57.11000
G01 X22.16798 Y57.91000
G01 X22.15117 Y58.08561
G01 X22.09148 Y58.28241
G01 X22.01294 Y58.42935
G01 X21.89633 Y58.57446
G01 X21.73735 Y58.70492
G01 X21.59041 Y58.78348
G01 X21.41284 Y58.83936
G01 X21.20819 Y58.85950
G01 X21.02313 Y58.83936
G01 X20.86367 Y58.79097
G01 X20.68231 Y58.69404
G01 X20.53964 Y58.57446
G01 X20.43395 Y58.44566
G01 X20.33700 Y58.26430
G01 X20.28480 Y58.08561
G01 X20.26798 Y57.91000
G01 X20.26798 Y53.29997
G01 X20.26847 Y54.10978
G01 X20.28480 Y54.27561
G01 X20.33700 Y54.45428
G01 X20.42305 Y54.61935
G01 X20.53964 Y54.76446
G01 X20.68231 Y54.88404
G01 X20.84556 Y54.97348
G01 X21.04235 Y55.03317
G01 X21.22780 Y55.04950
G01 X21.39361 Y55.03317
G01 X21.57230 Y54.98097
G01 X21.73735 Y54.89489
G01 X21.88246 Y54.77833
G01 X22.01294 Y54.61935
G01 X22.09148 Y54.47241
G01 X22.14736 Y54.29482
G01 X22.16798 Y54.10000
G01 X22.16750 Y53.29019
G01 X22.14736 Y53.10513
G01 X22.09897 Y52.94567
G01 X22.01294 Y52.78062
G01 X21.89633 Y52.63551
G01 X21.75366 Y52.51593
G01 X21.59041 Y52.42649
G01 X21.41284 Y52.37061
G01 X21.20819 Y52.35047
G01 X21.02313 Y52.37061
G01 X20.84556 Y52.42649
G01 X20.69862 Y52.50506
G01 X20.53964 Y52.63551
G01 X20.42305 Y52.78062
G01 X20.34449 Y52.92753
G01 X20.28864 Y53.10513
G01 X20.26798 Y53.29997
G01 X20.26798 Y49.49000
G01 X20.28480 Y49.31436
G01 X20.34449 Y49.11756
G01 X20.42305 Y48.97062
G01 X20.53964 Y48.82551
G01 X20.69862 Y48.69506
G01 X20.84556 Y48.61649
G01 X21.02313 Y48.56061
G01 X21.20819 Y48.54047
G01 X21.41284 Y48.56061
G01 X21.59041 Y48.61649
G01 X21.73735 Y48.69506
G01 X21.89633 Y48.82551
G01 X22.01294 Y48.97062
G01 X22.09148 Y49.11756
G01 X22.15117 Y49.31436
G01 X22.16798 Y49.49000
G01 X22.16798 Y50.29000
G01 X22.14736 Y50.48484
G01 X22.09148 Y50.66241
G01 X22.00204 Y50.82566
G01 X21.88246 Y50.96833
G01 X21.75366 Y51.07404
G01 X21.59041 Y51.16348
G01 X21.39361 Y51.22317
G01 X21.22780 Y51.23950
G01 X21.04235 Y51.22317
G01 X20.84556 Y51.16348
G01 X20.68231 Y51.07404
G01 X20.55351 Y50.96833
G01 X20.42305 Y50.80935
G01 X20.34449 Y50.66241
G01 X20.28864 Y50.48484
G01 X20.26798 Y50.29000
G04 P0 ( dwell for no time -- G64 should not smooth over this point )
G00 Z5.00000 ( retract )

G00 X26.36398 Y44.91800 ( rapid move to begin. )
G01 F300.00000
( Mill infeed pass 1/1 )
G01 Z-0.05000
G04 P0 ( dwell for no time -- G64 should not smooth over this point )
G01 F600.00000
G01 X26.36398 Y44.91800
G01 X26.38464 Y44.72313
G01 X26.44049 Y44.54556
G01 X26.51905 Y44.39862
G01 X26.64951 Y44.23964
G01 X26.77831 Y44.13393
G01 X26.94156 Y44.04449
G01 X27.13835 Y43.98480
G01 X27.30419 Y43.96847
G01 X27.48961 Y43.98480
G01 X27.68641 Y44.04449
G01 X27.84966 Y44.13393
G01 X27.97846 Y44.23964
G01 X28.09802 Y44.38231
G01 X28.18748 Y44.54556
G01 X28.24336 Y44.72313
G01 X28.26398 Y44.91800
G01 X28.26398 Y45.71800
G01 X28.24717 Y45.89361
G01 X28.18748 Y46.09041
G01 X28.09802 Y46.25366
G01 X27.99230 Y46.38246
G01 X27.83332 Y46.51292
G01 X27.68641 Y46.59148
G01 X27.50884 Y46.64736
G01 X27.32380 Y46.66750
G01 X27.11913 Y46.64736
G01 X26.94156 Y46.59148
G01 X26.79462 Y46.51292
G01 X26.63564 Y46.38246
G01 X26.51905 Y46.23735
G01 X26.44049 Y46.09041
G01 X26.38080 Y45.89361
G01 X26.36398 Y45.71800
G01 X26.36398 Y44.91800
G01 X26.42398 Y32.27799
G01 X26.42398 Y33.07799
G01 X26.44079 Y33.25361
G01 X26.49299 Y33.43230
G01 X26.57905 Y33.59737
G01 X26.70950 Y33.75632
G01 X26.85461 Y33.87294
G01 X27.01969 Y33.95899
G01 X27.17912 Y34.00735
G01 X27.38379 Y34.02750
G01 X27.56883 Y34.00735
G01 X27.72830 Y33.95899
G01 X27.89337 Y33.87294
G01 X28.05230 Y33.74246
G01 X28.16891 Y33.59737
G01 X28.24747 Y33.45041
G01 X28.30335 Y33.27284
G01 X28.32398 Y33.07799
G01 X28.32398 Y32.27799
G01 X28.30716 Y32.10235
G01 X28.24747 Y31.90558
G01 X28.15801 Y31.74231
G01 X28.03848 Y31.59964
G01 X27.89337 Y31.48305
G01 X27.72830 Y31.39699
G01 X27.54961 Y31.34480
G01 X27.36419 Y31.32847
G01 X27.17912 Y31.34863
G01 X27.00158 Y31.40449
G01 X26.83830 Y31.49395
G01 X26.69563 Y31.61350
G01 X26.57905 Y31.75861
G01 X26.49299 Y31.92369
G01 X26.44079 Y32.10235
G01 X26.42398 Y32.27799
G04 P0 ( dwell for no time -- G64 should not smooth over this point )
G00 Z5.00000 ( retract )

G00 X18.80398 Y32.27799 ( rapid move to begin. )
G01 F300.00000
( Mill infeed pass 1/1 )
G01 Z-0.05000
G04 P0 ( dwell for no time -- G64 should not smooth over this point )
G01 F600.00000
G01 X18.80398 Y32.27799
G01 X18.82079 Y32.10235
G01 X18.87299 Y31.92369
G01 X18.95905 Y31.75861
G01 X19.07563 Y31.61350
G01 X19.21830 Y31.49395
G01 X19.38158 Y31.40449
G01 X19.55912 Y31.34863
G01 X19.74419 Y31.32847
G01 X19.92961 Y31.34480
G01 X20.10830 Y31.39699
G01 X20.27337 Y31.48305
G01 X20.41848 Y31.59964
G01 X20.54893 Y31.75861
G01 X20.63499 Y31.92369
G01 X20.68716 Y32.10235
G01 X20.70398 Y32.27799
G01 X20.70398 Y33.07799
G01 X20.68335 Y33.27284
G01 X20.62747 Y33.45041
G01 X20.54893 Y33.59737
G01 X20.43232 Y33.74246
G01 X20.27337 Y33.87294
G01 X20.10830 Y33.95899
G01 X19.94883 Y34.00735
G01 X19.76379 Y34.02750
G01 X19.55912 Y34.00735
G01 X19.39969 Y33.95899
G01 X19.23461 Y33.87294
G01 X19.08950 Y33.75632
G01 X18.95905 Y33.59737
G01 X18.87299 Y33.43230
G01 X18.82079 Y33.25361
G01 X18.80398 Y33.07799
G01 X18.80398 Y32.27799
G01 X18.74398 Y44.91800
G01 X18.74398 Y45.71800
G01 X18.76080 Y45.89361
G01 X18.82049 Y46.09041
G01 X18.89905 Y46.23735
G01 X19.01564 Y46.38246
G01 X19.17462 Y46.51292
G01 X19.32156 Y46.59148
G01 X19.49913 Y46.64736
G01 X19.68419 Y46.66750
G01 X19.88884 Y46.64736
G01 X20.06641 Y46.59148
G01 X20.21335 Y46.51292
G01 X20.37233 Y46.38246
G01 X20.48894 Y46.23735
G01 X20.56748 Y46.09041
G01 X20.62717 Y45.89361
G01 X20.64398 Y45.71800
G01 X20.64398 Y44.91800
G01 X20.62336 Y44.72313
G01 X20.56748 Y44.54556
G01 X20.47804 Y44.38231
G01 X20.35846 Y44.23964
G01 X20.22966 Y44.13393
G01 X20.06641 Y44.04449
G01 X19.86961 Y43.98480
G01 X19.70380 Y43.96847
G01 X19.51835 Y43.98480
G01 X19.32156 Y44.04449
G01 X19.15831 Y44.13393
G01 X19.02951 Y44.23964
G01 X18.89905 Y44.39862
G01 X18.82049 Y44.54556
G01 X18.76464 Y44.72313
G01 X18.74398 Y44.91800
G04 P0 ( dwell for no time -- G64 should not smooth over this point )
G00 Z5.00000 ( retract )

G00 X21.28398 Y44.91800 ( rapid move to begin. )
G01 F300.00000
( Mill infeed pass 1/1 )
G01 Z-0.05000
G04 P0 ( dwell for no time -- G64 should not smooth over this point )
G01 F600.00000
G01 X21.28398 Y44.91800
G01 X21.28398 Y45.71800
G01 X21.30080 Y45.89361
G01 X21.36049 Y46.09041
G01 X21.44995 Y46.25366
G01 X21.56951 Y46.39633
G01 X21.71462 Y46.51292
G01 X21.87967 Y46.59897
G01 X22.05835 Y46.65117
G01 X22.24380 Y46.66750
G01 X22.42884 Y46.64736
G01 X22.60641 Y46.59148
G01 X22.76966 Y46.50204
G01 X22.91233 Y46.38246
G01 X23.02894 Y46.23735
G01 X23.10748 Y46.09041
G01 X23.16717 Y45.89361
G01 X23.18398 Y45.71800
G01 X23.18398 Y44.91800
G01 X23.16336 Y44.72313
G01 X23.10748 Y44.54556
G01 X23.01804 Y44.38231
G01 X22.89846 Y44.23964
G01 X22.76966 Y44.13393
G01 X22.60641 Y44.04449
G01 X22.40961 Y43.98480
G01 X22.24380 Y43.96847
G01 X22.05835 Y43.98480
G01 X21.86156 Y44.04449
G01 X21.69831 Y44.13393
G01 X21.56951 Y44.23964
G01 X21.43905 Y44.39862
G01 X21.36049 Y44.54556
G01 X21.30464 Y44.72313
G01 X21.28398 Y44.91800
G01 X21.34398 Y32.27799
G01 X21.34446 Y33.08780
G01 X21.36079 Y33.25361
G01 X21.41299 Y33.43230
G01 X21.49905 Y33.59737
G01 X21.61563 Y33.74246
G01 X21.75830 Y33.86204
G01 X21.92158 Y33.95147
G01 X22.09912 Y34.00735
G01 X22.30379 Y34.02750
G01 X22.48883 Y34.00735
G01 X22.64830 Y33.95899
G01 X22.81337 Y33.87294
G01 X22.95848 Y33.75632
G01 X23.08893 Y33.59737
G01 X23.17499 Y33.43230
G01 X23.22335 Y33.27284
G01 X23.24398 Y33.07799
G01 X23.24349 Y32.26819
G01 X23.22335 Y32.08313
G01 X23.17499 Y31.92369
G01 X23.08893 Y31.75861
G01 X22.97232 Y31.61350
G01 X22.82965 Y31.49395
G01 X22.66641 Y31.40449
G01 X22.46961 Y31.34480
G01 X22.28419 Y31.32847
G01 X22.11835 Y31.34480
G01 X21.93969 Y31.39699
G01 X21.77461 Y31.48305
G01 X21.62950 Y31.59964
G01 X21.49905 Y31.75861
G01 X21.41299 Y31.92369
G01 X21.36463 Y32.08313
G01 X21.34398 Y32.27799
G01 X21.39247 Y27.14719
G01 X21.40880 Y27.33261
G01 X21.46100 Y27.51130
G01 X21.54705 Y27.67633
G01 X21.66364 Y27.82146
G01 X21.80631 Y27.94102
G01 X21.96956 Y28.03048
G01 X22.14713 Y28.08636
G01 X22.34200 Y28.10698
G01 X23.14199 Y28.10698
G01 X23.31761 Y28.09014
G01 X23.49630 Y28.03797
G01 X23.66137 Y27.95192
G01 X23.82033 Y27.82146
G01 X23.93694 Y27.67633
G01 X24.01548 Y27.52941
G01 X24.07136 Y27.35184
G01 X24.09150 Y27.16678
G01 X24.07517 Y26.98136
G01 X24.02297 Y26.80267
G01 X23.93694 Y26.63762
G01 X23.82033 Y26.49251
G01 X23.67766 Y26.37293
G01 X23.51441 Y26.28349
G01 X23.33684 Y26.22764
G01 X23.14199 Y26.20699
G01 X22.34200 Y26.20699
G01 X22.16636 Y26.22380
G01 X21.98767 Y26.27600
G01 X21.82262 Y26.36205
G01 X21.67751 Y26.47864
G01 X21.54705 Y26.63762
G01 X21.46100 Y26.80267
G01 X21.40880 Y26.98136
G01 X21.39247 Y27.14719
G01 X21.39392 Y23.74748
G01 X21.39994 Y23.72802
G01 X21.42127 Y23.69627
G01 X21.45371 Y23.67461
G01 X21.49199 Y23.66699
G01 X23.99198 Y23.66699
G01 X24.01149 Y23.66892
G01 X24.04756 Y23.68383
G01 X24.07514 Y23.71144
G01 X24.08439 Y23.72871
G01 X24.09198 Y23.76699
G01 X24.09198 Y25.46698
G01 X24.08439 Y25.50526
G01 X24.07514 Y25.52253
G01 X24.04756 Y25.55014
G01 X24.01149 Y25.56505
G01 X23.99198 Y25.56698
G01 X21.49199 Y25.56698
G01 X21.45371 Y25.55936
G01 X21.43644 Y25.55014
G01 X21.42127 Y25.53770
G01 X21.39961 Y25.50526
G01 X21.39199 Y25.46698
G01 X21.39199 Y23.76699
G01 X23.17047 Y15.08217
G01 X23.19064 Y14.89713
G01 X23.24649 Y14.71956
G01 X23.32505 Y14.57262
G01 X23.44164 Y14.42751
G01 X23.58431 Y14.30793
G01 X23.74756 Y14.21849
G01 X23.92513 Y14.16264
G01 X24.12000 Y14.14199
G01 X24.92000 Y14.14199
G01 X25.09561 Y14.15880
G01 X25.27430 Y14.21100
G01 X25.43937 Y14.29705
G01 X25.58446 Y14.41364
G01 X25.70404 Y14.55631
G01 X25.79348 Y14.71956
G01 X25.84936 Y14.89713
G01 X25.86950 Y15.10178
G01 X25.84936 Y15.28684
G01 X25.79348 Y15.46441
G01 X25.71494 Y15.61135
G01 X25.59833 Y15.75646
G01 X25.45566 Y15.87605
G01 X25.29241 Y15.96548
G01 X25.09561 Y16.02517
G01 X24.92000 Y16.04198
G01 X24.12000 Y16.04198
G01 X23.92513 Y16.02136
G01 X23.74756 Y15.96548
G01 X23.58431 Y15.87605
G01 X23.44164 Y15.75646
G01 X23.32505 Y15.61135
G01 X23.24649 Y15.46441
G01 X23.19064 Y15.28684
G01 X23.17047 Y15.10178
G01 X23.17047 Y12.56178
G01 X23.18680 Y12.72761
G01 X23.23900 Y12.90630
G01 X23.32505 Y13.07135
G01 X23.44164 Y13.21646
G01 X23.60062 Y13.34692
G01 X23.76567 Y13.43297
G01 X23.94436 Y13.48517
G01 X24.12000 Y13.50198
G01 X24.92000 Y13.50198
G01 X25.11484 Y13.48136
G01 X25.29241 Y13.42548
G01 X25.45566 Y13.33605
G01 X25.59833 Y13.21646
G01 X25.71494 Y13.07135
G01 X25.80097 Y12.90630
G01 X25.85317 Y12.72761
G01 X25.86950 Y12.54219
G01 X25.84936 Y12.35713
G01 X25.79348 Y12.17956
G01 X25.71494 Y12.03262
G01 X25.59833 Y11.88751
G01 X25.43937 Y11.75705
G01 X25.27430 Y11.67100
G01 X25.09561 Y11.61880
G01 X24.92000 Y11.60199
G01 X24.12000 Y11.60199
G01 X23.92513 Y11.62264
G01 X23.74756 Y11.67849
G01 X23.58431 Y11.76793
G01 X23.44164 Y11.88751
G01 X23.32505 Y12.03262
G01 X23.23900 Y12.19767
G01 X23.18680 Y12.37636
G01 X23.17047 Y12.56178
G01 X23.16999 Y9.16199
G01 X23.17761 Y9.12371
G01 X23.19927 Y9.09127
G01 X23.21444 Y9.07883
G01 X23.23171 Y9.06961
G01 X23.26999 Y9.06199
G01 X25.76998 Y9.06199
G01 X25.80826 Y9.06961
G01 X25.84069 Y9.09127
G01 X25.86239 Y9.12371
G01 X25.86998 Y9.16199
G01 X25.86998 Y10.86198
G01 X25.86239 Y10.90026
G01 X25.84069 Y10.93270
G01 X25.80826 Y10.95436
G01 X25.76998 Y10.96198
G01 X23.26999 Y10.96198
G01 X23.23171 Y10.95436
G01 X23.21444 Y10.94514
G01 X23.19927 Y10.93270
G01 X23.17761 Y10.90026
G01 X23.16999 Y10.86198
G01 X23.16999 Y9.16199
G04 P0 ( dwell for no time -- G64 should not smooth over this point )
G00 Z5.00000 ( retract )

G00 X27.23447 Y15.08217 ( rapid move to begin. )
G01 F300.00000
( Mill infeed pass 1/1 )
G01 Z-0.05000
G04 P0 ( dwell for no time -- G64 should not smooth over this point )
G01 F600.00000
G01 X27.23447 Y15.08217
G01 X27.25080 Y14.91633
G01 X27.30300 Y14.73767
G01 X27.38905 Y14.57262
G01 X27.51951 Y14.41364
G01 X27.64829 Y14.30793
G01 X27.81156 Y14.21849
G01 X27.98913 Y14.16264
G01 X28.18400 Y14.14199
G01 X28.98400 Y14.14199
G01 X29.15961 Y14.15880
G01 X29.35641 Y14.21849
G01 X29.51966 Y14.30793
G01 X29.66233 Y14.42751
G01 X29.77894 Y14.57262
G01 X29.85748 Y14.71956
G01 X29.91336 Y14.89713
G01 X29.93350 Y15.08217
G01 X29.91336 Y15.28684
G01 X29.85748 Y15.46441
G01 X29.77894 Y15.61135
G01 X29.66233 Y15.75646
G01 X29.50337 Y15.88692
G01 X29.35641 Y15.96548
G01 X29.17884 Y16.02136
G01 X28.98400 Y16.04198
G01 X28.17419 Y16.04150
G01 X27.98913 Y16.02136
G01 X27.82967 Y15.97297
G01 X27.66462 Y15.88692
G01 X27.51951 Y15.77033
G01 X27.39995 Y15.62766
G01 X27.31049 Y15.46441
G01 X27.25464 Y15.28684
G01 X27.23447 Y15.10178
G01 X27.23447 Y12.54219
G01 X27.25080 Y12.72761
G01 X27.30300 Y12.90630
G01 X27.38905 Y13.07135
G01 X27.50564 Y13.21646
G01 X27.64829 Y13.33605
G01 X27.81156 Y13.42548
G01 X27.98913 Y13.48136
G01 X28.18400 Y13.50198
G01 X28.98400 Y13.50198
G01 X29.15961 Y13.48517
G01 X29.33830 Y13.43297
G01 X29.50337 Y13.34692
G01 X29.66233 Y13.21646
G01 X29.77894 Y13.07135
G01 X29.85748 Y12.92441
G01 X29.91336 Y12.74684
G01 X29.93350 Y12.54219
G01 X29.91336 Y12.35713
G01 X29.85748 Y12.17956
G01 X29.76804 Y12.01631
G01 X29.64846 Y11.87364
G01 X29.50337 Y11.75705
G01 X29.33830 Y11.67100
G01 X29.15961 Y11.61880
G01 X28.98400 Y11.60199
G01 X28.18400 Y11.60199
G01 X28.00836 Y11.61880
G01 X27.82967 Y11.67100
G01 X27.66462 Y11.75705
G01 X27.50564 Y11.88751
G01 X27.38905 Y12.03262
G01 X27.30300 Y12.19767
G01 X27.25080 Y12.37636
G01 X27.23447 Y12.54219
G01 X27.23399 Y9.16199
G01 X27.24161 Y9.12371
G01 X27.26327 Y9.09127
G01 X27.29571 Y9.06961
G01 X27.33399 Y9.06199
G01 X29.83398 Y9.06199
G01 X29.87226 Y9.06961
G01 X29.90469 Y9.09127
G01 X29.92639 Y9.12371
G01 X29.93398 Y9.16199
G01 X29.93398 Y10.86198
G01 X29.92639 Y10.90026
G01 X29.90469 Y10.93270
G01 X29.87226 Y10.95436
G01 X29.83398 Y10.96198
G01 X27.33399 Y10.96198
G01 X27.29571 Y10.95436
G01 X27.27844 Y10.94514
G01 X27.26327 Y10.93270
G01 X27.24161 Y10.90026
G01 X27.23399 Y10.86198
G01 X27.23399 Y9.16199
G04 P0 ( dwell for no time -- G64 should not smooth over this point )
G00 Z5.00000 ( retract )

G00 X31.29799 Y9.16199 ( rapid move to begin. )
G01 F300.00000
( Mill infeed pass 1/1 )
G01 Z-0.05000
G04 P0 ( dwell for no time -- G64 should not smooth over this point )
G01 F600.00000
G01 X31.29799 Y9.16199
G01 X31.29799 Y10.86198
G01 X31.30561 Y10.90026
G01 X31.32727 Y10.93270
G01 X31.35971 Y10.95436
G01 X31.39799 Y10.96198
G01 X33.89798 Y10.96198
G01 X33.91749 Y10.96005
G01 X33.95356 Y10.94514
G01 X33.98114 Y10.91753
G01 X33.99039 Y10.90026
G01 X33.99798 Y10.86198
G01 X33.99798 Y9.16199
G01 X33.99039 Y9.12371
G01 X33.96869 Y9.09127
G01 X33.93626 Y9.06961
G01 X33.89798 Y9.06199
G01 X31.39799 Y9.06199
G01 X31.35971 Y9.06961
G01 X31.32727 Y9.09127
G01 X31.30561 Y9.12371
G01 X31.29799 Y9.16199
G01 X31.29847 Y12.54219
G01 X31.31864 Y12.35713
G01 X31.37449 Y12.17956
G01 X31.46395 Y12.01631
G01 X31.58351 Y11.87364
G01 X31.72862 Y11.75705
G01 X31.89367 Y11.67100
G01 X32.07236 Y11.61880
G01 X32.24800 Y11.60199
G01 X33.04800 Y11.60199
G01 X33.22361 Y11.61880
G01 X33.40230 Y11.67100
G01 X33.56737 Y11.75705
G01 X33.71246 Y11.87364
G01 X33.84294 Y12.03262
G01 X33.92148 Y12.17956
G01 X33.97736 Y12.35713
G01 X33.99750 Y12.54219
G01 X33.98117 Y12.72761
G01 X33.92897 Y12.90630
G01 X33.84294 Y13.07135
G01 X33.72633 Y13.21646
G01 X33.58366 Y13.33605
G01 X33.42041 Y13.42548
G01 X33.24284 Y13.48136
G01 X33.04800 Y13.50198
G01 X32.24800 Y13.50198
G01 X32.07236 Y13.48517
G01 X31.89367 Y13.43297
G01 X31.72862 Y13.34692
G01 X31.56964 Y13.21646
G01 X31.45305 Y13.07135
G01 X31.37449 Y12.92441
G01 X31.31480 Y12.72761
G01 X31.29847 Y12.54219
G01 X31.29847 Y15.10178
G01 X31.31864 Y15.28684
G01 X31.37449 Y15.46441
G01 X31.45305 Y15.61135
G01 X31.56964 Y15.75646
G01 X31.72862 Y15.88692
G01 X31.87556 Y15.96548
G01 X32.05313 Y16.02136
G01 X32.24800 Y16.04198
G01 X33.05780 Y16.04150
G01 X33.24284 Y16.02136
G01 X33.40230 Y15.97297
G01 X33.56737 Y15.88692
G01 X33.71246 Y15.77033
G01 X33.83204 Y15.62766
G01 X33.92148 Y15.46441
G01 X33.97736 Y15.28684
G01 X33.99750 Y15.08217
G01 X33.97736 Y14.89713
G01 X33.92148 Y14.71956
G01 X33.84294 Y14.57262
G01 X33.72633 Y14.42751
G01 X33.58366 Y14.30793
G01 X33.42041 Y14.21849
G01 X33.22361 Y14.15880
G01 X33.04800 Y14.14199
G01 X32.24800 Y14.14199
G01 X32.05313 Y14.16264
G01 X31.87556 Y14.21849
G01 X31.71231 Y14.30793
G01 X31.58351 Y14.41364
G01 X31.45305 Y14.57262
G01 X31.36700 Y14.73767
G01 X31.31480 Y14.91633
G01 X31.29847 Y15.08217
G04 P0 ( dwell for no time -- G64 should not smooth over this point )
G00 Z5.00000 ( retract )

G00 X35.36247 Y15.08217 ( rapid move to begin. )
G01 F300.00000
( Mill infeed pass 1/1 )
G01 Z-0.05000
G04 P0 ( dwell for no time -- G64 should not smooth over this point )
G01 F600.00000
G01 X35.36247 Y15.08217
G01 X35.37880 Y14.91633
G01 X35.43100 Y14.73767
G01 X35.51705 Y14.57262
G01 X35.64751 Y14.41364
G01 X35.77631 Y14.30793
G01 X35.93956 Y14.21849
G01 X36.11713 Y14.16264
G01 X36.31200 Y14.14199
G01 X37.11200 Y14.14199
G01 X37.28761 Y14.15880
G01 X37.48441 Y14.21849
G01 X37.64766 Y14.30793
G01 X37.79033 Y14.42751
G01 X37.90694 Y14.57262
G01 X37.98548 Y14.71956
G01 X38.04136 Y14.89713
G01 X38.06150 Y15.08217
G01 X38.04136 Y15.28684
G01 X37.98548 Y15.46441
G01 X37.90694 Y15.61135
G01 X37.79033 Y15.75646
G01 X37.63137 Y15.88692
G01 X37.48441 Y15.96548
G01 X37.30684 Y16.02136
G01 X37.11200 Y16.04198
G01 X36.30219 Y16.04150
G01 X36.11713 Y16.02136
G01 X35.95767 Y15.97297
G01 X35.79262 Y15.88692
G01 X35.64751 Y15.77033
G01 X35.52795 Y15.62766
G01 X35.43849 Y15.46441
G01 X35.38264 Y15.28684
G01 X35.36247 Y15.10178
G01 X35.36247 Y12.54219
G01 X35.37880 Y12.72761
G01 X35.43100 Y12.90630
G01 X35.51705 Y13.07135
G01 X35.63364 Y13.21646
G01 X35.77631 Y13.33605
G01 X35.93956 Y13.42548
G01 X36.11713 Y13.48136
G01 X36.31200 Y13.50198
G01 X37.11200 Y13.50198
G01 X37.28761 Y13.48517
G01 X37.46630 Y13.43297
G01 X37.63137 Y13.34692
G01 X37.77646 Y13.23033
G01 X37.90694 Y13.07135
G01 X37.98548 Y12.92441
G01 X38.04136 Y12.74684
G01 X38.06150 Y12.54219
G01 X38.04136 Y12.35713
G01 X37.98548 Y12.17956
G01 X37.89604 Y12.01631
G01 X37.77646 Y11.87364
G01 X37.63137 Y11.75705
G01 X37.46630 Y11.67100
G01 X37.28761 Y11.61880
G01 X37.11200 Y11.60199
G01 X36.31200 Y11.60199
G01 X36.13636 Y11.61880
G01 X35.95767 Y11.67100
G01 X35.79262 Y11.75705
G01 X35.64751 Y11.87364
G01 X35.51705 Y12.03262
G01 X35.43100 Y12.19767
G01 X35.37880 Y12.37636
G01 X35.36247 Y12.54219
G01 X35.36199 Y9.16199
G01 X35.36961 Y9.12371
G01 X35.39127 Y9.09127
G01 X35.42371 Y9.06961
G01 X35.46199 Y9.06199
G01 X37.96198 Y9.06199
G01 X38.00026 Y9.06961
G01 X38.03269 Y9.09127
G01 X38.05439 Y9.12371
G01 X38.06198 Y9.16199
G01 X38.06198 Y10.86198
G01 X38.05439 Y10.90026
G01 X38.03269 Y10.93270
G01 X38.00026 Y10.95436
G01 X37.96198 Y10.96198
G01 X35.46199 Y10.96198
G01 X35.42371 Y10.95436
G01 X35.40644 Y10.94514
G01 X35.39127 Y10.93270
G01 X35.36961 Y10.90026
G01 X35.36199 Y10.86198
G01 X35.36199 Y9.16199
G04 P0 ( dwell for no time -- G64 should not smooth over this point )
G00 Z5.00000 ( retract )

G00 X39.42599 Y9.16199 ( rapid move to begin. )
G01 F300.00000
( Mill infeed pass 1/1 )
G01 Z-0.05000
G04 P0 ( dwell for no time -- G64 should not smooth over this point )
G01 F600.00000
G01 X39.42599 Y9.16199
G01 X39.42599 Y10.86198
G01 X39.43361 Y10.90026
G01 X39.45527 Y10.93270
G01 X39.48771 Y10.95436
G01 X39.52599 Y10.96198
G01 X42.02598 Y10.96198
G01 X42.04549 Y10.96005
G01 X42.08156 Y10.94514
G01 X42.10914 Y10.91753
G01 X42.11839 Y10.90026
G01 X42.12598 Y10.86198
G01 X42.12598 Y9.16199
G01 X42.11839 Y9.12371
G01 X42.09669 Y9.09127
G01 X42.06426 Y9.06961
G01 X42.02598 Y9.06199
G01 X39.52599 Y9.06199
G01 X39.48771 Y9.06961
G01 X39.45527 Y9.09127
G01 X39.43361 Y9.12371
G01 X39.42599 Y9.16199
G01 X39.42647 Y12.54219
G01 X39.44664 Y12.35713
G01 X39.50249 Y12.17956
G01 X39.59195 Y12.01631
G01 X39.71151 Y11.87364
G01 X39.85662 Y11.75705
G01 X40.02167 Y11.67100
G01 X40.20036 Y11.61880
G01 X40.37600 Y11.60199
G01 X41.17600 Y11.60199
G01 X41.35161 Y11.61880
G01 X41.53030 Y11.67100
G01 X41.69537 Y11.75705
G01 X41.85433 Y11.88751
G01 X41.97094 Y12.03262
G01 X42.04948 Y12.17956
G01 X42.10536 Y12.35713
G01 X42.12550 Y12.54219
G01 X42.10917 Y12.72761
G01 X42.05697 Y12.90630
G01 X41.97094 Y13.07135
G01 X41.85433 Y13.21646
G01 X41.71166 Y13.33605
G01 X41.54841 Y13.42548
G01 X41.37084 Y13.48136
G01 X41.17600 Y13.50198
G01 X40.37600 Y13.50198
G01 X40.20036 Y13.48517
G01 X40.02167 Y13.43297
G01 X39.85662 Y13.34692
G01 X39.69764 Y13.21646
G01 X39.58105 Y13.07135
G01 X39.50249 Y12.92441
G01 X39.44280 Y12.72761
G01 X39.42647 Y12.54219
G01 X39.42647 Y15.10178
G01 X39.44664 Y15.28684
G01 X39.50249 Y15.46441
G01 X39.58105 Y15.61135
G01 X39.69764 Y15.75646
G01 X39.85662 Y15.88692
G01 X40.00356 Y15.96548
G01 X40.18113 Y16.02136
G01 X40.37600 Y16.04198
G01 X41.18580 Y16.04150
G01 X41.37084 Y16.02136
G01 X41.53030 Y15.97297
G01 X41.69537 Y15.88692
G01 X41.84046 Y15.77033
G01 X41.96004 Y15.62766
G01 X42.04948 Y15.46441
G01 X42.10536 Y15.28684
G01 X42.12550 Y15.08217
G01 X42.10536 Y14.89713
G01 X42.04948 Y14.71956
G01 X41.97094 Y14.57262
G01 X41.85433 Y14.42751
G01 X41.71166 Y14.30793
G01 X41.54841 Y14.21849
G01 X41.35161 Y14.15880
G01 X41.17600 Y14.14199
G01 X40.37600 Y14.14199
G01 X40.18113 Y14.16264
G01 X40.00356 Y14.21849
G01 X39.84031 Y14.30793
G01 X39.71151 Y14.41364
G01 X39.58105 Y14.57262
G01 X39.49500 Y14.73767
G01 X39.44280 Y14.91633
G01 X39.42647 Y15.08217
G04 P0 ( dwell for no time -- G64 should not smooth over this point )
G00 Z5.00000 ( retract )

G00 X46.07398 Y29.40398 ( rapid move to begin. )
G01 F300.00000
( Mill infeed pass 1/1 )
G01 Z-0.05000
G04 P0 ( dwell for no time -- G64 should not smooth over this point )
G01 F600.00000
G01 X46.07398 Y29.40398
G01 X46.07398 Y25.16399
G01 X46.08160 Y25.12571
G01 X46.10326 Y25.09327
G01 X46.13573 Y25.07161
G01 X46.17398 Y25.06399
G01 X49.67400 Y25.06399
G01 X49.71225 Y25.07161
G01 X49.74471 Y25.09327
G01 X49.76638 Y25.12571
G01 X49.77207 Y25.14448
G01 X49.77400 Y25.24169
G01 X49.90232 Y25.34951
G01 X50.00803 Y25.47831
G01 X50.09747 Y25.64156
G01 X50.15718 Y25.83836
G01 X50.17351 Y26.02378
G01 X50.15335 Y26.20884
G01 X50.09747 Y26.38641
G01 X50.00803 Y26.54966
G01 X49.90232 Y26.67846
G01 X49.77400 Y26.78629
G01 X49.77400 Y26.86398
G01 X49.76638 Y26.90226
G01 X49.74471 Y26.93470
G01 X49.71225 Y26.95636
G01 X49.67400 Y26.96398
G01 X46.17398 Y26.96398
G01 X46.13573 Y26.95636
G01 X46.10326 Y26.93470
G01 X46.08160 Y26.90226
G01 X46.07398 Y26.86398
G01 X46.07398 Y27.70396
G01 X46.08160 Y27.66571
G01 X46.10326 Y27.63327
G01 X46.13573 Y27.61161
G01 X46.17398 Y27.60399
G01 X49.69350 Y27.60592
G01 X49.72955 Y27.62080
G01 X49.74471 Y27.63327
G01 X49.76638 Y27.66571
G01 X49.77400 Y27.70396
G01 X49.77400 Y27.78169
G01 X49.90232 Y27.88951
G01 X50.00803 Y28.01829
G01 X50.09747 Y28.18156
G01 X50.15335 Y28.35913
G01 X50.17351 Y28.54419
G01 X50.15718 Y28.72961
G01 X50.09747 Y28.92641
G01 X50.00803 Y29.08966
G01 X49.90232 Y29.21846
G01 X49.77400 Y29.32629
G01 X49.77400 Y29.40398
G01 X49.76638 Y29.44226
G01 X49.74471 Y29.47470
G01 X49.72955 Y29.48714
G01 X49.69350 Y29.50205
G01 X46.17398 Y29.50398
G01 X46.13573 Y29.49636
G01 X46.10326 Y29.47470
G01 X46.08160 Y29.44226
G01 X46.07398 Y29.40398
G01 X46.07398 Y30.24399
G01 X46.08160 Y30.20571
G01 X46.10326 Y30.17327
G01 X46.13573 Y30.15161
G01 X46.17398 Y30.14399
G01 X50.07400 Y30.14399
G01 X50.11225 Y30.15161
G01 X50.14471 Y30.17327
G01 X50.16638 Y30.20571
G01 X50.17400 Y30.24399
G01 X50.17400 Y31.94398
G01 X50.16638 Y31.98226
G01 X50.15713 Y31.99953
G01 X50.12955 Y32.02714
G01 X50.11225 Y32.03636
G01 X50.07400 Y32.04398
G01 X46.17398 Y32.04398
G01 X46.13573 Y32.03636
G01 X46.10326 Y32.01470
G01 X46.08160 Y31.98226
G01 X46.07398 Y31.94398
G01 X46.07398 Y32.78399
G01 X46.08160 Y32.74571
G01 X46.10326 Y32.71327
G01 X46.13573 Y32.69161
G01 X46.17398 Y32.68399
G01 X49.69350 Y32.68592
G01 X49.72955 Y32.70083
G01 X49.74471 Y32.71327
G01 X49.76638 Y32.74571
G01 X49.77400 Y32.78399
G01 X49.77400 Y32.86169
G01 X49.90232 Y32.96951
G01 X50.00803 Y33.09831
G01 X50.09747 Y33.26156
G01 X50.15335 Y33.43913
G01 X50.17351 Y33.62419
G01 X50.15718 Y33.80961
G01 X50.09747 Y34.00641
G01 X50.00803 Y34.16966
G01 X49.90232 Y34.29846
G01 X49.77400 Y34.40629
G01 X49.77400 Y34.48398
G01 X49.76638 Y34.52226
G01 X49.74471 Y34.55470
G01 X49.72955 Y34.56714
G01 X49.69350 Y34.58205
G01 X46.17398 Y34.58398
G01 X46.13573 Y34.57636
G01 X46.10326 Y34.55470
G01 X46.08160 Y34.52226
G01 X46.07398 Y34.48398
G01 X46.07398 Y35.32399
G01 X46.08160 Y35.28571
G01 X46.10326 Y35.25327
G01 X46.13573 Y35.23161
G01 X46.17398 Y35.22399
G01 X49.69350 Y35.22592
G01 X49.72955 Y35.24083
G01 X49.74471 Y35.25327
G01 X49.76638 Y35.28571
G01 X49.77400 Y35.32399
G01 X49.77400 Y35.40169
G01 X49.90232 Y35.50951
G01 X50.00803 Y35.63831
G01 X50.09747 Y35.80156
G01 X50.15335 Y35.97913
G01 X50.17351 Y36.16419
G01 X50.15718 Y36.34961
G01 X50.09747 Y36.54641
G01 X50.00803 Y36.70966
G01 X49.90232 Y36.83846
G01 X49.77400 Y36.94629
G01 X49.77400 Y37.02398
G01 X49.76638 Y37.06226
G01 X49.74471 Y37.09470
G01 X49.72955 Y37.10714
G01 X49.69350 Y37.12205
G01 X46.17398 Y37.12398
G01 X46.13573 Y37.11636
G01 X46.10326 Y37.09470
G01 X46.08160 Y37.06226
G01 X46.07398 Y37.02398
G01 X46.07398 Y37.86399
G01 X46.08160 Y37.82571
G01 X46.10326 Y37.79327
G01 X46.13573 Y37.77161
G01 X46.17398 Y37.76399
G01 X49.69350 Y37.76592
G01 X49.72955 Y37.78083
G01 X49.74471 Y37.79327
G01 X49.76638 Y37.82571
G01 X49.77400 Y37.86399
G01 X49.77400 Y37.94169
G01 X49.90232 Y38.04951
G01 X50.00803 Y38.17831
G01 X50.09747 Y38.34156
G01 X50.15335 Y38.51913
G01 X50.17351 Y38.70419
G01 X50.15718 Y38.88961
G01 X50.09747 Y39.08641
G01 X50.00803 Y39.24966
G01 X49.90232 Y39.37846
G01 X49.77400 Y39.48629
G01 X49.77400 Y39.56398
G01 X49.76638 Y39.60226
G01 X49.74471 Y39.63470
G01 X49.72955 Y39.64714
G01 X49.69350 Y39.66205
G01 X46.17398 Y39.66398
G01 X46.13573 Y39.65636
G01 X46.10326 Y39.63470
G01 X46.08160 Y39.60226
G01 X46.07398 Y39.56398
G01 X46.07398 Y40.40399
G01 X46.08160 Y40.36571
G01 X46.10326 Y40.33327
G01 X46.13573 Y40.31161
G01 X46.17398 Y40.30399
G01 X49.69350 Y40.30592
G01 X49.72955 Y40.32083
G01 X49.74471 Y40.33327
G01 X49.76638 Y40.36571
G01 X49.77400 Y40.40399
G01 X49.77400 Y40.48169
G01 X49.90232 Y40.58951
G01 X50.01893 Y40.73462
G01 X50.10498 Y40.89967
G01 X50.15718 Y41.07836
G01 X50.17351 Y41.24419
G01 X50.15718 Y41.42961
G01 X50.10498 Y41.60830
G01 X50.00803 Y41.78966
G01 X49.90232 Y41.91846
G01 X49.77400 Y42.02629
G01 X49.77400 Y42.10398
G01 X49.76638 Y42.14226
G01 X49.74471 Y42.17470
G01 X49.72955 Y42.18714
G01 X49.69350 Y42.20205
G01 X46.17398 Y42.20398
G01 X46.13573 Y42.19636
G01 X46.10326 Y42.17470
G01 X46.08160 Y42.14226
G01 X46.07398 Y42.10398
G01 X46.07398 Y42.94399
G01 X46.08160 Y42.90571
G01 X46.10326 Y42.87327
G01 X46.13573 Y42.85161
G01 X46.17398 Y42.84399
G01 X50.07400 Y42.84399
G01 X50.11225 Y42.85161
G01 X50.14471 Y42.87327
G01 X50.16638 Y42.90571
G01 X50.17207 Y42.92448
G01 X50.17400 Y44.64398
G01 X50.16638 Y44.68226
G01 X50.15713 Y44.69953
G01 X50.12955 Y44.72714
G01 X50.11225 Y44.73636
G01 X50.07400 Y44.74398
G01 X46.17398 Y44.74398
G01 X46.13573 Y44.73636
G01 X46.10326 Y44.71470
G01 X46.08160 Y44.68226
G01 X46.07398 Y44.64398
G01 X46.07398 Y45.48399
G01 X46.08160 Y45.44571
G01 X46.10326 Y45.41327
G01 X46.13573 Y45.39161
G01 X46.17398 Y45.38399
G01 X49.69350 Y45.38592
G01 X49.72955 Y45.40083
G01 X49.74471 Y45.41327
G01 X49.76638 Y45.44571
G01 X49.77400 Y45.48399
G01 X49.77400 Y45.56169
G01 X49.90232 Y45.66951
G01 X50.01893 Y45.81462
G01 X50.10498 Y45.97967
G01 X50.15718 Y46.15836
G01 X50.17351 Y46.32419
G01 X50.15718 Y46.50961
G01 X50.10498 Y46.68830
G01 X50.00803 Y46.86966
G01 X49.90232 Y46.99846
G01 X49.77400 Y47.10629
G01 X49.77400 Y47.18398
G01 X49.76638 Y47.22226
G01 X49.74471 Y47.25470
G01 X49.72955 Y47.26714
G01 X49.69350 Y47.28205
G01 X46.17398 Y47.28398
G01 X46.13573 Y47.27636
G01 X46.10326 Y47.25470
G01 X46.08160 Y47.22226
G01 X46.07398 Y47.18398
G01 X46.07398 Y48.02399
G01 X46.08160 Y47.98571
G01 X46.10326 Y47.95327
G01 X46.13573 Y47.93161
G01 X46.17398 Y47.92399
G01 X49.69350 Y47.92592
G01 X49.72955 Y47.94083
G01 X49.74471 Y47.95327
G01 X49.76638 Y47.98571
G01 X49.77400 Y48.02399
G01 X49.77400 Y48.10169
G01 X49.90232 Y48.20951
G01 X50.01893 Y48.35462
G01 X50.10498 Y48.51967
G01 X50.15718 Y48.69836
G01 X50.17351 Y48.86419
G01 X50.15718 Y49.04961
G01 X50.10498 Y49.22830
G01 X50.00803 Y49.40966
G01 X49.90232 Y49.53846
G01 X49.77400 Y49.64629
G01 X49.77400 Y49.72398
G01 X49.76638 Y49.76226
G01 X49.74471 Y49.79470
G01 X49.72955 Y49.80714
G01 X49.69350 Y49.82205
G01 X46.17398 Y49.82398
G01 X46.13573 Y49.81636
G01 X46.10326 Y49.79470
G01 X46.08160 Y49.76226
G01 X46.07398 Y49.72398
G01 X46.07398 Y50.56399
G01 X46.08160 Y50.52571
G01 X46.10326 Y50.49327
G01 X46.13573 Y50.47161
G01 X46.17398 Y50.46399
G01 X49.69350 Y50.46592
G01 X49.72955 Y50.48083
G01 X49.74471 Y50.49327
G01 X49.76638 Y50.52571
G01 X49.77400 Y50.56399
G01 X49.77400 Y50.64169
G01 X49.90232 Y50.74951
G01 X50.01893 Y50.89462
G01 X50.10498 Y51.05967
G01 X50.15718 Y51.23836
G01 X50.17351 Y51.40419
G01 X50.15718 Y51.58961
G01 X50.10498 Y51.76830
G01 X50.00803 Y51.94966
G01 X49.90232 Y52.07846
G01 X49.77400 Y52.18629
G01 X49.77400 Y52.26398
G01 X49.76638 Y52.30226
G01 X49.74471 Y52.33470
G01 X49.72955 Y52.34714
G01 X49.69350 Y52.36205
G01 X46.17398 Y52.36398
G01 X46.13573 Y52.35636
G01 X46.10326 Y52.33470
G01 X46.08160 Y52.30226
G01 X46.07398 Y52.26398
G01 X46.07398 Y53.10399
G01 X46.08160 Y53.06571
G01 X46.10326 Y53.03325
G01 X46.13573 Y53.01161
G01 X46.17398 Y53.00396
G01 X49.69350 Y53.00589
G01 X49.72955 Y53.02083
G01 X49.74471 Y53.03325
G01 X49.76638 Y53.06571
G01 X49.77400 Y53.10399
G01 X49.77400 Y53.18166
G01 X49.90232 Y53.28948
G01 X50.01893 Y53.43462
G01 X50.10498 Y53.59967
G01 X50.15718 Y53.77836
G01 X50.17351 Y53.94419
G01 X50.15718 Y54.12961
G01 X50.10498 Y54.30830
G01 X50.00803 Y54.48966
G01 X49.90232 Y54.61846
G01 X49.77400 Y54.72629
G01 X49.77400 Y54.80398
G01 X49.76638 Y54.84226
G01 X49.74471 Y54.87470
G01 X49.72955 Y54.88714
G01 X49.69350 Y54.90205
G01 X46.17398 Y54.90398
G01 X46.13573 Y54.89634
G01 X46.10326 Y54.87470
G01 X46.08160 Y54.84226
G01 X46.07398 Y54.80398
G01 X46.07398 Y55.64399
G01 X46.08160 Y55.60571
G01 X46.10326 Y55.57327
G01 X46.13573 Y55.55161
G01 X46.17398 Y55.54399
G01 X50.07400 Y55.54399
G01 X50.11225 Y55.55161
G01 X50.14471 Y55.57327
G01 X50.16638 Y55.60571
G01 X50.17207 Y55.62448
G01 X50.17400 Y57.34398
G01 X50.16638 Y57.38226
G01 X50.15713 Y57.39953
G01 X50.12955 Y57.42714
G01 X50.11225 Y57.43636
G01 X50.07400 Y57.44398
G01 X46.17398 Y57.44398
G01 X46.13573 Y57.43636
G01 X46.10326 Y57.41470
G01 X46.08160 Y57.38226
G01 X46.07398 Y57.34398
G01 X46.07398 Y58.18399
G01 X46.08160 Y58.14571
G01 X46.10326 Y58.11327
G01 X46.13573 Y58.09161
G01 X46.17398 Y58.08399
G01 X49.69350 Y58.08592
G01 X49.72955 Y58.10083
G01 X49.74471 Y58.11327
G01 X49.76638 Y58.14571
G01 X49.77400 Y58.18399
G01 X49.77400 Y58.26169
G01 X49.90232 Y58.36951
G01 X50.01893 Y58.51462
G01 X50.10498 Y58.67967
G01 X50.15335 Y58.83913
G01 X50.17351 Y59.04378
G01 X50.15718 Y59.20961
G01 X50.10498 Y59.38830
G01 X50.00803 Y59.56966
G01 X49.90232 Y59.69846
G01 X49.77400 Y59.80629
G01 X49.77400 Y59.88398
G01 X49.76638 Y59.92226
G01 X49.74471 Y59.95470
G01 X49.72955 Y59.96714
G01 X49.69350 Y59.98205
G01 X46.17398 Y59.98398
G01 X46.13573 Y59.97636
G01 X46.10326 Y59.95470
G01 X46.08160 Y59.92226
G01 X46.07398 Y59.88398
G01 X46.07398 Y60.72399
G01 X46.08160 Y60.68571
G01 X46.10326 Y60.65327
G01 X46.13573 Y60.63161
G01 X46.17398 Y60.62399
G01 X49.69350 Y60.62592
G01 X49.72955 Y60.64083
G01 X49.74471 Y60.65327
G01 X49.76638 Y60.68571
G01 X49.77400 Y60.72399
G01 X49.77400 Y60.80169
G01 X49.90232 Y60.90951
G01 X50.01893 Y61.05462
G01 X50.10498 Y61.21967
G01 X50.15335 Y61.37913
G01 X50.17351 Y61.58378
G01 X50.15718 Y61.74961
G01 X50.10498 Y61.92830
G01 X50.00803 Y62.10966
G01 X49.90232 Y62.23846
G01 X49.77400 Y62.34629
G01 X49.77400 Y62.42398
G01 X49.76638 Y62.46226
G01 X49.74471 Y62.49470
G01 X49.72955 Y62.50714
G01 X49.69350 Y62.52205
G01 X46.17398 Y62.52398
G01 X46.13573 Y62.51636
G01 X46.10326 Y62.49470
G01 X46.08160 Y62.46226
G01 X46.07398 Y62.42398
G01 X46.07398 Y63.26399
G01 X46.08160 Y63.22571
G01 X46.10326 Y63.19327
G01 X46.13573 Y63.17161
G01 X46.17398 Y63.16399
G01 X49.69350 Y63.16592
G01 X49.72955 Y63.18083
G01 X49.74471 Y63.19327
G01 X49.76638 Y63.22571
G01 X49.77400 Y63.26399
G01 X49.77400 Y63.34169
G01 X49.90232 Y63.44951
G01 X50.01893 Y63.59462
G01 X50.10498 Y63.75967
G01 X50.15335 Y63.91913
G01 X50.17351 Y64.12378
G01 X50.15718 Y64.28961
G01 X50.10498 Y64.46830
G01 X50.00803 Y64.64966
G01 X49.90232 Y64.77846
G01 X49.77400 Y64.88629
G01 X49.77400 Y64.96398
G01 X49.76638 Y65.00226
G01 X49.74471 Y65.03470
G01 X49.72955 Y65.04714
G01 X49.69350 Y65.06205
G01 X46.17398 Y65.06398
G01 X46.13573 Y65.05636
G01 X46.10326 Y65.03470
G01 X46.08160 Y65.00226
G01 X46.07398 Y64.96398
G01 X46.07398 Y65.80399
G01 X46.08160 Y65.76571
G01 X46.10326 Y65.73327
G01 X46.13573 Y65.71161
G01 X46.17398 Y65.70399
G01 X49.69350 Y65.70592
G01 X49.72955 Y65.72083
G01 X49.74471 Y65.73327
G01 X49.76638 Y65.76571
G01 X49.77400 Y65.80399
G01 X49.77400 Y65.88169
G01 X49.90232 Y65.98951
G01 X50.00803 Y66.11831
G01 X50.10498 Y66.29967
G01 X50.15718 Y66.47836
G01 X50.17351 Y66.64419
G01 X50.15718 Y66.82961
G01 X50.10498 Y67.00830
G01 X50.00803 Y67.18966
G01 X49.90232 Y67.31846
G01 X49.77400 Y67.42629
G01 X49.77400 Y67.50398
G01 X49.76638 Y67.54226
G01 X49.74471 Y67.57470
G01 X49.72955 Y67.58714
G01 X49.69350 Y67.60205
G01 X46.17398 Y67.60398
G01 X46.13573 Y67.59636
G01 X46.10326 Y67.57470
G01 X46.08160 Y67.54226
G01 X46.07398 Y67.50398
G01 X46.07398 Y68.34399
G01 X46.08160 Y68.30571
G01 X46.10326 Y68.27327
G01 X46.13573 Y68.25161
G01 X46.17398 Y68.24399
G01 X50.07400 Y68.24399
G01 X50.09350 Y68.24592
G01 X50.12955 Y68.26083
G01 X50.14471 Y68.27327
G01 X50.16638 Y68.30571
G01 X50.17400 Y68.34399
G01 X50.17400 Y70.04398
G01 X50.16638 Y70.08226
G01 X50.15713 Y70.09953
G01 X50.12955 Y70.12714
G01 X50.11225 Y70.13636
G01 X50.07400 Y70.14398
G01 X46.17398 Y70.14398
G01 X46.13573 Y70.13636
G01 X46.10326 Y70.11470
G01 X46.08160 Y70.08226
G01 X46.07398 Y70.04398
G01 X46.07398 Y70.88399
G01 X46.08160 Y70.84571
G01 X46.10326 Y70.81327
G01 X46.13573 Y70.79161
G01 X46.17398 Y70.78399
G01 X49.67400 Y70.78399
G01 X49.69350 Y70.78592
G01 X49.72955 Y70.80083
G01 X49.75713 Y70.82844
G01 X49.77207 Y70.86448
G01 X49.77400 Y70.96169
G01 X49.90232 Y71.06951
G01 X50.00803 Y71.19831
G01 X50.09747 Y71.36156
G01 X50.15718 Y71.55836
G01 X50.17351 Y71.74378
G01 X50.15335 Y71.92884
G01 X50.09747 Y72.10641
G01 X50.00803 Y72.26966
G01 X49.90232 Y72.39846
G01 X49.77400 Y72.50629
G01 X49.77400 Y72.58398
G01 X49.76638 Y72.62226
G01 X49.74471 Y72.65470
G01 X49.71225 Y72.67636
G01 X49.67400 Y72.68398
G01 X46.17398 Y72.68398
G01 X46.13573 Y72.67636
G01 X46.10326 Y72.65470
G01 X46.08160 Y72.62226
G01 X46.07398 Y72.58398
G01 X46.07398 Y73.42399
G01 X46.08160 Y73.38571
G01 X46.10326 Y73.35327
G01 X46.13573 Y73.33161
G01 X46.17398 Y73.32399
G01 X49.67400 Y73.32399
G01 X49.69350 Y73.32592
G01 X49.72955 Y73.34083
G01 X49.75713 Y73.36844
G01 X49.77207 Y73.40448
G01 X49.77400 Y73.50169
G01 X49.90232 Y73.60951
G01 X50.00803 Y73.73831
G01 X50.09747 Y73.90156
G01 X50.15718 Y74.09836
G01 X50.17351 Y74.28378
G01 X50.15335 Y74.46884
G01 X50.09747 Y74.64641
G01 X50.00803 Y74.80966
G01 X49.90232 Y74.93846
G01 X49.77400 Y75.04629
G01 X49.77207 Y75.14349
G01 X49.75713 Y75.17953
G01 X49.72955 Y75.20714
G01 X49.69350 Y75.22205
G01 X49.67400 Y75.22398
G01 X46.17398 Y75.22398
G01 X46.13573 Y75.21636
G01 X46.10326 Y75.19470
G01 X46.08160 Y75.16226
G01 X46.07398 Y75.12398
G01 X46.07398 Y30.24399
G04 P0 ( dwell for no time -- G64 should not smooth over this point )
G00 Z5.00000 ( retract )

G00 X34.04398 Y32.27799 ( rapid move to begin. )
G01 F300.00000
( Mill infeed pass 1/1 )
G01 Z-0.05000
G04 P0 ( dwell for no time -- G64 should not smooth over this point )
G01 F600.00000
G01 X34.04398 Y32.27799
G01 X34.06079 Y32.10235
G01 X34.11299 Y31.92369
G01 X34.19905 Y31.75861
G01 X34.31563 Y31.61350
G01 X34.45830 Y31.49395
G01 X34.62158 Y31.40449
G01 X34.79912 Y31.34863
G01 X34.98419 Y31.32847
G01 X35.16961 Y31.34480
G01 X35.34830 Y31.39699
G01 X35.51337 Y31.48305
G01 X35.65848 Y31.59964
G01 X35.78893 Y31.75861
G01 X35.87499 Y31.92369
G01 X35.92716 Y32.10235
G01 X35.94398 Y32.27799
G01 X35.94398 Y33.07799
G01 X35.92335 Y33.27284
G01 X35.86747 Y33.45041
G01 X35.78893 Y33.59737
G01 X35.67232 Y33.74246
G01 X35.51337 Y33.87294
G01 X35.34830 Y33.95899
G01 X35.18883 Y34.00735
G01 X35.00380 Y34.02750
G01 X34.79912 Y34.00735
G01 X34.63969 Y33.95899
G01 X34.47461 Y33.87294
G01 X34.32950 Y33.75632
G01 X34.19905 Y33.59737
G01 X34.11299 Y33.43230
G01 X34.06079 Y33.25361
G01 X34.04398 Y33.07799
G01 X34.04398 Y32.27799
G01 X33.98398 Y44.06799
G01 X33.98592 Y46.58749
G01 X33.99160 Y46.60626
G01 X34.01327 Y46.63870
G01 X34.04571 Y46.66036
G01 X34.08398 Y46.66798
G01 X35.78398 Y46.66798
G01 X35.80349 Y46.66608
G01 X35.83956 Y46.65114
G01 X35.86714 Y46.62353
G01 X35.87639 Y46.60626
G01 X35.88398 Y46.56798
G01 X35.88398 Y44.06799
G01 X35.87639 Y44.02971
G01 X35.86714 Y44.01244
G01 X35.83956 Y43.98483
G01 X35.80349 Y43.96992
G01 X35.78398 Y43.96799
G01 X34.08398 Y43.96799
G01 X34.04571 Y43.97561
G01 X34.01327 Y43.99727
G01 X33.99160 Y44.02971
G01 X33.98398 Y44.06799
G04 P0 ( dwell for no time -- G64 should not smooth over this point )
G00 Z5.00000 ( retract )

G00 X31.44399 Y44.91800 ( rapid move to begin. )
G01 F300.00000
( Mill infeed pass 1/1 )
G01 Z-0.05000
G04 P0 ( dwell for no time -- G64 should not smooth over this point )
G01 F600.00000
G01 X31.44399 Y44.91800
G01 X31.46464 Y44.72313
G01 X31.52049 Y44.54556
G01 X31.59905 Y44.39862
G01 X31.72951 Y44.23964
G01 X31.85831 Y44.13393
G01 X32.02156 Y44.04449
G01 X32.21835 Y43.98480
G01 X32.38419 Y43.96847
G01 X32.56961 Y43.98480
G01 X32.76641 Y44.04449
G01 X32.92966 Y44.13393
G01 X33.05846 Y44.23964
G01 X33.17804 Y44.38231
G01 X33.26748 Y44.54556
G01 X33.32336 Y44.72313
G01 X33.34398 Y44.91800
G01 X33.34398 Y45.71800
G01 X33.32717 Y45.89361
G01 X33.26748 Y46.09041
G01 X33.18894 Y46.23735
G01 X33.07233 Y46.38246
G01 X32.91335 Y46.51292
G01 X32.76641 Y46.59148
G01 X32.58884 Y46.64736
G01 X32.40380 Y46.66750
G01 X32.19913 Y46.64736
G01 X32.02156 Y46.59148
G01 X31.87462 Y46.51292
G01 X31.71564 Y46.38246
G01 X31.59905 Y46.23735
G01 X31.52049 Y46.09041
G01 X31.46080 Y45.89361
G01 X31.44399 Y45.71800
G01 X31.44399 Y44.91800
G01 X31.29847 Y37.43419
G01 X31.32631 Y37.17110
G01 X31.39745 Y36.93661
G01 X31.52046 Y36.70239
G01 X31.68681 Y36.49665
G01 X31.89009 Y36.32734
G01 X32.12250 Y36.20095
G01 X32.37510 Y36.12231
G01 X32.63819 Y36.09447
G01 X32.92087 Y36.12231
G01 X33.17347 Y36.20095
G01 X33.40588 Y36.32734
G01 X33.60918 Y36.49665
G01 X33.76463 Y36.68609
G01 X33.89854 Y36.93661
G01 X33.97349 Y37.19033
G01 X33.99750 Y37.45378
G01 X33.97349 Y37.69764
G01 X33.89854 Y37.95136
G01 X33.77553 Y38.18560
G01 X33.60918 Y38.39132
G01 X33.38960 Y38.57150
G01 X33.15536 Y38.69454
G01 X32.90164 Y38.76950
G01 X32.65780 Y38.79350
G01 X32.39433 Y38.76950
G01 X32.12250 Y38.68702
G01 X31.89009 Y38.56063
G01 X31.70065 Y38.40516
G01 X31.53136 Y38.20188
G01 X31.40495 Y37.96947
G01 X31.32631 Y37.71687
G01 X31.29847 Y37.43419
G01 X31.50398 Y32.27799
G01 X31.50446 Y33.08780
G01 X31.52079 Y33.25361
G01 X31.57299 Y33.43230
G01 X31.65905 Y33.59737
G01 X31.77563 Y33.74246
G01 X31.91830 Y33.86204
G01 X32.08158 Y33.95147
G01 X32.25912 Y34.00735
G01 X32.46379 Y34.02750
G01 X32.64883 Y34.00735
G01 X32.80830 Y33.95899
G01 X32.97337 Y33.87294
G01 X33.11848 Y33.75632
G01 X33.24893 Y33.59737
G01 X33.33499 Y33.43230
G01 X33.38335 Y33.27284
G01 X33.40398 Y33.07799
G01 X33.40349 Y32.26819
G01 X33.38335 Y32.08313
G01 X33.33499 Y31.92369
G01 X33.24893 Y31.75861
G01 X33.13232 Y31.61350
G01 X32.98965 Y31.49395
G01 X32.82641 Y31.40449
G01 X32.62961 Y31.34480
G01 X32.44419 Y31.32847
G01 X32.27835 Y31.34480
G01 X32.09969 Y31.39699
G01 X31.93461 Y31.48305
G01 X31.77563 Y31.61350
G01 X31.65905 Y31.75861
G01 X31.57299 Y31.92369
G01 X31.52463 Y32.08313
G01 X31.50398 Y32.27799
G04 P0 ( dwell for no time -- G64 should not smooth over this point )
G00 Z5.00000 ( retract )

G00 X28.96398 Y32.27799 ( rapid move to begin. )
G01 F300.00000
( Mill infeed pass 1/1 )
G01 Z-0.05000
G04 P0 ( dwell for no time -- G64 should not smooth over this point )
G01 F600.00000
G01 X28.96398 Y32.27799
G01 X28.96398 Y33.07799
G01 X28.98079 Y33.25361
G01 X29.03299 Y33.43230
G01 X29.11905 Y33.59737
G01 X29.24950 Y33.75632
G01 X29.39461 Y33.87294
G01 X29.55969 Y33.95899
G01 X29.71912 Y34.00735
G01 X29.92380 Y34.02750
G01 X30.10883 Y34.00735
G01 X30.26830 Y33.95899
G01 X30.43337 Y33.87294
G01 X30.59232 Y33.74246
G01 X30.70893 Y33.59737
G01 X30.78747 Y33.45041
G01 X30.84335 Y33.27284
G01 X30.86398 Y33.07799
G01 X30.86398 Y32.27799
G01 X30.84716 Y32.10235
G01 X30.79499 Y31.92369
G01 X30.70893 Y31.75861
G01 X30.57848 Y31.59964
G01 X30.43337 Y31.48305
G01 X30.28641 Y31.40449
G01 X30.10883 Y31.34863
G01 X29.92380 Y31.32847
G01 X29.73835 Y31.34480
G01 X29.55969 Y31.39699
G01 X29.39461 Y31.48305
G01 X29.24950 Y31.59964
G01 X29.11905 Y31.75861
G01 X29.03299 Y31.92369
G01 X28.98079 Y32.10235
G01 X28.96398 Y32.27799
G01 X28.90398 Y44.91800
G01 X28.90447 Y45.72778
G01 X28.92080 Y45.89361
G01 X28.97300 Y46.07230
G01 X29.05905 Y46.23735
G01 X29.17564 Y46.38246
G01 X29.31831 Y46.50204
G01 X29.48156 Y46.59148
G01 X29.65913 Y46.64736
G01 X29.86380 Y46.66750
G01 X30.04884 Y46.64736
G01 X30.22641 Y46.59148
G01 X30.37335 Y46.51292
G01 X30.51846 Y46.39633
G01 X30.64894 Y46.23735
G01 X30.72748 Y46.09041
G01 X30.78336 Y45.91284
G01 X30.80350 Y45.72778
G01 X30.80398 Y44.91800
G01 X30.78717 Y44.74236
G01 X30.72748 Y44.54556
G01 X30.64894 Y44.39862
G01 X30.53233 Y44.25351
G01 X30.38966 Y44.13393
G01 X30.22641 Y44.04449
G01 X30.02961 Y43.98480
G01 X29.84419 Y43.96847
G01 X29.65913 Y43.98861
G01 X29.48156 Y44.04449
G01 X29.31831 Y44.13393
G01 X29.17564 Y44.25351
G01 X29.05905 Y44.39862
G01 X28.98049 Y44.54556
G01 X28.92464 Y44.72313
G01 X28.90398 Y44.91800
G01 X27.25700 Y48.62000
G01 X27.25700 Y51.11999
G01 X27.25890 Y51.13950
G01 X27.27384 Y51.17554
G01 X27.30142 Y51.20313
G01 X27.31872 Y51.21237
G01 X27.35700 Y51.21999
G01 X29.05699 Y51.21999
G01 X29.09525 Y51.21237
G01 X29.11254 Y51.20313
G01 X29.14013 Y51.17554
G01 X29.14937 Y51.15825
G01 X29.15699 Y51.11999
G01 X29.15699 Y48.62000
G01 X29.15506 Y48.60047
G01 X29.14013 Y48.56442
G01 X29.11254 Y48.53684
G01 X29.09525 Y48.52759
G01 X29.05699 Y48.52000
G01 X27.35700 Y48.52000
G01 X27.33749 Y48.52190
G01 X27.30142 Y48.53684
G01 X27.27384 Y48.56442
G01 X27.25890 Y48.60047
G01 X27.25700 Y54.97996
G01 X27.25700 Y51.11999
G01 X27.25700 Y52.47999
G01 X27.26459 Y52.44171
G01 X27.28628 Y52.40927
G01 X27.31872 Y52.38761
G01 X27.35700 Y52.37999
G01 X29.05699 Y52.37999
G01 X29.09525 Y52.38761
G01 X29.12771 Y52.40927
G01 X29.14937 Y52.44171
G01 X29.15699 Y52.47999
G01 X29.15699 Y54.97996
G01 X29.14937 Y55.01826
G01 X29.14013 Y55.03556
G01 X29.11254 Y55.06314
G01 X29.09525 Y55.07239
G01 X29.05699 Y55.07998
G01 X27.35700 Y55.07998
G01 X27.31872 Y55.07239
G01 X27.28628 Y55.05069
G01 X27.26459 Y55.01826
G01 X27.25700 Y54.97996
G01 X27.25890 Y58.99951
G01 X27.27384 Y59.03555
G01 X27.30142 Y59.06313
G01 X27.31872 Y59.07238
G01 X27.35700 Y59.08000
G01 X29.05699 Y59.08000
G01 X29.09525 Y59.07238
G01 X29.12771 Y59.05069
G01 X29.14937 Y59.01825
G01 X29.15699 Y58.98000
G01 X29.15699 Y56.47998
G01 X29.14937 Y56.44173
G01 X29.14013 Y56.42443
G01 X29.11254 Y56.39684
G01 X29.09525 Y56.38760
G01 X29.05699 Y56.37998
G01 X27.35700 Y56.37998
G01 X27.31872 Y56.38760
G01 X27.30142 Y56.39684
G01 X27.27384 Y56.42443
G01 X27.25890 Y56.46047
G01 X26.42398 Y61.99599
G01 X26.42398 Y62.79599
G01 X26.44079 Y62.97161
G01 X26.49299 Y63.15030
G01 X26.57905 Y63.31537
G01 X26.69563 Y63.46046
G01 X26.83830 Y63.58004
G01 X27.00158 Y63.66947
G01 X27.17912 Y63.72535
G01 X27.38379 Y63.74550
G01 X27.56883 Y63.72535
G01 X27.72830 Y63.67699
G01 X27.89337 Y63.59094
G01 X28.03848 Y63.47432
G01 X28.15801 Y63.33165
G01 X28.24747 Y63.16841
G01 X28.30335 Y62.99084
G01 X28.32349 Y62.80580
G01 X28.32398 Y61.99599
G01 X28.30716 Y61.82035
G01 X28.24747 Y61.62358
G01 X28.15801 Y61.46031
G01 X28.03848 Y61.31764
G01 X27.89337 Y61.20105
G01 X27.72830 Y61.11499
G01 X27.54961 Y61.06280
G01 X27.36419 Y61.04647
G01 X27.17912 Y61.06663
G01 X27.00158 Y61.12249
G01 X26.83830 Y61.21195
G01 X26.69563 Y61.33150
G01 X26.57905 Y61.47661
G01 X26.49299 Y61.64169
G01 X26.44079 Y61.82035
G01 X26.42398 Y61.99599
G01 X26.36398 Y74.63600
G01 X26.38464 Y74.44113
G01 X26.44049 Y74.26356
G01 X26.51905 Y74.11662
G01 X26.64951 Y73.95764
G01 X26.77831 Y73.85193
G01 X26.94156 Y73.76249
G01 X27.13835 Y73.70280
G01 X27.30419 Y73.68647
G01 X27.48961 Y73.70280
G01 X27.68641 Y73.76249
G01 X27.84966 Y73.85193
G01 X27.97846 Y73.95764
G01 X28.09802 Y74.10031
G01 X28.18748 Y74.26356
G01 X28.24336 Y74.44113
G01 X28.26398 Y74.63600
G01 X28.26398 Y75.43600
G01 X28.24717 Y75.61161
G01 X28.18748 Y75.80841
G01 X28.09802 Y75.97166
G01 X27.99230 Y76.10046
G01 X27.84966 Y76.22004
G01 X27.68641 Y76.30948
G01 X27.50884 Y76.36536
G01 X27.32380 Y76.38550
G01 X27.13835 Y76.36917
G01 X26.95967 Y76.31697
G01 X26.79462 Y76.23092
G01 X26.64951 Y76.11433
G01 X26.52995 Y75.97166
G01 X26.44049 Y75.80841
G01 X26.38080 Y75.61161
G01 X26.36398 Y75.43600
G01 X26.36398 Y74.63600
G04 P0 ( dwell for no time -- G64 should not smooth over this point )
G00 Z5.00000 ( retract )

G00 X28.90398 Y74.63600 ( rapid move to begin. )
G01 F300.00000
( Mill infeed pass 1/1 )
G01 Z-0.05000
G04 P0 ( dwell for no time -- G64 should not smooth over this point )
G01 F600.00000
G01 X28.90398 Y74.63600
G01 X28.90398 Y75.43600
G01 X28.92080 Y75.61161
G01 X28.98049 Y75.80841
G01 X29.06995 Y75.97166
G01 X29.18951 Y76.11433
G01 X29.33462 Y76.23092
G01 X29.49967 Y76.31697
G01 X29.67835 Y76.36917
G01 X29.86380 Y76.38550
G01 X30.04884 Y76.36536
G01 X30.22641 Y76.30948
G01 X30.38966 Y76.22004
G01 X30.53233 Y76.10046
G01 X30.64894 Y75.95535
G01 X30.72748 Y75.80841
G01 X30.78717 Y75.61161
G01 X30.80398 Y75.43600
G01 X30.80398 Y74.63600
G01 X30.78336 Y74.44113
G01 X30.72748 Y74.26356
G01 X30.63804 Y74.10031
G01 X30.51846 Y73.95764
G01 X30.38966 Y73.85193
G01 X30.22641 Y73.76249
G01 X30.02961 Y73.70280
G01 X29.86380 Y73.68647
G01 X29.67835 Y73.70280
G01 X29.48156 Y73.76249
G01 X29.31831 Y73.85193
G01 X29.18951 Y73.95764
G01 X29.05905 Y74.11662
G01 X28.98049 Y74.26356
G01 X28.92464 Y74.44113
G01 X28.90398 Y74.63600
G01 X28.96398 Y61.99599
G01 X28.98463 Y61.80113
G01 X29.03299 Y61.64169
G01 X29.11905 Y61.47661
G01 X29.24950 Y61.31764
G01 X29.39461 Y61.20105
G01 X29.54158 Y61.12249
G01 X29.73835 Y61.06280
G01 X29.90419 Y61.04647
G01 X30.08961 Y61.06280
G01 X30.28641 Y61.12249
G01 X30.43337 Y61.20105
G01 X30.57848 Y61.31764
G01 X30.69804 Y61.46031
G01 X30.78747 Y61.62358
G01 X30.84335 Y61.80113
G01 X30.86398 Y61.99599
G01 X30.86398 Y62.79599
G01 X30.84716 Y62.97161
G01 X30.78747 Y63.16841
G01 X30.70893 Y63.31537
G01 X30.59232 Y63.46046
G01 X30.44965 Y63.58004
G01 X30.28641 Y63.66947
G01 X30.10883 Y63.72535
G01 X29.92380 Y63.74550
G01 X29.73835 Y63.72916
G01 X29.55969 Y63.67699
G01 X29.39461 Y63.59094
G01 X29.24950 Y63.47432
G01 X29.11905 Y63.31537
G01 X29.03299 Y63.15030
G01 X28.98079 Y62.97161
G01 X28.96398 Y62.79599
G01 X28.96398 Y61.99599
G01 X29.81381 Y53.15436
G01 X29.86598 Y52.97564
G01 X29.95204 Y52.81062
G01 X30.08252 Y52.65164
G01 X30.22760 Y52.53505
G01 X30.37457 Y52.45649
G01 X30.57137 Y52.39680
G01 X30.73718 Y52.38047
G01 X30.92262 Y52.39680
G01 X31.11940 Y52.45649
G01 X31.26636 Y52.53505
G01 X31.41147 Y52.65164
G01 X31.54193 Y52.81062
G01 X31.62798 Y52.97564
G01 X31.68018 Y53.15436
G01 X31.69651 Y53.32019
G01 X31.69699 Y54.12999
G01 X31.68018 Y54.30561
G01 X31.62798 Y54.48430
G01 X31.54193 Y54.64937
G01 X31.42534 Y54.79446
G01 X31.28267 Y54.91402
G01 X31.11940 Y55.00348
G01 X30.94185 Y55.05936
G01 X30.73718 Y55.07950
G01 X30.55214 Y55.05936
G01 X30.37457 Y55.00348
G01 X30.21132 Y54.91402
G01 X30.06865 Y54.79446
G01 X29.95204 Y54.64937
G01 X29.86598 Y54.48430
G01 X29.81381 Y54.30561
G01 X29.79700 Y54.12999
G01 X29.79700 Y58.12999
G01 X29.81381 Y58.30563
G01 X29.86598 Y58.48429
G01 X29.95204 Y58.64937
G01 X30.08252 Y58.80832
G01 X30.22760 Y58.92493
G01 X30.39268 Y59.01099
G01 X30.57137 Y59.06318
G01 X30.73718 Y59.07952
G01 X30.92262 Y59.06318
G01 X31.10129 Y59.01099
G01 X31.28267 Y58.91403
G01 X31.42534 Y58.79448
G01 X31.54193 Y58.64937
G01 X31.62798 Y58.48429
G01 X31.68018 Y58.30563
G01 X31.69699 Y58.12999
G01 X31.69699 Y57.32999
G01 X31.67634 Y57.13512
G01 X31.62049 Y56.95757
G01 X31.54193 Y56.81061
G01 X31.42534 Y56.66550
G01 X31.28267 Y56.54594
G01 X31.11940 Y56.45651
G01 X30.92262 Y56.39679
G01 X30.73718 Y56.38046
G01 X30.57137 Y56.39679
G01 X30.39268 Y56.44899
G01 X30.22760 Y56.53504
G01 X30.06865 Y56.66550
G01 X29.95204 Y56.81061
G01 X29.86598 Y56.97568
G01 X29.81762 Y57.13512
G01 X29.79700 Y57.32999
G01 X29.79700 Y49.46998
G01 X29.81381 Y49.29437
G01 X29.87350 Y49.09757
G01 X29.95204 Y48.95060
G01 X30.06865 Y48.80549
G01 X30.22760 Y48.67504
G01 X30.39268 Y48.58899
G01 X30.55214 Y48.54062
G01 X30.73718 Y48.52048
G01 X30.94185 Y48.54062
G01 X31.10129 Y48.58899
G01 X31.26636 Y48.67504
G01 X31.42534 Y48.80549
G01 X31.54193 Y48.95060
G01 X31.62049 Y49.09757
G01 X31.68018 Y49.29437
G01 X31.69699 Y49.46998
G01 X31.69699 Y50.26998
G01 X31.67634 Y50.46485
G01 X31.62049 Y50.64240
G01 X31.53103 Y50.80567
G01 X31.41147 Y50.94834
G01 X31.26636 Y51.06493
G01 X31.11940 Y51.14349
G01 X30.92262 Y51.20318
G01 X30.75679 Y51.21951
G01 X30.57137 Y51.20318
G01 X30.37457 Y51.14349
G01 X30.22760 Y51.06493
G01 X30.08252 Y50.94834
G01 X29.95204 Y50.78936
G01 X29.86598 Y50.62429
G01 X29.81762 Y50.46485
G01 X29.79700 Y50.26998
G04 P0 ( dwell for no time -- G64 should not smooth over this point )
G00 Z5.00000 ( retract )

G00 X32.33700 Y50.26998 ( rapid move to begin. )
G01 F300.00000
( Mill infeed pass 1/1 )
G01 Z-0.05000
G04 P0 ( dwell for no time -- G64 should not smooth over this point )
G01 F600.00000
G01 X32.33700 Y50.26998
G01 X32.35762 Y50.46485
G01 X32.40598 Y50.62429
G01 X32.49204 Y50.78936
G01 X32.62252 Y50.94834
G01 X32.76760 Y51.06493
G01 X32.91457 Y51.14349
G01 X33.11137 Y51.20318
G01 X33.27718 Y51.21951
G01 X33.46262 Y51.20318
G01 X33.65940 Y51.14349
G01 X33.80636 Y51.06493
G01 X33.95147 Y50.94834
G01 X34.07103 Y50.80567
G01 X34.16049 Y50.64240
G01 X34.21634 Y50.46485
G01 X34.23699 Y50.26998
G01 X34.23699 Y49.46998
G01 X34.22018 Y49.29437
G01 X34.16049 Y49.09757
G01 X34.08193 Y48.95060
G01 X33.96534 Y48.80549
G01 X33.80636 Y48.67504
G01 X33.64129 Y48.58899
G01 X33.48185 Y48.54062
G01 X33.27718 Y48.52048
G01 X33.09214 Y48.54062
G01 X32.93268 Y48.58899
G01 X32.76760 Y48.67504
G01 X32.60865 Y48.80549
G01 X32.49204 Y48.95060
G01 X32.41350 Y49.09757
G01 X32.35381 Y49.29437
G01 X32.33700 Y49.46998
G01 X32.33700 Y57.32999
G01 X32.35762 Y57.13512
G01 X32.40598 Y56.97568
G01 X32.49204 Y56.81061
G01 X32.60865 Y56.66550
G01 X32.76760 Y56.53504
G01 X32.93268 Y56.44899
G01 X33.11137 Y56.39679
G01 X33.27718 Y56.38046
G01 X33.46262 Y56.39679
G01 X33.65940 Y56.45651
G01 X33.82267 Y56.54594
G01 X33.96534 Y56.66550
G01 X34.08193 Y56.81061
G01 X34.16049 Y56.95757
G01 X34.21634 Y57.13512
G01 X34.23699 Y57.32999
G01 X34.23699 Y58.12999
G01 X34.22018 Y58.30563
G01 X34.16049 Y58.50240
G01 X34.07103 Y58.66567
G01 X33.95147 Y58.80832
G01 X33.80636 Y58.92493
G01 X33.64129 Y59.01099
G01 X33.46262 Y59.06318
G01 X33.29679 Y59.07952
G01 X33.11137 Y59.06318
G01 X32.93268 Y59.01099
G01 X32.75132 Y58.91403
G01 X32.60865 Y58.79448
G01 X32.49204 Y58.64937
G01 X32.40598 Y58.48429
G01 X32.35381 Y58.30563
G01 X32.33700 Y58.12999
G01 X32.33700 Y54.12999
G01 X32.35381 Y54.30561
G01 X32.40598 Y54.48430
G01 X32.49204 Y54.64937
G01 X32.60865 Y54.79446
G01 X32.75132 Y54.91402
G01 X32.91457 Y55.00348
G01 X33.09214 Y55.05936
G01 X33.27718 Y55.07950
G01 X33.48185 Y55.05936
G01 X33.65940 Y55.00348
G01 X33.82267 Y54.91402
G01 X33.96534 Y54.79446
G01 X34.08193 Y54.64937
G01 X34.16798 Y54.48430
G01 X34.22018 Y54.30561
G01 X34.23699 Y54.12999
G01 X34.23651 Y53.32019
G01 X34.22018 Y53.15436
G01 X34.16798 Y52.97564
G01 X34.08193 Y52.81062
G01 X33.95147 Y52.65164
G01 X33.80636 Y52.53505
G01 X33.65940 Y52.45649
G01 X33.46262 Y52.39680
G01 X33.29679 Y52.38047
G01 X33.11137 Y52.39680
G01 X32.91457 Y52.45649
G01 X32.76760 Y52.53505
G01 X32.62252 Y52.65164
G01 X32.49204 Y52.81062
G01 X32.40598 Y52.97564
G01 X32.35381 Y53.15436
G01 X31.50398 Y61.99599
G01 X31.50398 Y62.79599
G01 X31.52079 Y62.97161
G01 X31.57299 Y63.15030
G01 X31.65905 Y63.31537
G01 X31.78950 Y63.47432
G01 X31.93461 Y63.59094
G01 X32.09969 Y63.67699
G01 X32.27835 Y63.72916
G01 X32.46379 Y63.74550
G01 X32.64883 Y63.72535
G01 X32.82641 Y63.66947
G01 X32.98965 Y63.58004
G01 X33.13232 Y63.46046
G01 X33.24893 Y63.31537
G01 X33.32747 Y63.16841
G01 X33.38716 Y62.97161
G01 X33.40398 Y62.79599
G01 X33.40398 Y61.99599
G01 X33.38335 Y61.80113
G01 X33.32747 Y61.62358
G01 X33.23804 Y61.46031
G01 X33.11848 Y61.31764
G01 X32.97337 Y61.20105
G01 X32.82641 Y61.12249
G01 X32.62961 Y61.06280
G01 X32.46379 Y61.04647
G01 X32.27835 Y61.06280
G01 X32.08158 Y61.12249
G01 X31.93461 Y61.20105
G01 X31.78950 Y61.31764
G01 X31.65905 Y61.47661
G01 X31.57299 Y61.64169
G01 X31.52092 Y61.81967
G01 X31.50446 Y61.98619
G01 X31.44399 Y74.63600
G01 X31.46080 Y74.46036
G01 X31.51300 Y74.28167
G01 X31.60995 Y74.10031
G01 X31.71564 Y73.97151
G01 X31.85831 Y73.85193
G01 X32.02156 Y73.76249
G01 X32.19913 Y73.70661
G01 X32.38419 Y73.68647
G01 X32.56961 Y73.70280
G01 X32.76641 Y73.76249
G01 X32.92966 Y73.85193
G01 X33.05846 Y73.95764
G01 X33.18894 Y74.11662
G01 X33.26748 Y74.26356
G01 X33.32336 Y74.44113
G01 X33.34350 Y74.62619
G01 X33.34398 Y75.43600
G01 X33.32336 Y75.63084
G01 X33.26748 Y75.80841
G01 X33.18894 Y75.95535
G01 X33.05846 Y76.11433
G01 X32.92966 Y76.22004
G01 X32.76641 Y76.30948
G01 X32.56961 Y76.36917
G01 X32.38419 Y76.38550
G01 X32.19913 Y76.36536
G01 X32.02156 Y76.30948
G01 X31.85831 Y76.22004
G01 X31.71564 Y76.10046
G01 X31.59905 Y75.95535
G01 X31.51300 Y75.79030
G01 X31.46080 Y75.61161
G01 X31.44399 Y75.43600
G01 X31.44399 Y74.63600
G01 X31.67947 Y70.58119
G01 X31.70731 Y70.31810
G01 X31.78595 Y70.06550
G01 X31.90146 Y69.84939
G01 X32.06781 Y69.64365
G01 X32.27109 Y69.47434
G01 X32.50350 Y69.34795
G01 X32.75610 Y69.26931
G01 X33.03880 Y69.24147
G01 X33.30187 Y69.26931
G01 X33.55447 Y69.34795
G01 X33.78688 Y69.47434
G01 X33.97631 Y69.62981
G01 X34.15653 Y69.84939
G01 X34.27954 Y70.08361
G01 X34.35449 Y70.33733
G01 X34.37850 Y70.58119
G01 X34.35449 Y70.84464
G01 X34.27954 Y71.09836
G01 X34.15653 Y71.33260
G01 X33.99018 Y71.53832
G01 X33.78688 Y71.70763
G01 X33.55447 Y71.83402
G01 X33.30187 Y71.91266
G01 X33.03880 Y71.94050
G01 X32.77533 Y71.91650
G01 X32.52161 Y71.84154
G01 X32.28739 Y71.71850
G01 X32.08165 Y71.55216
G01 X31.91236 Y71.34888
G01 X31.78595 Y71.11647
G01 X31.70731 Y70.86387
G01 X31.67947 Y70.58119
G04 P0 ( dwell for no time -- G64 should not smooth over this point )
G00 Z5.00000 ( retract )

G00 X33.98398 Y74.63600 ( rapid move to begin. )
G01 F300.00000
( Mill infeed pass 1/1 )
G01 Z-0.05000
G04 P0 ( dwell for no time -- G64 should not smooth over this point )
G01 F600.00000
G01 X33.98398 Y74.63600
G01 X34.00464 Y74.44113
G01 X34.06049 Y74.26356
G01 X34.13905 Y74.11662
G01 X34.26951 Y73.95764
G01 X34.39831 Y73.85193
G01 X34.56156 Y73.76249
G01 X34.75835 Y73.70280
G01 X34.92419 Y73.68647
G01 X35.10961 Y73.70280
G01 X35.30641 Y73.76249
G01 X35.46966 Y73.85193
G01 X35.59846 Y73.95764
G01 X35.71804 Y74.10031
G01 X35.80748 Y74.26356
G01 X35.86336 Y74.44113
G01 X35.88398 Y74.63600
G01 X35.88398 Y75.43600
G01 X35.86717 Y75.61161
G01 X35.80748 Y75.80841
G01 X35.72894 Y75.95535
G01 X35.61233 Y76.10046
G01 X35.46966 Y76.22004
G01 X35.30641 Y76.30948
G01 X35.12884 Y76.36536
G01 X34.94380 Y76.38550
G01 X34.75835 Y76.36917
G01 X34.57967 Y76.31697
G01 X34.41462 Y76.23092
G01 X34.26951 Y76.11433
G01 X34.14995 Y75.97166
G01 X34.06049 Y75.80841
G01 X34.00080 Y75.61161
G01 X33.98398 Y75.43600
G01 X33.98398 Y74.63600
G04 P0 ( dwell for no time -- G64 should not smooth over this point )
G00 Z5.00000 ( retract )

G00 X34.04398 Y61.99599 ( rapid move to begin. )
G01 F300.00000
( Mill infeed pass 1/1 )
G01 Z-0.05000
G04 P0 ( dwell for no time -- G64 should not smooth over this point )
G01 F600.00000
G01 X34.04398 Y61.99599
G01 X34.06463 Y61.80113
G01 X34.11299 Y61.64169
G01 X34.19905 Y61.47661
G01 X34.32950 Y61.31764
G01 X34.47461 Y61.20105
G01 X34.62158 Y61.12249
G01 X34.81835 Y61.06280
G01 X34.98419 Y61.04647
G01 X35.16961 Y61.06280
G01 X35.36641 Y61.12249
G01 X35.51337 Y61.20105
G01 X35.65848 Y61.31764
G01 X35.77804 Y61.46031
G01 X35.86747 Y61.62358
G01 X35.92335 Y61.80113
G01 X35.94398 Y61.99599
G01 X35.94398 Y62.79599
G01 X35.92716 Y62.97161
G01 X35.86747 Y63.16841
G01 X35.78893 Y63.31537
G01 X35.67232 Y63.46046
G01 X35.52965 Y63.58004
G01 X35.36641 Y63.66947
G01 X35.18883 Y63.72535
G01 X35.00380 Y63.74550
G01 X34.81835 Y63.72916
G01 X34.63969 Y63.67699
G01 X34.47461 Y63.59094
G01 X34.32950 Y63.47432
G01 X34.19905 Y63.31537
G01 X34.11299 Y63.15030
G01 X34.06079 Y62.97161
G01 X34.04398 Y62.79599
G01 X34.04398 Y61.99599
G04 P0 ( dwell for no time -- G64 should not smooth over this point )
G00 Z5.00000 ( retract )

G00 X56.11447 Y50.13419 ( rapid move to begin. )
G01 F300.00000
( Mill infeed pass 1/1 )
G01 Z-0.05000
G04 P0 ( dwell for no time -- G64 should not smooth over this point )
G01 F600.00000
G01 X56.11447 Y50.13419
G01 X56.14330 Y50.44644
G01 X56.23248 Y50.74705
G01 X56.37858 Y51.02449
G01 X56.57601 Y51.26808
G01 X56.81719 Y51.46848
G01 X57.09283 Y51.61801
G01 X57.39232 Y51.71085
G01 X57.70418 Y51.74351
G01 X58.01642 Y51.71468
G01 X58.31703 Y51.62550
G01 X58.59448 Y51.47938
G01 X58.83809 Y51.28194
G01 X59.03849 Y51.04077
G01 X59.18800 Y50.76516
G01 X59.28086 Y50.46564
G01 X59.31350 Y50.15378
G01 X59.28467 Y49.84156
G01 X59.19549 Y49.54093
G01 X59.04939 Y49.26348
G01 X58.85196 Y49.01990
G01 X58.61078 Y48.81949
G01 X58.33514 Y48.66999
G01 X58.03565 Y48.57712
G01 X57.72379 Y48.54446
G01 X57.41155 Y48.57329
G01 X57.11094 Y48.66247
G01 X56.83349 Y48.80859
G01 X56.58988 Y49.00603
G01 X56.38948 Y49.24720
G01 X56.23997 Y49.52282
G01 X56.14711 Y49.82233
G01 X56.11447 Y50.13419
G04 P0 ( dwell for no time -- G64 should not smooth over this point )
G00 Z5.00000 ( retract )

G00 X72.70047 Y66.39019 ( rapid move to begin. )
G01 F300.00000
( Mill infeed pass 1/1 )
G01 Z-0.05000
G04 P0 ( dwell for no time -- G64 should not smooth over this point )
G01 F600.00000
G01 X72.70047 Y66.39019
G01 X72.72450 Y66.65364
G01 X72.79945 Y66.90736
G01 X72.92246 Y67.14160
G01 X73.08881 Y67.34732
G01 X73.29209 Y67.51663
G01 X73.52450 Y67.64302
G01 X73.77710 Y67.72166
G01 X74.04019 Y67.74950
G01 X74.30364 Y67.72550
G01 X74.55736 Y67.65054
G01 X74.79160 Y67.52750
G01 X74.99731 Y67.36116
G01 X75.16663 Y67.15788
G01 X75.29302 Y66.92547
G01 X75.37166 Y66.67287
G01 X75.39950 Y66.40978
G01 X75.37549 Y66.14633
G01 X75.30054 Y65.89261
G01 X75.17753 Y65.65839
G01 X75.01118 Y65.45265
G01 X74.80788 Y65.28334
G01 X74.57547 Y65.15695
G01 X74.32287 Y65.07831
G01 X74.05980 Y65.05047
G01 X73.79633 Y65.07450
G01 X73.54261 Y65.14945
G01 X73.30839 Y65.27247
G01 X73.10265 Y65.43881
G01 X72.93336 Y65.64209
G01 X72.80695 Y65.87450
G01 X72.72831 Y66.12710
G01 X72.70047 Y66.39019
G04 P0 ( dwell for no time -- G64 should not smooth over this point )
G00 Z5.00000 ( retract )

G00 X80.83246 Y66.39019 ( rapid move to begin. )
G01 F300.00000
( Mill infeed pass 1/1 )
G01 Z-0.05000
G04 P0 ( dwell for no time -- G64 should not smooth over this point )
G01 F600.00000
G01 X80.83246 Y66.39019
G01 X80.86129 Y66.70244
G01 X80.95046 Y67.00305
G01 X81.09659 Y67.28049
G01 X81.29402 Y67.52408
G01 X81.53520 Y67.72448
G01 X81.81081 Y67.87401
G01 X82.11033 Y67.96685
G01 X82.42219 Y67.99951
G01 X82.73443 Y67.97068
G01 X83.03504 Y67.88150
G01 X83.31249 Y67.73538
G01 X83.55610 Y67.53794
G01 X83.75650 Y67.29677
G01 X83.90601 Y67.02116
G01 X83.99887 Y66.72164
G01 X84.03151 Y66.40978
G01 X83.99887 Y66.07833
G01 X83.90601 Y65.77882
G01 X83.75650 Y65.50320
G01 X83.55610 Y65.26203
G01 X83.32879 Y65.07549
G01 X83.03504 Y64.91847
G01 X82.73443 Y64.82929
G01 X82.44180 Y64.80046
G01 X82.12956 Y64.82929
G01 X81.82892 Y64.91847
G01 X81.53520 Y65.07549
G01 X81.30789 Y65.26203
G01 X81.10749 Y65.50320
G01 X80.95046 Y65.79693
G01 X80.86129 Y66.09756
G01 X80.83246 Y66.39019
G01 X79.44998 Y70.48399
G01 X79.45760 Y70.44571
G01 X79.47927 Y70.41327
G01 X79.51171 Y70.39161
G01 X79.54998 Y70.38399
G01 X81.24998 Y70.38399
G01 X81.26949 Y70.38592
G01 X81.30556 Y70.40083
G01 X81.33314 Y70.42844
G01 X81.34239 Y70.44571
G01 X81.34998 Y70.48399
G01 X81.34808 Y73.00349
G01 X81.33314 Y73.03953
G01 X81.30556 Y73.06714
G01 X81.26949 Y73.08208
G01 X81.24998 Y73.08398
G01 X79.53048 Y73.08208
G01 X79.49443 Y73.06714
G01 X79.47927 Y73.05470
G01 X79.45760 Y73.02226
G01 X79.44998 Y72.98398
G01 X79.44998 Y59.90400
G01 X79.44998 Y60.70400
G01 X79.46680 Y60.87961
G01 X79.51900 Y61.05830
G01 X79.60505 Y61.22335
G01 X79.73551 Y61.38233
G01 X79.88062 Y61.49892
G01 X80.02756 Y61.57748
G01 X80.20513 Y61.63336
G01 X80.39019 Y61.65350
G01 X80.59484 Y61.63336
G01 X80.77241 Y61.57748
G01 X80.93566 Y61.48804
G01 X81.06446 Y61.38233
G01 X81.19494 Y61.22335
G01 X81.28097 Y61.05830
G01 X81.33317 Y60.87961
G01 X81.34998 Y60.70400
G01 X81.34998 Y59.90400
G01 X81.33317 Y59.72836
G01 X81.28097 Y59.54967
G01 X81.19494 Y59.38462
G01 X81.07833 Y59.23951
G01 X80.93566 Y59.11993
G01 X80.77241 Y59.03049
G01 X80.59484 Y58.97461
G01 X80.40980 Y58.95447
G01 X80.22435 Y58.97080
G01 X80.04567 Y59.02300
G01 X79.88062 Y59.10906
G01 X79.73551 Y59.22564
G01 X79.61595 Y59.36831
G01 X79.52649 Y59.53156
G01 X79.47064 Y59.70913
G01 X79.44998 Y59.90400
G01 X79.44998 Y56.89400
G01 X79.47064 Y57.08884
G01 X79.52649 Y57.26641
G01 X79.60505 Y57.41335
G01 X79.73551 Y57.57233
G01 X79.86431 Y57.67804
G01 X80.02756 Y57.76748
G01 X80.22435 Y57.82717
G01 X80.39019 Y57.84350
G01 X80.57561 Y57.82717
G01 X80.77241 Y57.76748
G01 X80.93566 Y57.67804
G01 X81.06446 Y57.57233
G01 X81.18404 Y57.42966
G01 X81.27348 Y57.26641
G01 X81.32936 Y57.08884
G01 X81.34998 Y56.89400
G01 X81.34998 Y56.09400
G01 X81.33317 Y55.91836
G01 X81.27348 Y55.72156
G01 X81.19494 Y55.57462
G01 X81.07833 Y55.42951
G01 X80.93566 Y55.30993
G01 X80.77241 Y55.22049
G01 X80.59484 Y55.16459
G01 X80.40980 Y55.14447
G01 X80.22435 Y55.16080
G01 X80.04567 Y55.21300
G01 X79.88062 Y55.29903
G01 X79.73551 Y55.41564
G01 X79.61595 Y55.55831
G01 X79.52649 Y55.72156
G01 X79.46680 Y55.91836
G01 X79.44998 Y56.09400
G01 X79.44998 Y56.89400
G04 P0 ( dwell for no time -- G64 should not smooth over this point )
G00 Z5.00000 ( retract )

G00 X74.36998 Y57.74398 ( rapid move to begin. )
G01 F300.00000
( Mill infeed pass 1/1 )
G01 Z-0.05000
G04 P0 ( dwell for no time -- G64 should not smooth over this point )
G01 F600.00000
G01 X74.36998 Y57.74398
G01 X74.36998 Y55.24399
G01 X74.37761 Y55.20571
G01 X74.38685 Y55.18844
G01 X74.39927 Y55.17327
G01 X74.43171 Y55.15158
G01 X74.46998 Y55.14399
G01 X76.16998 Y55.14399
G01 X76.20826 Y55.15158
G01 X76.22556 Y55.16083
G01 X76.25314 Y55.18844
G01 X76.26239 Y55.20571
G01 X76.26998 Y55.24399
G01 X76.26998 Y57.74398
G01 X76.26239 Y57.78226
G01 X76.25314 Y57.79953
G01 X76.22556 Y57.82714
G01 X76.18949 Y57.84208
G01 X76.16998 Y57.84398
G01 X74.46998 Y57.84398
G01 X74.43171 Y57.83636
G01 X74.39927 Y57.81470
G01 X74.37761 Y57.78226
G01 X74.36998 Y57.74398
G01 X74.36998 Y59.05399
G01 X74.37761 Y59.01571
G01 X74.39927 Y58.98327
G01 X74.43171 Y58.96161
G01 X74.46998 Y58.95399
G01 X76.16998 Y58.95399
G01 X76.18949 Y58.95592
G01 X76.22556 Y58.97083
G01 X76.25314 Y58.99844
G01 X76.26239 Y59.01571
G01 X76.26998 Y59.05399
G01 X76.26998 Y61.55398
G01 X76.26239 Y61.59226
G01 X76.25314 Y61.60953
G01 X76.22556 Y61.63714
G01 X76.18949 Y61.65208
G01 X76.16998 Y61.65398
G01 X74.46998 Y61.65398
G01 X74.45048 Y61.65208
G01 X74.41443 Y61.63714
G01 X74.38685 Y61.60953
G01 X74.37761 Y61.59226
G01 X74.36998 Y61.55398
G01 X74.36998 Y59.05399
G04 P0 ( dwell for no time -- G64 should not smooth over this point )
G00 Z5.00000 ( retract )

G00 X76.90998 Y59.90400 ( rapid move to begin. )
G01 F300.00000
( Mill infeed pass 1/1 )
G01 Z-0.05000
G04 P0 ( dwell for no time -- G64 should not smooth over this point )
G01 F600.00000
G01 X76.90998 Y59.90400
G01 X76.93064 Y59.70913
G01 X76.98649 Y59.53156
G01 X77.06505 Y59.38462
G01 X77.19551 Y59.22564
G01 X77.32431 Y59.11993
G01 X77.48756 Y59.03049
G01 X77.68435 Y58.97080
G01 X77.85019 Y58.95447
G01 X78.03561 Y58.97080
G01 X78.23241 Y59.03049
G01 X78.39566 Y59.11993
G01 X78.52446 Y59.22564
G01 X78.64404 Y59.36831
G01 X78.73348 Y59.53156
G01 X78.78936 Y59.70913
G01 X78.80998 Y59.90400
G01 X78.80998 Y60.70400
G01 X78.79317 Y60.87961
G01 X78.73348 Y61.07641
G01 X78.65494 Y61.22335
G01 X78.53833 Y61.36846
G01 X78.37935 Y61.49892
G01 X78.23241 Y61.57748
G01 X78.05484 Y61.63336
G01 X77.85019 Y61.65350
G01 X77.66513 Y61.63336
G01 X77.50567 Y61.58497
G01 X77.32431 Y61.48804
G01 X77.18164 Y61.36846
